;FLAVOR:Marlin
;TIME:2556
;Filament used: 3.72191m
;Layer height: 0.3
;MINX:85
;MINY:73.57
;MINZ:0.3
;MAXX:150
;MAXY:161.43
;MAXZ:3
;Generated with Cura_SteamEngine main
M140 S60
M105
M190 S60
M104 S200
M105
M109 S200
M82 ;absolute extrusion mode
; SC-10 Custom Start G-code
G28 ; Home all axes
G92 E0 ; Reset Extruder
G1 Z2.0 F3000 ; Move Z Axis up little to prevent scratching of Heat Bed
G1 X0.1 Y20 Z0.3 F5000.0 ; Move to start position
G1 X0.1 Y200.0 Z0.3 F1500.0 E15 ; Draw the first line
G1 X0.4 Y200.0 Z0.3 F5000.0 ; Move to side a little
G1 X0.4 Y20 Z0.3 F1500.0 E30 ; Draw the second line
G92 E0 ; Reset Extruder
G1 Z2.0 F3000 ; Move Z Axis up little to prevent scratching of Heat Bed
; End of custom start GCode
G92 E0
G92 E0
G1 F1500 E-6.5
;LAYER_COUNT:10
;LAYER:0
M107
G0 F6000 X88.39 Y78.116 Z0.3
G0 X85.001 Y87.736
;TYPE:SKIRT
G1 F1500 E0
G1 F1200 X85.019 Y86.602 E0.08487
G1 X85.058 Y85.911 E0.13667
G1 X85.104 Y85.47 E0.16985
G1 X85.169 Y84.992 E0.20595
G1 X85.248 Y84.526 E0.24132
G1 X85.329 Y84.13 E0.27157
G1 X85.438 Y83.673 E0.30673
G1 X85.558 Y83.236 E0.34064
G1 X85.681 Y82.836 E0.37196
G1 X85.78 Y82.544 E0.39503
G1 X85.943 Y82.111 E0.42966
G1 X86.108 Y81.712 E0.46197
G1 X86.282 Y81.325 E0.49372
G1 X86.448 Y80.983 E0.52217
G1 X86.667 Y80.567 E0.55735
G1 X86.911 Y80.139 E0.59422
G1 X87.145 Y79.757 E0.62775
G1 X87.52 Y79.205 E0.67769
G1 X87.742 Y78.904 E0.70567
G1 X88.051 Y78.514 E0.74291
G1 X88.39 Y78.116 E0.78204
G1 X88.691 Y77.785 E0.81552
G1 X88.924 Y77.544 E0.8406
G1 X89.25 Y77.227 E0.87463
G1 X89.516 Y76.985 E0.90154
G1 X89.838 Y76.71 E0.93323
G1 X90.225 Y76.398 E0.97043
G1 X90.632 Y76.093 E1.00849
G1 X90.959 Y75.866 E1.03828
G1 X91.3 Y75.643 E1.06877
G1 X91.899 Y75.29 E1.12081
G1 X92.314 Y75.068 E1.15603
G1 X92.737 Y74.86 E1.1913
G1 X93.104 Y74.694 E1.22145
G1 X93.518 Y74.522 E1.25499
G1 X93.867 Y74.39 E1.28292
G1 X94.284 Y74.247 E1.31591
G1 X94.718 Y74.113 E1.3499
G1 X95.383 Y73.938 E1.40136
G1 X95.829 Y73.844 E1.43547
G1 X96.354 Y73.751 E1.47537
G1 X96.81 Y73.685 E1.50985
G1 X97.189 Y73.643 E1.53839
G1 X97.633 Y73.608 E1.57172
G1 X98.127 Y73.588 E1.60871
G1 X99.279 Y73.57 E1.69494
G1 X135.851 Y73.571 E4.43181
G1 X137.051 Y73.593 E4.52163
G1 X137.702 Y73.631 E4.57043
G1 X138.147 Y73.68 E4.60393
G1 X138.621 Y73.747 E4.63976
G1 X139.075 Y73.826 E4.67424
G1 X139.584 Y73.932 E4.71315
G1 X140.015 Y74.036 E4.74633
G1 X140.606 Y74.21 E4.79244
G1 X141.012 Y74.346 E4.82448
G1 X141.478 Y74.52 E4.8617
G1 X141.866 Y74.681 E4.89314
G1 X142.245 Y74.852 E4.92426
G1 X142.587 Y75.018 E4.95271
G1 X143.011 Y75.241 E4.98856
G1 X143.415 Y75.472 E5.02338
G1 X143.796 Y75.706 E5.05684
G1 X144.121 Y75.92 E5.08596
G1 X144.695 Y76.333 E5.13888
G1 X145.066 Y76.628 E5.17435
G1 X145.438 Y76.945 E5.21093
G1 X145.764 Y77.24 E5.24383
G1 X146.022 Y77.489 E5.27067
G1 X146.343 Y77.82 E5.30517
G1 X146.585 Y78.086 E5.33208
G1 X146.86 Y78.408 E5.36377
G1 X147.172 Y78.795 E5.40097
G1 X147.477 Y79.202 E5.43903
G1 X147.704 Y79.529 E5.46882
G1 X147.927 Y79.87 E5.49931
G1 X148.28 Y80.469 E5.55135
G1 X148.502 Y80.884 E5.58657
G1 X148.71 Y81.307 E5.62184
G1 X148.876 Y81.674 E5.65199
G1 X149.046 Y82.084 E5.6852
G1 X149.19 Y82.464 E5.71561
G1 X149.332 Y82.877 E5.74829
G1 X149.43 Y83.193 E5.77305
G1 X149.547 Y83.612 E5.80561
G1 X149.65 Y84.034 E5.83812
G1 X149.746 Y84.497 E5.8735
G1 X149.819 Y84.915 E5.90526
G1 X149.881 Y85.35 E5.93814
G1 X149.926 Y85.754 E5.96856
G1 X149.962 Y86.2 E6.00204
G1 X149.982 Y86.695 E6.03912
G1 X150 Y87.849 E6.12549
G1 X149.999 Y147.264 E10.57183
G1 X149.981 Y148.398 E10.6567
G1 X149.942 Y149.089 E10.7085
G1 X149.896 Y149.53 E10.74168
G1 X149.831 Y150.008 E10.77778
G1 X149.752 Y150.474 E10.81315
G1 X149.671 Y150.87 E10.8434
G1 X149.562 Y151.327 E10.87856
G1 X149.442 Y151.764 E10.91247
G1 X149.319 Y152.164 E10.94379
G1 X149.22 Y152.456 E10.96686
G1 X149.057 Y152.889 E11.00148
G1 X148.892 Y153.288 E11.0338
G1 X148.718 Y153.675 E11.06555
G1 X148.552 Y154.017 E11.094
G1 X148.333 Y154.433 E11.12918
G1 X148.089 Y154.861 E11.16605
G1 X147.855 Y155.243 E11.19957
G1 X147.48 Y155.795 E11.24951
G1 X147.258 Y156.096 E11.2775
G1 X146.951 Y156.483 E11.31447
G1 X146.614 Y156.879 E11.35338
G1 X146.312 Y157.213 E11.38708
G1 X146.08 Y157.453 E11.41206
G1 X145.756 Y157.767 E11.44583
G1 X145.487 Y158.012 E11.47305
G1 X145.162 Y158.29 E11.50506
G1 X144.775 Y158.602 E11.54226
G1 X144.368 Y158.907 E11.58032
G1 X144.041 Y159.134 E11.61011
G1 X143.7 Y159.357 E11.6406
G1 X143.101 Y159.71 E11.69263
G1 X142.686 Y159.932 E11.72786
G1 X142.263 Y160.14 E11.76313
G1 X141.896 Y160.306 E11.79327
G1 X141.482 Y160.478 E11.82682
G1 X141.133 Y160.61 E11.85475
G1 X140.716 Y160.753 E11.88774
G1 X140.282 Y160.887 E11.92173
G1 X139.617 Y161.062 E11.97319
G1 X139.171 Y161.156 E12.0073
G1 X138.646 Y161.249 E12.0472
G1 X138.19 Y161.315 E12.08168
G1 X137.811 Y161.357 E12.11021
G1 X137.367 Y161.392 E12.14354
G1 X136.873 Y161.412 E12.18054
G1 X135.721 Y161.43 E12.26676
G1 X99.149 Y161.429 E15.00364
G1 X97.949 Y161.407 E15.09346
G1 X97.298 Y161.369 E15.14226
G1 X96.853 Y161.32 E15.17576
G1 X96.379 Y161.253 E15.21159
G1 X95.925 Y161.174 E15.24607
G1 X95.416 Y161.068 E15.28498
G1 X94.985 Y160.964 E15.31816
G1 X94.394 Y160.79 E15.36427
G1 X93.988 Y160.654 E15.39631
G1 X93.522 Y160.48 E15.43353
G1 X93.134 Y160.319 E15.46497
G1 X92.755 Y160.148 E15.49609
G1 X92.413 Y159.982 E15.52453
G1 X91.989 Y159.759 E15.56039
G1 X91.585 Y159.528 E15.59521
G1 X91.204 Y159.294 E15.62867
G1 X90.879 Y159.08 E15.65779
G1 X90.296 Y158.66 E15.71157
G1 X89.931 Y158.37 E15.74645
G1 X89.561 Y158.055 E15.78282
G1 X89.224 Y157.749 E15.81688
G1 X88.968 Y157.501 E15.84355
G1 X88.655 Y157.178 E15.87721
G1 X88.414 Y156.913 E15.90402
G1 X88.14 Y156.592 E15.9356
G1 X87.828 Y156.205 E15.9728
G1 X87.525 Y155.801 E16.0106
G1 X87.297 Y155.473 E16.04049
G1 X86.925 Y154.889 E16.09231
G1 X86.717 Y154.525 E16.12368
G1 X86.496 Y154.111 E16.1588
G1 X86.29 Y153.693 E16.19367
G1 X86.124 Y153.326 E16.22382
G1 X85.951 Y152.908 E16.25767
G1 X85.803 Y152.516 E16.28903
G1 X85.66 Y152.099 E16.32202
G1 X85.566 Y151.794 E16.3459
G1 X85.454 Y151.39 E16.37728
G1 X85.351 Y150.969 E16.40971
G1 X85.253 Y150.501 E16.44549
G1 X85.18 Y150.082 E16.47732
G1 X85.119 Y149.649 E16.51005
G1 X85.074 Y149.245 E16.54047
G1 X85.038 Y148.797 E16.5741
G1 X85.018 Y148.303 E16.6111
G1 X85 Y147.151 E16.69732
G1 X85.001 Y87.736 E21.14366
G0 F6000 X85.601 Y87.746
G1 F1200 X85.619 Y86.612 E21.22853
G1 X85.656 Y85.954 E21.27785
G1 X85.698 Y85.551 E21.30817
G1 X85.763 Y85.073 E21.34428
G1 X85.836 Y84.646 E21.37669
G1 X85.917 Y84.25 E21.40694
G1 X86.017 Y83.832 E21.43911
G1 X86.137 Y83.395 E21.47302
G1 X86.249 Y83.029 E21.50166
G1 X86.348 Y82.737 E21.52474
G1 X86.497 Y82.34 E21.55647
G1 X86.662 Y81.941 E21.58878
G1 X86.821 Y81.587 E21.61782
G1 X86.987 Y81.245 E21.64627
G1 X87.188 Y80.864 E21.67851
G1 X87.432 Y80.436 E21.71538
G1 X87.646 Y80.087 E21.74601
G1 X88.003 Y79.561 E21.79359
G1 X88.225 Y79.26 E21.82158
G1 X88.508 Y78.903 E21.85567
G1 X88.847 Y78.505 E21.89479
G1 X89.122 Y78.202 E21.92541
G1 X89.355 Y77.961 E21.9505
G1 X89.654 Y77.671 E21.98167
G1 X89.92 Y77.429 E22.00858
G1 X90.214 Y77.177 E22.03756
G1 X90.601 Y76.865 E22.07476
G1 X90.974 Y76.585 E22.10967
G1 X91.301 Y76.358 E22.13946
G1 X91.853 Y76.008 E22.18837
G1 X92.182 Y75.82 E22.21673
G1 X92.597 Y75.598 E22.25195
G1 X92.984 Y75.407 E22.28424
G1 X93.351 Y75.241 E22.31439
G1 X93.731 Y75.083 E22.34518
G1 X94.08 Y74.951 E22.37311
G1 X94.461 Y74.82 E22.40326
G1 X94.895 Y74.686 E22.43725
G1 X95.526 Y74.52 E22.48608
G1 X95.933 Y74.435 E22.51719
G1 X96.458 Y74.342 E22.55709
G1 X96.876 Y74.282 E22.58869
G1 X97.255 Y74.24 E22.61723
G1 X97.662 Y74.207 E22.64779
G1 X98.137 Y74.188 E22.68336
G1 X99.279 Y74.17 E22.76884
G1 X135.84 Y74.171 E25.50489
G1 X137.04 Y74.193 E25.59471
G1 X137.656 Y74.229 E25.64088
G1 X138.063 Y74.274 E25.67153
G1 X138.537 Y74.341 E25.70735
G1 X138.952 Y74.414 E25.73889
G1 X139.461 Y74.52 E25.77779
G1 X139.856 Y74.615 E25.8082
G1 X140.416 Y74.779 E25.85186
G1 X140.822 Y74.915 E25.88391
G1 X141.248 Y75.074 E25.91794
G1 X141.636 Y75.235 E25.94937
G1 X141.983 Y75.391 E25.97784
G1 X142.325 Y75.557 E26.00629
G1 X142.713 Y75.762 E26.03913
G1 X143.117 Y75.993 E26.07396
G1 X143.466 Y76.207 E26.1046
G1 X143.791 Y76.421 E26.13372
G1 X144.337 Y76.814 E26.18406
G1 X144.677 Y77.085 E26.2166
G1 X145.049 Y77.402 E26.25317
G1 X145.347 Y77.672 E26.28327
G1 X145.605 Y77.921 E26.3101
G1 X145.899 Y78.224 E26.34169
G1 X146.141 Y78.49 E26.36861
G1 X146.393 Y78.784 E26.39758
G1 X146.705 Y79.171 E26.43478
G1 X146.985 Y79.544 E26.46969
G1 X147.212 Y79.871 E26.49948
G1 X147.562 Y80.423 E26.54839
G1 X147.75 Y80.752 E26.57675
G1 X147.972 Y81.167 E26.61197
G1 X148.163 Y81.554 E26.64426
G1 X148.329 Y81.921 E26.67441
G1 X148.485 Y82.297 E26.70487
G1 X148.629 Y82.677 E26.73528
G1 X148.759 Y83.055 E26.7652
G1 X148.857 Y83.371 E26.78996
G1 X148.964 Y83.755 E26.81979
G1 X149.067 Y84.177 E26.85229
G1 X149.155 Y84.6 E26.88463
G1 X149.228 Y85.018 E26.91638
G1 X149.285 Y85.416 E26.94647
G1 X149.33 Y85.82 E26.97689
G1 X149.363 Y86.229 E27.0076
G1 X149.382 Y86.705 E27.04325
G1 X149.4 Y87.849 E27.12887
G1 X149.399 Y147.254 E31.57446
G1 X149.381 Y148.388 E31.65934
G1 X149.344 Y149.046 E31.70865
G1 X149.302 Y149.449 E31.73898
G1 X149.237 Y149.927 E31.77508
G1 X149.164 Y150.354 E31.8075
G1 X149.083 Y150.75 E31.83774
G1 X148.983 Y151.168 E31.86991
G1 X148.863 Y151.605 E31.90382
G1 X148.751 Y151.971 E31.93246
G1 X148.652 Y152.263 E31.95554
G1 X148.503 Y152.66 E31.98727
G1 X148.338 Y153.059 E32.01958
G1 X148.179 Y153.413 E32.04862
G1 X148.013 Y153.755 E32.07707
G1 X147.812 Y154.136 E32.10931
G1 X147.568 Y154.564 E32.14618
G1 X147.354 Y154.913 E32.17682
G1 X146.997 Y155.439 E32.22439
G1 X146.775 Y155.74 E32.25238
G1 X146.494 Y156.095 E32.28626
G1 X146.157 Y156.491 E32.32517
G1 X145.88 Y156.796 E32.35601
G1 X145.648 Y157.036 E32.38099
G1 X145.352 Y157.324 E32.41189
G1 X145.083 Y157.569 E32.43912
G1 X144.786 Y157.823 E32.46837
G1 X144.399 Y158.135 E32.50557
G1 X144.026 Y158.415 E32.54047
G1 X143.699 Y158.642 E32.57026
G1 X143.147 Y158.992 E32.61917
G1 X142.818 Y159.18 E32.64753
G1 X142.403 Y159.402 E32.68275
G1 X142.016 Y159.593 E32.71505
G1 X141.649 Y159.759 E32.74519
G1 X141.269 Y159.917 E32.77599
G1 X140.92 Y160.049 E32.80391
G1 X140.539 Y160.18 E32.83406
G1 X140.105 Y160.314 E32.86805
G1 X139.474 Y160.48 E32.91688
G1 X139.067 Y160.565 E32.948
G1 X138.542 Y160.658 E32.9879
G1 X138.124 Y160.718 E33.0195
G1 X137.745 Y160.76 E33.04804
G1 X137.338 Y160.793 E33.07859
G1 X136.863 Y160.812 E33.11417
G1 X135.721 Y160.83 E33.19964
G1 X99.16 Y160.829 E35.9357
G1 X97.96 Y160.807 E36.02551
G1 X97.344 Y160.771 E36.07169
G1 X96.937 Y160.726 E36.10233
G1 X96.463 Y160.659 E36.13816
G1 X96.048 Y160.586 E36.16969
G1 X95.539 Y160.48 E36.2086
G1 X95.144 Y160.385 E36.239
G1 X94.584 Y160.221 E36.28267
G1 X94.178 Y160.085 E36.31471
G1 X93.752 Y159.926 E36.34874
G1 X93.364 Y159.765 E36.38018
G1 X93.017 Y159.609 E36.40865
G1 X92.675 Y159.443 E36.4371
G1 X92.287 Y159.238 E36.46994
G1 X91.883 Y159.007 E36.50476
G1 X91.534 Y158.793 E36.5354
G1 X91.209 Y158.579 E36.56452
G1 X90.654 Y158.179 E36.61572
G1 X90.32 Y157.913 E36.64767
G1 X89.95 Y157.598 E36.68404
G1 X89.641 Y157.318 E36.71524
G1 X89.385 Y157.07 E36.74192
G1 X89.099 Y156.774 E36.77272
G1 X88.858 Y156.509 E36.79952
G1 X88.607 Y156.216 E36.8284
G1 X88.295 Y155.829 E36.8656
G1 X88.018 Y155.459 E36.90019
G1 X87.79 Y155.131 E36.93008
G1 X87.437 Y154.576 E36.9793
G1 X87.246 Y154.242 E37.00809
G1 X87.025 Y153.828 E37.04321
G1 X86.837 Y153.446 E37.07508
G1 X86.671 Y153.079 E37.10522
G1 X86.512 Y152.696 E37.13625
G1 X86.364 Y152.304 E37.16761
G1 X86.233 Y151.922 E37.19783
G1 X86.139 Y151.617 E37.22172
G1 X86.037 Y151.248 E37.25037
G1 X85.934 Y150.827 E37.2828
G1 X85.844 Y150.398 E37.3156
G1 X85.771 Y149.979 E37.34743
G1 X85.715 Y149.583 E37.37736
G1 X85.67 Y149.179 E37.40778
G1 X85.637 Y148.768 E37.43864
G1 X85.618 Y148.293 E37.47421
G1 X85.6 Y147.151 E37.55969
G1 X85.601 Y87.746 E42.00528
G0 F6000 X86.201 Y87.755
G1 F1200 X86.219 Y86.621 E42.09015
G1 X86.255 Y85.998 E42.13685
G1 X86.293 Y85.632 E42.16439
G1 X86.358 Y85.154 E42.20049
G1 X86.424 Y84.767 E42.22987
G1 X86.505 Y84.371 E42.26012
G1 X86.596 Y83.991 E42.28936
G1 X86.716 Y83.554 E42.32327
G1 X86.817 Y83.222 E42.34924
G1 X86.916 Y82.93 E42.37231
G1 X87.052 Y82.569 E42.40118
G1 X87.217 Y82.17 E42.4335
G1 X87.361 Y81.849 E42.45982
G1 X87.527 Y81.507 E42.48827
G1 X87.709 Y81.161 E42.51753
G1 X87.953 Y80.733 E42.5544
G1 X88.148 Y80.416 E42.58225
G1 X88.486 Y79.917 E42.62735
G1 X88.708 Y79.616 E42.65534
G1 X88.964 Y79.292 E42.68624
G1 X89.303 Y78.894 E42.72537
G1 X89.553 Y78.619 E42.75318
G1 X89.786 Y78.378 E42.77827
G1 X90.058 Y78.115 E42.80658
G1 X90.324 Y77.873 E42.83349
G1 X90.591 Y77.644 E42.85982
G1 X90.978 Y77.332 E42.89702
G1 X91.316 Y77.078 E42.92866
G1 X91.643 Y76.851 E42.95845
G1 X92.166 Y76.52 E43.00477
G1 X92.465 Y76.349 E43.03054
G1 X92.88 Y76.127 E43.06576
G1 X93.231 Y75.953 E43.09508
G1 X93.598 Y75.787 E43.12523
G1 X93.943 Y75.645 E43.15314
G1 X94.292 Y75.513 E43.18107
G1 X94.638 Y75.394 E43.20845
G1 X95.072 Y75.26 E43.24244
G1 X95.668 Y75.103 E43.28856
G1 X96.038 Y75.025 E43.31686
G1 X96.563 Y74.932 E43.35676
G1 X96.942 Y74.878 E43.38541
G1 X97.321 Y74.836 E43.41395
G1 X97.69 Y74.807 E43.44165
G1 X98.147 Y74.788 E43.47588
G1 X99.279 Y74.77 E43.5606
G1 X135.721 Y74.77 E46.28775
G1 X137.029 Y74.793 E46.38565
G1 X137.609 Y74.828 E46.42913
G1 X137.979 Y74.868 E46.45698
G1 X138.453 Y74.935 E46.49281
G1 X138.83 Y75.001 E46.52145
G1 X139.339 Y75.107 E46.56036
G1 X139.697 Y75.193 E46.58791
G1 X140.225 Y75.348 E46.62909
G1 X140.631 Y75.484 E46.66113
G1 X141.018 Y75.629 E46.69206
G1 X141.406 Y75.79 E46.7235
G1 X141.721 Y75.931 E46.74932
G1 X142.063 Y76.097 E46.77777
G1 X142.416 Y76.283 E46.80763
G1 X142.82 Y76.514 E46.84246
G1 X143.136 Y76.708 E46.87021
G1 X143.461 Y76.922 E46.89933
G1 X143.979 Y77.296 E46.94714
G1 X144.288 Y77.541 E46.97665
G1 X144.66 Y77.858 E47.01323
G1 X144.93 Y78.104 E47.04056
G1 X145.188 Y78.353 E47.0674
G1 X145.455 Y78.628 E47.09608
G1 X145.697 Y78.894 E47.12299
G1 X145.926 Y79.161 E47.14931
G1 X146.238 Y79.548 E47.18652
G1 X146.492 Y79.886 E47.21816
G1 X146.719 Y80.213 E47.24795
G1 X147.05 Y80.736 E47.29426
G1 X147.221 Y81.035 E47.32004
G1 X147.443 Y81.45 E47.35526
G1 X147.617 Y81.801 E47.38458
G1 X147.783 Y82.168 E47.41472
G1 X147.924 Y82.509 E47.44234
G1 X148.068 Y82.889 E47.47275
G1 X148.186 Y83.232 E47.49989
G1 X148.284 Y83.548 E47.52465
G1 X148.381 Y83.897 E47.55176
G1 X148.484 Y84.319 E47.58427
G1 X148.564 Y84.703 E47.61362
G1 X148.637 Y85.121 E47.64538
G1 X148.689 Y85.483 E47.67274
G1 X148.734 Y85.887 E47.70316
G1 X148.763 Y86.257 E47.73094
G1 X148.782 Y86.714 E47.76517
G1 X148.8 Y87.849 E47.85012
G1 X148.799 Y147.245 E52.29503
G1 X148.781 Y148.379 E52.37991
G1 X148.745 Y149.002 E52.42661
G1 X148.707 Y149.368 E52.45415
G1 X148.642 Y149.846 E52.49025
G1 X148.576 Y150.233 E52.51962
G1 X148.495 Y150.629 E52.54987
G1 X148.404 Y151.009 E52.57911
G1 X148.284 Y151.446 E52.61303
G1 X148.183 Y151.778 E52.639
G1 X148.084 Y152.07 E52.66207
G1 X147.948 Y152.431 E52.69094
G1 X147.783 Y152.83 E52.72325
G1 X147.639 Y153.151 E52.74958
G1 X147.473 Y153.493 E52.77803
G1 X147.291 Y153.839 E52.80729
G1 X147.047 Y154.267 E52.84416
G1 X146.852 Y154.584 E52.87201
G1 X146.514 Y155.083 E52.91711
G1 X146.292 Y155.384 E52.9451
G1 X146.037 Y155.706 E52.97584
G1 X145.7 Y156.102 E53.01475
G1 X145.449 Y156.379 E53.04272
G1 X145.217 Y156.619 E53.06771
G1 X144.948 Y156.88 E53.09575
