;FLAVOR:Marlin
;TIME:1193
;Filament used: 0.537717m
;Layer height: 0.15
;MINX:103.125
;MINY:103.115
;MINZ:0.3
;MAXX:131.884
;MAXY:131.886
;MAXZ:20.55
;Generated with Cura_SteamEngine main
M140 S55
M105
M190 S55
M104 S195
M105
M109 S195
M82 ;absolute extrusion mode
; SC-10 Custom Start G-code
G28 ; Home all axes
G92 E0 ; Reset Extruder
G1 Z2.0 F3000 ; Move Z Axis up little to prevent scratching of Heat Bed
G1 X0.1 Y20 Z0.3 F5000.0 ; Move to start position
G1 X0.1 Y200.0 Z0.3 F1500.0 E15 ; Draw the first line
G1 X0.4 Y200.0 Z0.3 F5000.0 ; Move to side a little
G1 X0.4 Y20 Z0.3 F1500.0 E30 ; Draw the second line
G92 E0 ; Reset Extruder
G1 Z2.0 F3000 ; Move Z Axis up little to prevent scratching of Heat Bed
; End of custom start GCode
G92 E0
G92 E0
G1 F1500 E-6.5
;LAYER_COUNT:136
;LAYER:0
M107
G0 F6000 X107.327 Y107.34 Z0.3
G0 X103.125 Y117.808
;TYPE:SKIRT
G1 F1500 E0
G1 F1200 X103.127 Y117.12 E0.03432
G1 X103.143 Y116.684 E0.05609
G1 X103.179 Y116.179 E0.08135
G1 X103.22 Y115.781 E0.10131
G1 X103.266 Y115.439 E0.11853
G1 X103.328 Y115.066 E0.13739
G1 X103.442 Y114.482 E0.16708
G1 X103.544 Y114.041 E0.18966
G1 X103.708 Y113.433 E0.22108
G1 X103.826 Y113.046 E0.24126
G1 X103.967 Y112.63 E0.26318
G1 X104.171 Y112.088 E0.29207
G1 X104.301 Y111.778 E0.30884
G1 X104.506 Y111.324 E0.33369
G1 X104.75 Y110.839 E0.36078
G1 X105.187 Y110.056 E0.40551
G1 X105.567 Y109.456 E0.44095
G1 X105.839 Y109.075 E0.4643
G1 X106.193 Y108.607 E0.49358
G1 X106.63 Y108.082 E0.52766
G1 X106.87 Y107.817 E0.54549
G1 X107.327 Y107.34 E0.57845
G1 X107.651 Y107.025 E0.601
G1 X108.109 Y106.61 E0.63183
G1 X108.385 Y106.374 E0.64995
G1 X108.784 Y106.058 E0.67534
G1 X109.128 Y105.801 E0.69676
G1 X109.442 Y105.581 E0.71589
G1 X109.825 Y105.334 E0.73863
G1 X110.249 Y105.077 E0.76336
G1 X110.561 Y104.899 E0.78128
G1 X110.907 Y104.715 E0.80084
G1 X111.515 Y104.417 E0.83462
G1 X112.026 Y104.198 E0.86235
G1 X112.726 Y103.933 E0.8997
G1 X113.127 Y103.796 E0.92084
G1 X113.662 Y103.633 E0.94874
G1 X114.197 Y103.495 E0.9763
G1 X114.71 Y103.386 E1.00247
G1 X115.06 Y103.321 E1.02023
G1 X115.473 Y103.257 E1.04108
G1 X115.826 Y103.213 E1.05883
G1 X116.395 Y103.157 E1.08735
G1 X116.853 Y103.125 E1.11026
G1 X117.356 Y103.115 E1.13536
G1 X118.147 Y103.131 E1.17483
G1 X118.58 Y103.155 E1.19646
G1 X118.943 Y103.187 E1.21464
G1 X119.317 Y103.231 E1.23343
G1 X119.838 Y103.308 E1.25971
G1 X120.256 Y103.384 E1.2809
G1 X120.866 Y103.516 E1.31204
G1 X121.247 Y103.611 E1.33163
G1 X121.762 Y103.756 E1.35832
G1 X122.293 Y103.931 E1.38622
G1 X122.771 Y104.112 E1.41172
G1 X123.377 Y104.367 E1.44452
G1 X123.715 Y104.525 E1.46313
G1 X124.224 Y104.782 E1.49158
G1 X124.575 Y104.973 E1.51152
G1 X124.976 Y105.208 E1.5347
G1 X125.465 Y105.515 E1.56351
G1 X125.892 Y105.814 E1.58952
G1 X126.466 Y106.251 E1.62551
G1 X126.791 Y106.516 E1.64643
G1 X127.123 Y106.805 E1.66839
G1 X127.464 Y107.117 E1.69145
G1 X127.733 Y107.381 E1.71025
G1 X128.164 Y107.84 E1.74166
G1 X128.407 Y108.118 E1.76009
G1 X128.64 Y108.401 E1.77837
G1 X129.046 Y108.923 E1.81137
G1 X129.289 Y109.258 E1.83201
G1 X129.57 Y109.672 E1.85698
G1 X129.777 Y109.996 E1.87616
G1 X129.922 Y110.24 E1.89032
G1 X130.117 Y110.593 E1.91044
G1 X130.458 Y111.259 E1.94777
G1 X130.644 Y111.655 E1.96959
G1 X130.842 Y112.117 E1.99467
G1 X130.988 Y112.491 E2.0147
G1 X131.103 Y112.814 E2.03181
G1 X131.224 Y113.19 E2.05151
G1 X131.391 Y113.77 E2.08163
G1 X131.491 Y114.166 E2.102
G1 X131.614 Y114.725 E2.13056
G1 X131.689 Y115.126 E2.15091
G1 X131.746 Y115.496 E2.16959
G1 X131.794 Y115.885 E2.18914
G1 X131.843 Y116.419 E2.2159
G1 X131.868 Y116.848 E2.23733
G1 X131.884 Y117.506 E2.27017
G1 X131.881 Y117.911 E2.29038
G1 X131.848 Y118.503 E2.31996
G1 X131.761 Y119.412 E2.36552
G1 X131.634 Y120.206 E2.40563
G1 X131.48 Y120.891 E2.44066
G1 X131.373 Y121.304 E2.46195
G1 X131.148 Y122.064 E2.50149
G1 X130.877 Y122.807 E2.54095
G1 X130.589 Y123.467 E2.57687
G1 X130.4 Y123.862 E2.59872
G1 X130.133 Y124.375 E2.62757
G1 X129.926 Y124.742 E2.64859
G1 X129.612 Y125.259 E2.67877
G1 X129.373 Y125.625 E2.70058
G1 X129.122 Y125.981 E2.72231
G1 X128.899 Y126.278 E2.74084
G1 X128.439 Y126.848 E2.77738
G1 X128.227 Y127.093 E2.79355
G1 X127.887 Y127.456 E2.81836
G1 X127.437 Y127.901 E2.84993
G1 X127.115 Y128.198 E2.87179
G1 X126.681 Y128.572 E2.90037
G1 X126.331 Y128.853 E2.92276
G1 X125.854 Y129.209 E2.95246
G1 X125.503 Y129.453 E2.97379
G1 X125.061 Y129.739 E3.00005
G1 X124.521 Y130.06 E3.03139
G1 X124.113 Y130.276 E3.05442
G1 X123.474 Y130.585 E3.08984
G1 X123.122 Y130.742 E3.10906
G1 X122.835 Y130.86 E3.12455
G1 X122.474 Y130.996 E3.14379
G1 X121.887 Y131.197 E3.17475
G1 X121.464 Y131.326 E3.19681
G1 X120.902 Y131.476 E3.22583
G1 X120.528 Y131.564 E3.245
G1 X120.238 Y131.623 E3.25976
G1 X119.626 Y131.73 E3.29076
G1 X119.038 Y131.803 E3.32032
G1 X118.246 Y131.864 E3.35995
G1 X117.814 Y131.883 E3.38152
G1 X117.486 Y131.886 E3.39789
G1 X117.093 Y131.877 E3.4175
G1 X116.48 Y131.845 E3.44812
G1 X116.057 Y131.809 E3.4693
G1 X115.478 Y131.74 E3.49839
G1 X115.093 Y131.682 E3.51782
G1 X114.751 Y131.62 E3.53516
G1 X114.367 Y131.539 E3.55474
G1 X113.764 Y131.391 E3.58572
G1 X113.224 Y131.238 E3.61372
G1 X112.767 Y131.085 E3.63776
G1 X112.014 Y130.8 E3.67793
G1 X111.579 Y130.616 E3.70149
G1 X111.068 Y130.372 E3.72974
G1 X110.789 Y130.227 E3.74543
G1 X110.315 Y129.963 E3.7725
G1 X109.674 Y129.567 E3.81009
G1 X109.366 Y129.359 E3.82863
G1 X108.911 Y129.033 E3.85656
G1 X108.553 Y128.758 E3.87908
G1 X108.079 Y128.365 E3.9098
G1 X107.573 Y127.907 E3.94385
G1 X107.298 Y127.634 E3.96318
G1 X106.854 Y127.165 E3.9954
G1 X106.567 Y126.84 E4.01703
G1 X106.202 Y126.398 E4.04563
G1 X105.964 Y126.091 E4.06501
G1 X105.779 Y125.837 E4.08069
G1 X105.55 Y125.502 E4.10093
G1 X105.21 Y124.967 E4.13256
G1 X104.993 Y124.599 E4.15387
G1 X104.735 Y124.126 E4.18075
G1 X104.565 Y123.789 E4.19958
G1 X104.348 Y123.322 E4.22527
G1 X104.173 Y122.917 E4.24728
G1 X103.958 Y122.346 E4.27772
G1 X103.713 Y121.588 E4.31747
G1 X103.585 Y121.136 E4.3409
G1 X103.457 Y120.611 E4.36786
G1 X103.326 Y119.956 E4.40119
G1 X103.266 Y119.557 E4.42132
G1 X103.186 Y118.881 E4.45528
G1 X103.152 Y118.489 E4.47491
G1 X103.135 Y118.187 E4.49
G1 X103.125 Y117.808 E4.50892
G0 F6000 X103.525 Y117.81
G1 F1200 X103.527 Y117.122 E4.54324
G1 X103.542 Y116.712 E4.56371
G1 X103.578 Y116.207 E4.58897
G1 X103.617 Y115.834 E4.60768
G1 X103.72 Y115.142 E4.64258
G1 X103.834 Y114.558 E4.67227
G1 X103.93 Y114.145 E4.69342
G1 X104.094 Y113.537 E4.72484
G1 X104.205 Y113.174 E4.74378
G1 X104.346 Y112.758 E4.76569
G1 X104.544 Y112.233 E4.79369
G1 X104.871 Y111.489 E4.83423
G1 X105.1 Y111.034 E4.85964
G1 X105.537 Y110.251 E4.90438
G1 X105.893 Y109.689 E4.93757
G1 X106.283 Y109.148 E4.97084
G1 X106.511 Y108.85 E4.98956
G1 X106.934 Y108.342 E5.02254
G1 X107.159 Y108.094 E5.03925
G1 X107.616 Y107.617 E5.07221
G1 X107.919 Y107.322 E5.0933
G1 X108.377 Y106.907 E5.12414
G1 X108.636 Y106.685 E5.14116
G1 X109.023 Y106.378 E5.1658
G1 X109.367 Y106.121 E5.18722
G1 X109.661 Y105.915 E5.20513
G1 X110.032 Y105.676 E5.22715
G1 X110.456 Y105.419 E5.25189
G1 X110.749 Y105.252 E5.26871
G1 X111.095 Y105.068 E5.28826
G1 X111.689 Y104.777 E5.32126
G1 X112.168 Y104.572 E5.34726
G1 X112.868 Y104.307 E5.3846
G1 X113.243 Y104.178 E5.40439
G1 X113.778 Y104.015 E5.43229
G1 X114.28 Y103.886 E5.45815
G1 X114.793 Y103.777 E5.48431
G1 X115.121 Y103.717 E5.50095
G1 X115.534 Y103.653 E5.5218
G1 X115.865 Y103.611 E5.53844
G1 X116.434 Y103.555 E5.56697
G1 X116.876 Y103.524 E5.58907
G1 X117.348 Y103.515 E5.61263
G1 X118.139 Y103.531 E5.6521
G1 X118.545 Y103.553 E5.67238
G1 X118.908 Y103.585 E5.69056
G1 X119.258 Y103.626 E5.70814
G1 X119.779 Y103.703 E5.73442
G1 X120.171 Y103.775 E5.7543
G1 X120.781 Y103.907 E5.78544
G1 X121.138 Y103.996 E5.8038
G1 X121.653 Y104.141 E5.83049
G1 X122.152 Y104.305 E5.85669
G1 X122.63 Y104.486 E5.88219
G1 X123.218 Y104.734 E5.91403
G1 X123.534 Y104.882 E5.93144
G1 X124.043 Y105.139 E5.95989
G1 X124.373 Y105.318 E5.97862
G1 X124.774 Y105.553 E6.00181
G1 X125.249 Y105.852 E6.02981
G1 X125.65 Y106.132 E6.05421
G1 X126.224 Y106.569 E6.0902
G1 X126.528 Y106.817 E6.10977
G1 X126.86 Y107.106 E6.13173
G1 X127.192 Y107.41 E6.15419
G1 X127.444 Y107.658 E6.17183
G1 X127.862 Y108.103 E6.20229
G1 X128.324 Y108.646 E6.23786
G1 X128.73 Y109.168 E6.27085
G1 X128.958 Y109.482 E6.29021
G1 X129.239 Y109.896 E6.31518
G1 X129.578 Y110.445 E6.34737
G1 X129.761 Y110.776 E6.36624
G1 X130.102 Y111.442 E6.40356
G1 X130.276 Y111.812 E6.42396
G1 X130.474 Y112.274 E6.44904
G1 X130.611 Y112.626 E6.46788
G1 X130.726 Y112.949 E6.48499
G1 X130.84 Y113.301 E6.50345
G1 X131.007 Y113.881 E6.53356
G1 X131.101 Y114.252 E6.55266
G1 X131.224 Y114.811 E6.58121
G1 X131.294 Y115.186 E6.60024
G1 X131.351 Y115.556 E6.61892
G1 X131.396 Y115.922 E6.63732
G1 X131.445 Y116.456 E6.66407
G1 X131.468 Y116.858 E6.68416
G1 X131.484 Y117.516 E6.717
G1 X131.481 Y117.896 E6.73596
G1 X131.45 Y118.465 E6.76439
G1 X131.363 Y119.374 E6.80994
G1 X131.244 Y120.118 E6.84753
G1 X131.09 Y120.803 E6.88256
G1 X130.989 Y121.19 E6.90251
G1 X130.764 Y121.95 E6.94206
G1 X130.51 Y122.647 E6.97907
G1 X130.222 Y123.307 E7.01499
G1 X130.045 Y123.677 E7.03546
G1 X129.778 Y124.19 E7.06431
G1 X129.584 Y124.535 E7.08406
G1 X129.27 Y125.052 E7.11423
G1 X129.046 Y125.394 E7.13463
G1 X128.795 Y125.75 E7.15636
G1 X128.586 Y126.029 E7.17375
G1 X128.294 Y126.396 E7.19715
G1 X127.924 Y126.831 E7.22564
G1 X127.606 Y127.171 E7.24887
G1 X127.156 Y127.616 E7.28044
G1 X126.854 Y127.895 E7.30096
G1 X126.42 Y128.269 E7.32954
G1 X126.092 Y128.532 E7.35051
G1 X125.615 Y128.888 E7.38021
G1 X125.286 Y129.117 E7.40021
G1 X124.844 Y129.403 E7.42647
G1 X124.321 Y129.713 E7.4568
G1 X123.939 Y129.916 E7.47839
G1 X123.3 Y130.225 E7.5138
G1 X122.683 Y130.49 E7.5473
G1 X122.345 Y130.617 E7.56531
G1 X121.758 Y130.818 E7.59627
G1 X121.361 Y130.939 E7.61697
G1 X120.799 Y131.089 E7.64599
G1 X120.448 Y131.172 E7.66399
G1 X120.158 Y131.231 E7.67875
G1 X119.559 Y131.336 E7.70909
G1 X119.008 Y131.404 E7.73679
G1 X118.216 Y131.465 E7.77642
G1 X117.81 Y131.483 E7.7967
G1 X117.482 Y131.486 E7.81306
G1 X117.114 Y131.478 E7.83142
G1 X116.501 Y131.446 E7.86205
G1 X116.104 Y131.412 E7.88193
G1 X115.525 Y131.343 E7.91102
G1 X115.165 Y131.289 E7.92918
G1 X114.823 Y131.227 E7.94652
G1 X114.463 Y131.15 E7.96489
G1 X113.86 Y131.002 E7.99586
G1 X113.337 Y130.854 E8.02298
G1 X112.908 Y130.711 E8.04554
G1 X112.155 Y130.426 E8.08571
G1 X111.747 Y130.254 E8.1078
G1 X111.487 Y130.133 E8.12211
G1 X110.973 Y129.872 E8.15087
G1 X110.512 Y129.615 E8.1772
G1 X109.888 Y129.229 E8.21381
G1 X109.598 Y129.034 E8.23124
G1 X109.143 Y128.708 E8.25917
G1 X108.808 Y128.45 E8.28026
G1 X108.334 Y128.057 E8.31098
G1 X107.846 Y127.615 E8.34383
G1 X107.589 Y127.359 E8.36193
G1 X107.145 Y126.89 E8.39415
G1 X106.876 Y126.585 E8.41444
G1 X106.511 Y126.143 E8.44303
G1 X106.287 Y125.855 E8.46124
G1 X106.102 Y125.601 E8.47691
G1 X105.888 Y125.287 E8.49587
G1 X105.548 Y124.752 E8.5275
G1 X105.345 Y124.407 E8.54747
G1 X105.087 Y123.934 E8.57435
G1 X104.926 Y123.619 E8.592
G1 X104.795 Y123.341 E8.60733
G1 X104.54 Y122.758 E8.63908
G1 X104.339 Y122.223 E8.66759
G1 X104.094 Y121.465 E8.70733
G1 X103.974 Y121.041 E8.72932
G1 X103.846 Y120.516 E8.75627
G1 X103.72 Y119.884 E8.78843
G1 X103.664 Y119.51 E8.80729
G1 X103.584 Y118.834 E8.84125
G1 X103.551 Y118.466 E8.85969
G1 X103.534 Y118.164 E8.87478
G1 X103.525 Y117.81 E8.89244
G0 F6000 X103.925 Y117.811
G1 F1200 X103.927 Y117.123 E8.92677
G1 X103.941 Y116.741 E8.94584
G1 X103.977 Y116.236 E8.9711
G1 X104.013 Y115.888 E8.98855
G1 X104.059 Y115.546 E9.00577
G1 X104.113 Y115.219 E9.0223
G1 X104.227 Y114.635 E9.05199
G1 X104.316 Y114.25 E9.0717
G1 X104.48 Y113.642 E9.10312
G1 X104.583 Y113.302 E9.12085
G1 X104.724 Y112.886 E9.14276
G1 X104.916 Y112.379 E9.16981
G1 X105.03 Y112.107 E9.18452
G1 X105.235 Y111.653 E9.20937
G1 X105.449 Y111.229 E9.23307
G1 X105.886 Y110.446 E9.2778
G1 X106.218 Y109.921 E9.30879
G1 X106.6 Y109.391 E9.34139
G1 X106.828 Y109.093 E9.36011
G1 X107.238 Y108.602 E9.39202
G1 X107.447 Y108.371 E9.40756
G1 X107.904 Y107.894 E9.44052
G1 X108.188 Y107.618 E9.46028
G1 X108.646 Y107.203 E9.49111
G1 X108.887 Y106.997 E9.50693
G1 X109.262 Y106.699 E9.53083
G1 X109.606 Y106.442 E9.55225
G1 X109.881 Y106.249 E9.56901
G1 X110.239 Y106.018 E9.59027
G1 X110.663 Y105.761 E9.615
G1 X110.937 Y105.606 E9.63071
G1 X111.482 Y105.321 E9.66139
G1 X111.862 Y105.138 E9.68243
G1 X112.309 Y104.946 E9.70671
G1 X113.009 Y104.681 E9.74405
G1 X113.36 Y104.561 E9.76255
G1 X113.895 Y104.398 E9.79046
G1 X114.363 Y104.277 E9.81457
G1 X114.876 Y104.168 E9.84074
G1 X115.595 Y104.048 E9.87711
G1 X115.905 Y104.009 E9.89269
G1 X116.474 Y103.953 E9.92122
G1 X116.9 Y103.924 E9.94252
G1 X117.34 Y103.915 E9.96448
G1 X118.131 Y103.931 E10.00395
G1 X118.51 Y103.952 E10.02289
G1 X119.2 Y104.022 E10.05749
G1 X119.721 Y104.099 E10.08376
G1 X120.086 Y104.166 E10.10228
G1 X120.696 Y104.298 E10.13341
G1 X121.03 Y104.381 E10.15058
G1 X121.545 Y104.526 E10.17728
G1 X122.01 Y104.679 E10.2017
G1 X122.488 Y104.86 E10.2272
G1 X123.059 Y105.101 E10.25812
G1 X123.354 Y105.239 E10.27437
G1 X123.863 Y105.496 E10.30281
G1 X124.17 Y105.664 E10.32027
G1 X124.759 Y106.013 E10.35443
G1 X125.034 Y106.189 E10.37072
G1 X125.407 Y106.45 E10.39343
G1 X125.981 Y106.887 E10.42942
G1 X126.266 Y107.119 E10.44776
G1 X126.598 Y107.408 E10.46972
G1 X126.92 Y107.703 E10.4915
G1 X127.155 Y107.935 E10.50798
G1 X127.561 Y108.367 E10.53756
G1 X128.008 Y108.892 E10.57196
G1 X128.414 Y109.414 E10.60495
G1 X128.627 Y109.707 E10.62302
G1 X128.908 Y110.121 E10.64798
G1 X129.234 Y110.649 E10.67894
G1 X129.405 Y110.958 E10.69656
G1 X129.746 Y111.624 E10.73389
G1 X129.908 Y111.97 E10.75295
G1 X130.106 Y112.432 E10.77803
G1 X130.235 Y112.76 E10.79561
G1 X130.35 Y113.083 E10.81272
G1 X130.455 Y113.412 E10.82995
G1 X130.622 Y113.992 E10.86006
G1 X130.71 Y114.338 E10.87787
G1 X130.833 Y114.897 E10.90643
G1 X130.899 Y115.247 E10.9242
G1 X130.956 Y115.617 E10.94287
G1 X130.998 Y115.958 E10.96001
G1 X131.047 Y116.492 E10.98677
G1 X131.068 Y116.868 E11.00556
G1 X131.084 Y117.526 E11.03839
G1 X131.082 Y117.88 E11.05605
G1 X131.052 Y118.427 E11.08339
G1 X130.965 Y119.336 E11.12894
G1 X130.854 Y120.03 E11.16401
G1 X130.7 Y120.715 E11.19903
G1 X130.606 Y121.077 E11.21769
G1 X130.381 Y121.837 E11.25724
G1 X130.144 Y122.487 E11.29175
G1 X129.856 Y123.147 E11.32768
G1 X129.69 Y123.492 E11.34678
G1 X129.423 Y124.005 E11.37563
G1 X129.242 Y124.327 E11.39406
G1 X128.928 Y124.844 E11.42424
G1 X128.719 Y125.164 E11.44331
G1 X128.468 Y125.52 E11.46504
G1 X128.273 Y125.78 E11.48125
G1 X127.981 Y126.147 E11.50465
G1 X127.622 Y126.569 E11.53229
G1 X127.325 Y126.887 E11.554
G1 X126.875 Y127.332 E11.58558
G1 X126.593 Y127.592 E11.60471
G1 X126.159 Y127.966 E11.6333
G1 X125.852 Y128.212 E11.65292
G1 X125.375 Y128.568 E11.68262
G1 X125.068 Y128.782 E11.70129
G1 X124.626 Y129.068 E11.72755
G1 X124.122 Y129.367 E11.75679
G1 X123.765 Y129.555 E11.77692
G1 X123.126 Y129.864 E11.81233
G1 X122.817 Y130.002 E11.82921
G1 X122.215 Y130.239 E11.86149
G1 X121.628 Y130.44 E11.89245
G1 X121.258 Y130.553 E11.91175
G1 X120.696 Y130.703 E11.94077
G1 X120.368 Y130.78 E11.95758
G1 X119.906 Y130.871 E11.98107
G1 X119.491 Y130.942 E12.00207
G1 X118.977 Y131.005 E12.02791
G1 X118.185 Y131.066 E12.06754
G1 X117.806 Y131.083 E12.08647
G1 X117.478 Y131.086 E12.10283
G1 X117.135 Y131.078 E12.11995
G1 X116.522 Y131.046 E12.15057
G1 X116.151 Y131.015 E12.16915
G1 X115.572 Y130.946 E12.19824
G1 X114.894 Y130.833 E12.23253
G1 X114.558 Y130.762 E12.24966
