;FLAVOR:Marlin
;TIME:1708
;Filament used: 0.854864m
;Layer height: 0.15
;MINX:102.612
;MINY:102.613
;MINZ:0.3
;MAXX:132.387
;MAXY:132.389
;MAXZ:20.55
;Generated with Cura_SteamEngine main
M140 S55
M105
M190 S55
M104 S195
M105
M109 S195
M82 ;absolute extrusion mode
; SC-10 Custom Start G-code
G28 ; Home all axes
G92 E0 ; Reset Extruder
G1 Z2.0 F3000 ; Move Z Axis up little to prevent scratching of Heat Bed
G1 X0.1 Y20 Z0.3 F5000.0 ; Move to start position
G1 X0.1 Y200.0 Z0.3 F1500.0 E15 ; Draw the first line
G1 X0.4 Y200.0 Z0.3 F5000.0 ; Move to side a little
G1 X0.4 Y20 Z0.3 F1500.0 E30 ; Draw the second line
G92 E0 ; Reset Extruder
G1 Z2.0 F3000 ; Move Z Axis up little to prevent scratching of Heat Bed
; End of custom start GCode
G92 E0
G92 E0
G1 F1500 E-6.5
;LAYER_COUNT:136
;LAYER:0
M107
G0 F6000 X106.967 Y106.992 Z0.3
G0 X102.612 Y117.406
;TYPE:SKIRT
G1 F1500 E0
G1 F1200 X102.643 Y116.593 E0.04059
G1 X102.677 Y116.154 E0.06256
G1 X102.712 Y115.821 E0.07926
G1 X102.797 Y115.169 E0.11207
G1 X102.888 Y114.641 E0.1388
G1 X102.984 Y114.198 E0.16141
G1 X103.071 Y113.845 E0.17955
G1 X103.228 Y113.278 E0.2089
G1 X103.347 Y112.896 E0.22886
G1 X103.631 Y112.098 E0.27112
G1 X103.786 Y111.714 E0.29178
G1 X104.048 Y111.122 E0.32408
G1 X104.243 Y110.726 E0.3461
G1 X104.484 Y110.277 E0.37152
G1 X104.73 Y109.847 E0.39624
G1 X104.938 Y109.513 E0.41587
G1 X105.287 Y108.99 E0.44724
G1 X105.539 Y108.639 E0.4688
G1 X105.833 Y108.257 E0.49285
G1 X106.24 Y107.767 E0.52462
G1 X106.49 Y107.49 E0.54324
G1 X106.967 Y106.992 E0.57764
G1 X107.276 Y106.69 E0.5992
G1 X107.765 Y106.244 E0.63222
G1 X108.089 Y105.968 E0.65345
G1 X108.508 Y105.634 E0.68019
G1 X108.942 Y105.317 E0.707
G1 X109.4 Y105.011 E0.73448
G1 X109.929 Y104.683 E0.76553
G1 X110.613 Y104.305 E0.80452
G1 X110.971 Y104.126 E0.82449
G1 X111.562 Y103.853 E0.85697
G1 X112.123 Y103.616 E0.88735
G1 X112.534 Y103.464 E0.90922
G1 X113.072 Y103.288 E0.93746
G1 X113.537 Y103.148 E0.96168
G1 X114.012 Y103.024 E0.98618
G1 X114.491 Y102.919 E1.01064
G1 X114.842 Y102.853 E1.02846
G1 X115.363 Y102.769 E1.05479
G1 X115.709 Y102.722 E1.07221
G1 X116.324 Y102.657 E1.10306
G1 X116.829 Y102.624 E1.12831
G1 X117.248 Y102.613 E1.14922
G1 X117.602 Y102.614 E1.16688
G1 X118.186 Y102.631 E1.19603
G1 X118.536 Y102.65 E1.21352
G1 X119.143 Y102.701 E1.24391
G1 X119.546 Y102.748 E1.26415
G1 X120.05 Y102.829 E1.28962
G1 X120.718 Y102.964 E1.32362
G1 X121.18 Y103.075 E1.34732
G1 X121.922 Y103.28 E1.38573
G1 X122.461 Y103.458 E1.41405
G1 X122.938 Y103.64 E1.43952
G1 X123.626 Y103.932 E1.47681
G1 X123.93 Y104.074 E1.49355
G1 X124.518 Y104.367 E1.52632
G1 X125.002 Y104.634 E1.5539
G1 X125.375 Y104.862 E1.57571
G1 X125.685 Y105.064 E1.59417
G1 X126.227 Y105.44 E1.62708
G1 X126.502 Y105.642 E1.6441
G1 X126.908 Y105.957 E1.66974
G1 X127.3 Y106.288 E1.69534
G1 X127.891 Y106.839 E1.73565
G1 X128.333 Y107.288 E1.76708
G1 X128.584 Y107.558 E1.78547
G1 X128.926 Y107.948 E1.81135
G1 X129.264 Y108.368 E1.83825
G1 X129.613 Y108.841 E1.86757
G1 X130.037 Y109.468 E1.90534
G1 X130.393 Y110.055 E1.93959
G1 X130.575 Y110.385 E1.95839
G1 X130.913 Y111.042 E1.99525
G1 X131.134 Y111.507 E2.02094
G1 X131.287 Y111.871 E2.04064
G1 X131.525 Y112.497 E2.07405
G1 X131.66 Y112.885 E2.09454
G1 X131.785 Y113.288 E2.11559
G1 X131.955 Y113.93 E2.14873
G1 X132.138 Y114.768 E2.19152
G1 X132.207 Y115.163 E2.21153
G1 X132.274 Y115.626 E2.23487
G1 X132.314 Y115.99 E2.25313
G1 X132.363 Y116.607 E2.28401
G1 X132.383 Y117.076 E2.30743
G1 X132.387 Y117.741 E2.34061
G1 X132.366 Y118.401 E2.37356
G1 X132.334 Y118.815 E2.39427
G1 X132.281 Y119.298 E2.41851
G1 X132.225 Y119.695 E2.43852
G1 X132.102 Y120.403 E2.47437
G1 X132.024 Y120.78 E2.49357
G1 X131.912 Y121.254 E2.51787
G1 X131.791 Y121.697 E2.54078
G1 X131.675 Y122.067 E2.56013
G1 X131.552 Y122.423 E2.57892
G1 X131.319 Y123.037 E2.61168
G1 X131.167 Y123.402 E2.63141
G1 X130.988 Y123.798 E2.65309
G1 X130.84 Y124.103 E2.67
G1 X130.557 Y124.65 E2.70073
G1 X130.272 Y125.159 E2.72983
G1 X130.039 Y125.533 E2.75182
G1 X129.597 Y126.186 E2.79116
G1 X129.193 Y126.724 E2.82472
G1 X128.74 Y127.262 E2.85981
G1 X128.251 Y127.797 E2.89597
G1 X127.968 Y128.088 E2.91622
G1 X127.557 Y128.484 E2.9447
G1 X127.15 Y128.844 E2.97181
G1 X126.741 Y129.176 E2.99809
G1 X126.27 Y129.533 E3.02757
G1 X125.999 Y129.724 E3.04412
G1 X125.471 Y130.076 E3.07577
G1 X125.029 Y130.346 E3.10161
G1 X124.48 Y130.651 E3.13295
G1 X124.133 Y130.83 E3.15243
G1 X123.497 Y131.125 E3.1874
G1 X122.873 Y131.386 E3.22115
G1 X122.382 Y131.568 E3.24727
G1 X121.973 Y131.701 E3.26873
G1 X121.62 Y131.805 E3.28709
G1 X121.007 Y131.966 E3.31871
G1 X120.632 Y132.053 E3.33792
G1 X119.988 Y132.172 E3.37059
G1 X119.183 Y132.288 E3.41117
G1 X118.703 Y132.342 E3.43526
G1 X118.281 Y132.37 E3.45636
G1 X117.767 Y132.387 E3.48202
G1 X117.223 Y132.389 E3.50916
G1 X116.853 Y132.377 E3.52763
G1 X116.461 Y132.353 E3.54723
G1 X116.053 Y132.315 E3.56767
G1 X115.282 Y132.218 E3.60644
G1 X114.899 Y132.158 E3.62578
G1 X114.553 Y132.093 E3.64334
G1 X114.155 Y132.005 E3.66368
G1 X113.531 Y131.846 E3.6958
G1 X113.114 Y131.724 E3.71748
G1 X112.63 Y131.565 E3.7429
G1 X112.268 Y131.435 E3.76209
G1 X111.577 Y131.152 E3.79934
G1 X110.988 Y130.883 E3.83164
G1 X110.488 Y130.634 E3.85951
G1 X110.105 Y130.422 E3.88135
G1 X109.658 Y130.154 E3.90735
G1 X109.2 Y129.861 E3.93448
G1 X108.917 Y129.665 E3.95165
G1 X108.413 Y129.292 E3.98294
G1 X108.037 Y128.991 E4.00696
G1 X107.718 Y128.72 E4.02785
G1 X107.048 Y128.102 E4.07332
G1 X106.646 Y127.696 E4.10183
G1 X106.335 Y127.344 E4.12526
G1 X105.778 Y126.667 E4.169
G1 X105.539 Y126.359 E4.18845
G1 X105.238 Y125.944 E4.21403
G1 X104.942 Y125.496 E4.24081
G1 X104.485 Y124.727 E4.28544
G1 X104.193 Y124.17 E4.31682
G1 X104.004 Y123.774 E4.33871
G1 X103.836 Y123.389 E4.35967
G1 X103.482 Y122.502 E4.40731
G1 X103.263 Y121.855 E4.44139
G1 X103.104 Y121.287 E4.47082
G1 X102.979 Y120.787 E4.49653
G1 X102.892 Y120.365 E4.51803
G1 X102.78 Y119.709 E4.55123
G1 X102.73 Y119.355 E4.56907
G1 X102.666 Y118.718 E4.60101
G1 X102.621 Y117.989 E4.63744
G1 X102.612 Y117.406 E4.66653
G0 F6000 X103.012 Y117.418
G1 F1200 X103.042 Y116.624 E4.70618
G1 X103.108 Y115.872 E4.74384
G1 X103.193 Y115.22 E4.77664
G1 X103.279 Y114.725 E4.80171
G1 X103.375 Y114.282 E4.82432
G1 X103.457 Y113.952 E4.84129
G1 X103.614 Y113.385 E4.87064
G1 X103.725 Y113.027 E4.88934
G1 X104.002 Y112.248 E4.93059
G1 X104.251 Y111.643 E4.96323
G1 X104.412 Y111.286 E4.98276
G1 X104.595 Y110.915 E5.0034
G1 X104.836 Y110.466 E5.02883
G1 X105.075 Y110.049 E5.0528
G1 X105.271 Y109.735 E5.07127
G1 X105.62 Y109.212 E5.10264
G1 X105.856 Y108.883 E5.12284
G1 X106.15 Y108.501 E5.14689
G1 X106.545 Y108.026 E5.17771
G1 X106.779 Y107.767 E5.19512
G1 X107.256 Y107.269 E5.22953
G1 X107.546 Y106.986 E5.24974
G1 X108.035 Y106.54 E5.28276
G1 X108.338 Y106.281 E5.30265
G1 X108.757 Y105.947 E5.32938
G1 X109.164 Y105.65 E5.35452
G1 X109.622 Y105.344 E5.382
G1 X110.136 Y105.026 E5.41215
G1 X110.804 Y104.657 E5.45023
G1 X111.139 Y104.489 E5.46893
G1 X111.73 Y104.216 E5.5014
G1 X112.275 Y103.986 E5.53092
G1 X112.66 Y103.843 E5.55141
G1 X113.024 Y103.722 E5.57054
G1 X113.652 Y103.531 E5.60329
G1 X114.097 Y103.415 E5.62623
G1 X114.576 Y103.31 E5.6507
G1 X114.906 Y103.247 E5.66746
G1 X115.427 Y103.163 E5.69379
G1 X115.751 Y103.12 E5.71009
G1 X116.366 Y103.055 E5.74095
G1 X116.84 Y103.024 E5.76465
G1 X117.259 Y103.013 E5.78556
G1 X117.591 Y103.014 E5.80212
G1 X118.175 Y103.031 E5.83127
G1 X118.502 Y103.049 E5.84761
G1 X119.109 Y103.1 E5.878
G1 X119.487 Y103.144 E5.89698
G1 X119.975 Y103.222 E5.92164
G1 X120.625 Y103.353 E5.95472
G1 X121.318 Y103.524 E5.99033
G1 X121.813 Y103.664 E6.016
G1 X122.319 Y103.832 E6.0426
G1 X122.796 Y104.014 E6.06807
G1 X123.466 Y104.299 E6.10439
G1 X123.752 Y104.432 E6.12013
G1 X124.34 Y104.725 E6.1529
G1 X124.793 Y104.976 E6.17874
G1 X125.166 Y105.204 E6.20055
G1 X125.457 Y105.393 E6.21786
G1 X125.999 Y105.769 E6.25077
G1 X126.257 Y105.958 E6.26673
G1 X126.663 Y106.273 E6.29237
G1 X127.031 Y106.583 E6.31637
G1 X127.376 Y106.898 E6.33968
G1 X127.606 Y107.12 E6.35563
G1 X128.048 Y107.569 E6.38706
G1 X128.283 Y107.822 E6.40429
G1 X128.625 Y108.212 E6.43017
G1 X128.942 Y108.606 E6.45539
G1 X129.291 Y109.079 E6.48472
G1 X129.473 Y109.339 E6.50055
G1 X129.703 Y109.688 E6.52141
G1 X130.049 Y110.259 E6.55472
G1 X130.219 Y110.568 E6.57231
G1 X130.557 Y111.225 E6.60917
G1 X130.77 Y111.674 E6.63397
G1 X130.914 Y112.015 E6.65243
G1 X131.147 Y112.628 E6.68515
G1 X131.282 Y113.016 E6.70565
G1 X131.4 Y113.394 E6.7254
G1 X131.5 Y113.757 E6.74419
G1 X131.683 Y114.536 E6.78411
G1 X131.813 Y115.232 E6.81943
G1 X131.878 Y115.681 E6.84207
G1 X131.915 Y116.022 E6.85918
G1 X131.964 Y116.639 E6.89006
G1 X131.983 Y117.078 E6.91198
G1 X131.987 Y117.743 E6.94516
G1 X131.966 Y118.383 E6.97711
G1 X131.936 Y118.771 E6.99652
G1 X131.883 Y119.254 E7.02076
G1 X131.83 Y119.627 E7.03956
G1 X131.707 Y120.335 E7.07541
G1 X131.635 Y120.688 E7.09338
G1 X131.523 Y121.162 E7.11768
G1 X131.409 Y121.577 E7.13916
G1 X131.293 Y121.947 E7.1585
G1 X131.178 Y122.281 E7.17612
G1 X130.945 Y122.895 E7.20889
G1 X130.802 Y123.237 E7.22738
G1 X130.485 Y123.919 E7.2649
G1 X130.202 Y124.466 E7.29563
G1 X129.925 Y124.96 E7.32388
G1 X129.707 Y125.311 E7.3445
G1 X129.398 Y125.772 E7.37219
G1 X129.102 Y126.187 E7.39762
G1 X128.884 Y126.47 E7.41544
G1 X128.445 Y126.992 E7.44947
G1 X127.956 Y127.527 E7.48563
G1 X127.69 Y127.8 E7.50465
G1 X127.279 Y128.196 E7.53312
G1 X126.897 Y128.533 E7.55853
G1 X126.488 Y128.865 E7.58482
G1 X126.031 Y129.212 E7.61344
G1 X125.777 Y129.391 E7.62895
G1 X125.249 Y129.743 E7.6606
G1 X124.835 Y129.996 E7.68481
G1 X124.286 Y130.301 E7.71614
G1 X123.961 Y130.469 E7.7344
G1 X123.342 Y130.756 E7.76844
G1 X122.718 Y131.017 E7.80218
G1 X122.258 Y131.188 E7.82666
G1 X121.849 Y131.321 E7.84812
G1 X121.518 Y131.418 E7.86533
G1 X120.905 Y131.579 E7.89695
G1 X120.554 Y131.66 E7.91492
G1 X119.931 Y131.776 E7.94654
G1 X119.126 Y131.892 E7.98711
G1 X118.663 Y131.944 E8.01036
G1 X118.267 Y131.97 E8.03016
G1 X117.753 Y131.987 E8.05581
G1 X117.225 Y131.989 E8.08216
G1 X116.877 Y131.978 E8.09953
G1 X116.485 Y131.954 E8.11912
G1 X116.103 Y131.918 E8.13826
G1 X115.332 Y131.821 E8.17703
G1 X114.973 Y131.765 E8.19516
G1 X114.627 Y131.7 E8.21272
G1 X114.253 Y131.617 E8.23184
G1 X113.629 Y131.458 E8.26396
G1 X113.238 Y131.344 E8.28428
G1 X112.754 Y131.185 E8.3097
G1 X112.416 Y131.063 E8.32763
G1 X111.743 Y130.788 E8.3639
G1 X111.154 Y130.519 E8.3962
G1 X110.67 Y130.278 E8.42318
G1 X110.311 Y130.079 E8.44365
G1 X109.671 Y129.691 E8.48099
G1 X109.418 Y129.526 E8.49606
G1 X108.825 Y129.102 E8.53243
G1 X108.473 Y128.83 E8.55463
G1 X107.977 Y128.415 E8.58689
G1 X107.321 Y127.81 E8.63141
G1 X106.936 Y127.419 E8.65879
G1 X106.644 Y127.09 E8.68074
G1 X106.087 Y126.413 E8.72447
G1 X105.863 Y126.124 E8.74272
G1 X105.562 Y125.709 E8.76829
G1 X105.284 Y125.289 E8.79342
G1 X104.98 Y124.786 E8.82274
G1 X104.691 Y124.267 E8.85238
G1 X104.365 Y123.601 E8.88937
G1 X104.207 Y123.241 E8.90899
G1 X103.853 Y122.354 E8.95663
G1 X103.648 Y121.747 E8.9886
G1 X103.489 Y121.179 E9.01802
G1 X103.368 Y120.693 E9.04301
G1 X103.287 Y120.298 E9.06313
G1 X103.175 Y119.642 E9.09633
G1 X103.127 Y119.309 E9.11311
G1 X103.065 Y118.694 E9.14395
G1 X103.02 Y117.965 E9.18039
G1 X103.012 Y117.418 E9.20768
G0 F6000 X103.411 Y117.43
G1 F1200 X103.426 Y116.922 E9.23304
G1 X103.475 Y116.216 E9.26835
G1 X103.505 Y115.924 E9.28299
G1 X103.59 Y115.272 E9.3158
G1 X103.67 Y114.81 E9.33919
G1 X103.766 Y114.367 E9.3618
G1 X103.842 Y114.059 E9.37763
G1 X103.999 Y113.492 E9.40698
G1 X104.103 Y113.157 E9.42448
G1 X104.373 Y112.398 E9.46467
G1 X104.616 Y111.808 E9.49651
G1 X104.777 Y111.451 E9.51605
G1 X104.948 Y111.105 E9.5353
G1 X105.282 Y110.489 E9.57026
G1 X105.604 Y109.957 E9.60128
G1 X105.953 Y109.434 E9.63265
G1 X106.173 Y109.126 E9.65154
G1 X106.467 Y108.744 E9.67559
G1 X106.849 Y108.286 E9.70534
G1 X107.068 Y108.043 E9.72166
G1 X107.545 Y107.545 E9.75606
G1 X107.815 Y107.281 E9.7749
G1 X108.304 Y106.835 E9.80792
G1 X108.587 Y106.594 E9.82647
G1 X109.006 Y106.26 E9.8532
G1 X109.386 Y105.983 E9.87666
G1 X109.844 Y105.677 E9.90414
G1 X110.343 Y105.368 E9.93342
G1 X110.994 Y105.009 E9.97051
G1 X111.307 Y104.852 E9.98798
G1 X111.898 Y104.579 E10.02046
G1 X112.427 Y104.356 E10.0491
G1 X112.787 Y104.223 E10.06825
G1 X113.303 Y104.054 E10.09534
G1 X113.768 Y103.914 E10.11957
G1 X114.183 Y103.806 E10.14096
G1 X114.662 Y103.701 E10.16542
G1 X114.97 Y103.642 E10.18107
G1 X115.491 Y103.558 E10.2074
G1 X115.793 Y103.518 E10.2226
G1 X116.408 Y103.453 E10.25345
G1 X116.85 Y103.424 E10.27555
G1 X117.579 Y103.413 E10.31192
G1 X118.163 Y103.43 E10.34107
G1 X118.469 Y103.448 E10.35636
G1 X119.076 Y103.499 E10.38675
G1 X119.429 Y103.54 E10.40448
G1 X119.899 Y103.615 E10.42823
G1 X120.531 Y103.742 E10.46039
G1 X121.209 Y103.909 E10.49523
G1 X121.704 Y104.049 E10.52089
G1 X122.176 Y104.206 E10.54571
G1 X122.653 Y104.388 E10.57118
G1 X123.307 Y104.666 E10.60663
G1 X123.574 Y104.79 E10.62132
G1 X124.162 Y105.083 E10.6541
G1 X124.585 Y105.317 E10.67821
G1 X124.958 Y105.545 E10.70002
G1 X125.229 Y105.722 E10.71617
G1 X125.771 Y106.098 E10.74908
G1 X126.418 Y106.59 E10.78963
G1 X126.761 Y106.878 E10.81198
G1 X127.321 Y107.4 E10.85017
G1 X127.763 Y107.849 E10.88161
G1 X127.982 Y108.086 E10.8977
G1 X128.324 Y108.476 E10.92358
G1 X128.62 Y108.843 E10.94711
G1 X128.969 Y109.316 E10.97643
G1 X129.369 Y109.908 E11.01208
G1 X129.704 Y110.463 E11.04442
G1 X129.864 Y110.751 E11.06086
G1 X130.202 Y111.408 E11.09772
G1 X130.406 Y111.841 E11.1216
G1 X130.541 Y112.159 E11.13883
G1 X130.705 Y112.584 E11.16156
G1 X130.904 Y113.148 E11.1914
G1 X131.014 Y113.501 E11.20985
G1 X131.175 Y114.107 E11.24113
G1 X131.349 Y114.905 E11.28188
G1 X131.45 Y115.502 E11.31208
G1 X131.516 Y116.054 E11.33982
G1 X131.565 Y116.671 E11.3707
G1 X131.583 Y117.08 E11.39112
G1 X131.587 Y117.745 E11.4243
G1 X131.566 Y118.365 E11.45525
G1 X131.539 Y118.728 E11.47341
G1 X131.486 Y119.211 E11.49765
G1 X131.436 Y119.559 E11.51519
G1 X131.313 Y120.267 E11.55104
G1 X131.246 Y120.596 E11.56779
G1 X131.134 Y121.07 E11.59209
G1 X131.028 Y121.457 E11.61211
G1 X130.912 Y121.827 E11.63146
G1 X130.804 Y122.139 E11.64793
G1 X130.571 Y122.753 E11.68069
G1 X130.438 Y123.073 E11.69798
G1 X130.13 Y123.735 E11.73441
G1 X129.847 Y124.282 E11.76513
G1 X129.578 Y124.76 E11.7925
G1 X129.375 Y125.088 E11.81174
G1 X129.066 Y125.549 E11.83943
G1 X128.778 Y125.953 E11.86418
G1 X128.574 Y126.217 E11.88083
G1 X128.15 Y126.722 E11.91373
G1 X127.661 Y127.257 E11.94989
G1 X127.413 Y127.512 E11.96763
G1 X127.002 Y127.908 E11.99611
G1 X126.645 Y128.223 E12.01986
G1 X126.236 Y128.555 E12.04614
G1 X125.792 Y128.892 E12.07395
G1 X125.027 Y129.41 E12.12004
G1 X124.641 Y129.646 E12.14262
G1 X124.092 Y129.951 E12.17395
G1 X123.788 Y130.108 E12.19102
G1 X123.188 Y130.387 E12.22403
G1 X122.564 Y130.648 E12.25778
G1 X122.135 Y130.808 E12.28062
G1 X121.726 Y130.941 E12.30208
G1 X121.417 Y131.031 E12.31813
G1 X120.804 Y131.192 E12.34975
G1 X120.476 Y131.268 E12.36655
G1 X119.874 Y131.38 E12.3971
G1 X119.069 Y131.496 E12.43768
G1 X118.623 Y131.545 E12.46006
G1 X118.254 Y131.57 E12.47851
G1 X117.74 Y131.587 E12.50417
G1 X117.226 Y131.589 E12.52981
G1 X116.902 Y131.579 E12.54599
G1 X116.51 Y131.555 E12.56558
G1 X116.153 Y131.521 E12.58347
G1 X115.382 Y131.424 E12.62224
G1 X115.047 Y131.372 E12.63915
G1 X114.701 Y131.307 E12.65672
G1 X114.352 Y131.23 E12.67455
G1 X113.728 Y131.071 E12.70667
G1 X113.363 Y130.964 E12.72565
G1 X112.879 Y130.805 E12.75107
