;FLAVOR:Marlin
;TIME:3200
;Filament used: 1.69842m
;Layer height: 0.15
;MINX:104.57
;MINY:104.568
;MINZ:0.3
;MAXX:130.43
;MAXY:130.43
;MAXZ:22.05
;Generated with Cura_SteamEngine main
M140 S60
M105
M190 S60
M104 S190
M105
M109 S190
M82 ;absolute extrusion mode
; SC-10 Custom Start G-code
G28 ; Home all axes
G92 E0 ; Reset Extruder
G1 Z2.0 F3000 ; Move Z Axis up little to prevent scratching of Heat Bed
G1 X0.1 Y20 Z0.3 F5000.0 ; Move to start position
G1 X0.1 Y200.0 Z0.3 F1500.0 E15 ; Draw the first line
G1 X0.4 Y200.0 Z0.3 F5000.0 ; Move to side a little
G1 X0.4 Y20 Z0.3 F1500.0 E30 ; Draw the second line
G92 E0 ; Reset Extruder
G1 Z2.0 F3000 ; Move Z Axis up little to prevent scratching of Heat Bed
; End of custom start GCode
G92 E0
G92 E0
G1 F1500 E-6.5
;LAYER_COUNT:146
;LAYER:0
M107
G0 F6000 X108.43 Y108.29 Z0.3
G0 X104.57 Y117.519
;TYPE:SKIRT
G1 F1500 E0
G1 F1200 X104.575 Y117.139 E0.01896
G1 X104.592 Y116.741 E0.03883
G1 X104.621 Y116.357 E0.05805
G1 X104.666 Y115.944 E0.07877
G1 X104.741 Y115.413 E0.10553
G1 X104.863 Y114.755 E0.13892
G1 X104.958 Y114.353 E0.15952
G1 X105.068 Y113.947 E0.18051
G1 X105.178 Y113.584 E0.19943
G1 X105.322 Y113.155 E0.22201
G1 X105.479 Y112.736 E0.24433
G1 X105.656 Y112.31 E0.26735
G1 X105.919 Y111.743 E0.29853
G1 X106.111 Y111.377 E0.31915
G1 X106.389 Y110.887 E0.34726
G1 X106.702 Y110.385 E0.37677
G1 X106.965 Y110.009 E0.39966
G1 X107.447 Y109.372 E0.43952
G1 X107.952 Y108.784 E0.47818
G1 X108.43 Y108.29 E0.51248
G1 X108.704 Y108.022 E0.5316
G1 X108.908 Y107.835 E0.54541
G1 X109.211 Y107.575 E0.56533
G1 X109.487 Y107.352 E0.58303
G1 X109.813 Y107.105 E0.60343
G1 X110.254 Y106.793 E0.63039
G1 X110.585 Y106.574 E0.65019
G1 X110.86 Y106.404 E0.66632
G1 X111.208 Y106.204 E0.68634
G1 X111.614 Y105.987 E0.70931
G1 X111.999 Y105.797 E0.73073
G1 X112.347 Y105.64 E0.74977
G1 X112.683 Y105.5 E0.76793
G1 X113.029 Y105.367 E0.78643
G1 X113.428 Y105.229 E0.80749
G1 X113.879 Y105.089 E0.83105
G1 X114.265 Y104.982 E0.85103
G1 X114.693 Y104.878 E0.87301
G1 X115.106 Y104.792 E0.89406
G1 X115.787 Y104.684 E0.92846
G1 X116.259 Y104.63 E0.95216
G1 X116.676 Y104.597 E0.97303
G1 X117.109 Y104.576 E0.99465
G1 X117.495 Y104.568 E1.01392
G1 X117.834 Y104.572 E1.03083
G1 X118.243 Y104.59 E1.05126
G1 X118.638 Y104.62 E1.07102
G1 X119.047 Y104.665 E1.09155
G1 X119.586 Y104.741 E1.1187
G1 X120.245 Y104.863 E1.15214
G1 X120.647 Y104.958 E1.17275
G1 X121.053 Y105.068 E1.19373
G1 X121.42 Y105.179 E1.21286
G1 X121.851 Y105.324 E1.23555
G1 X122.268 Y105.481 E1.25778
G1 X122.696 Y105.659 E1.28091
G1 X123.256 Y105.919 E1.31171
G1 X123.623 Y106.111 E1.33237
G1 X124.113 Y106.389 E1.36048
G1 X124.623 Y106.707 E1.39046
G1 X124.961 Y106.943 E1.41103
G1 X125.586 Y107.41 E1.44995
G1 X126.186 Y107.919 E1.48921
G1 X126.605 Y108.321 E1.51818
G1 X126.911 Y108.635 E1.54005
G1 X127.328 Y109.094 E1.57099
G1 X127.81 Y109.694 E1.60939
G1 X128.201 Y110.245 E1.6431
G1 X128.433 Y110.595 E1.66405
G1 X128.601 Y110.868 E1.68004
G1 X128.792 Y111.201 E1.69919
G1 X129.011 Y111.61 E1.72234
G1 X129.203 Y111.999 E1.74398
G1 X129.36 Y112.347 E1.76303
G1 X129.624 Y113.004 E1.79835
G1 X129.77 Y113.422 E1.82044
G1 X129.912 Y113.88 E1.84436
G1 X130.019 Y114.267 E1.86439
G1 X130.123 Y114.696 E1.88642
G1 X130.207 Y115.102 E1.9071
G1 X130.315 Y115.781 E1.9414
G1 X130.369 Y116.25 E1.96496
G1 X130.404 Y116.674 E1.98618
G1 X130.424 Y117.089 E2.00691
G1 X130.43 Y117.484 E2.02662
G1 X130.425 Y117.853 E2.04503
G1 X130.408 Y118.241 E2.06441
G1 X130.379 Y118.631 E2.08392
G1 X130.335 Y119.043 E2.10459
G1 X130.26 Y119.579 E2.13159
G1 X130.194 Y119.964 E2.15108
G1 X130.046 Y120.634 E2.18531
G1 X129.938 Y121.036 E2.20608
G1 X129.822 Y121.42 E2.22609
G1 X129.676 Y121.853 E2.24889
G1 X129.522 Y122.263 E2.27074
G1 X129.348 Y122.682 E2.29337
G1 X129.085 Y123.249 E2.32456
G1 X128.891 Y123.619 E2.3454
G1 X128.618 Y124.101 E2.37303
G1 X128.301 Y124.611 E2.40299
G1 X128.035 Y124.991 E2.42613
G1 X127.553 Y125.628 E2.46599
G1 X127.048 Y126.216 E2.50466
G1 X126.57 Y126.71 E2.53895
G1 X126.296 Y126.978 E2.55807
G1 X126.092 Y127.165 E2.57188
G1 X125.789 Y127.425 E2.5918
G1 X125.513 Y127.648 E2.6095
G1 X125.187 Y127.895 E2.62991
G1 X124.746 Y128.207 E2.65686
G1 X124.415 Y128.426 E2.67666
G1 X124.14 Y128.596 E2.69279
G1 X123.792 Y128.796 E2.71281
G1 X123.386 Y129.013 E2.73578
G1 X123.001 Y129.203 E2.7572
G1 X122.653 Y129.36 E2.77625
G1 X122.317 Y129.5 E2.79441
G1 X121.971 Y129.633 E2.8129
G1 X121.572 Y129.771 E2.83396
G1 X121.121 Y129.911 E2.85752
G1 X120.735 Y130.018 E2.87751
G1 X120.307 Y130.122 E2.89948
G1 X119.894 Y130.208 E2.92053
G1 X119.218 Y130.315 E2.95467
G1 X118.749 Y130.369 E2.97823
G1 X118.325 Y130.404 E2.99945
G1 X117.91 Y130.424 E3.02018
G1 X117.515 Y130.43 E3.03989
G1 X117.147 Y130.425 E3.05825
G1 X116.765 Y130.409 E3.07733
G1 X116.37 Y130.38 E3.09709
G1 X115.944 Y130.334 E3.11846
G1 X115.413 Y130.259 E3.14522
G1 X114.755 Y130.137 E3.1786
G1 X114.353 Y130.042 E3.19921
G1 X113.947 Y129.932 E3.2202
G1 X113.576 Y129.82 E3.23953
G1 X113.143 Y129.674 E3.26233
G1 X112.736 Y129.521 E3.28402
G1 X112.314 Y129.346 E3.30681
G1 X111.743 Y129.081 E3.33822
G1 X111.377 Y128.889 E3.35884
G1 X110.887 Y128.611 E3.38695
G1 X110.377 Y128.293 E3.41693
G1 X110.038 Y128.056 E3.43757
G1 X109.412 Y127.588 E3.47656
G1 X108.813 Y127.08 E3.51575
G1 X108.394 Y126.678 E3.54472
G1 X108.088 Y126.363 E3.56662
G1 X107.672 Y125.905 E3.59749
G1 X107.188 Y125.303 E3.63603
G1 X106.796 Y124.75 E3.66985
G1 X106.568 Y124.405 E3.69048
G1 X106.398 Y124.129 E3.70665
G1 X106.203 Y123.791 E3.72612
G1 X105.987 Y123.387 E3.74898
G1 X105.797 Y123.001 E3.77044
G1 X105.64 Y122.653 E3.78949
G1 X105.5 Y122.316 E3.80769
G1 X105.364 Y121.962 E3.82661
G1 X105.224 Y121.558 E3.84794
G1 X105.087 Y121.115 E3.87108
G1 X104.982 Y120.735 E3.89075
G1 X104.878 Y120.307 E3.91272
G1 X104.792 Y119.894 E3.93377
G1 X104.685 Y119.218 E3.96791
G1 X104.631 Y118.749 E3.99147
G1 X104.596 Y118.326 E4.01264
G1 X104.576 Y117.912 E4.03332
G1 X104.57 Y117.519 E4.05293
G0 F6000 X104.97 Y117.524
G1 F1200 X104.975 Y117.144 E4.07189
G1 X104.991 Y116.771 E4.09052
G1 X105.02 Y116.387 E4.10973
G1 X105.062 Y116 E4.12915
G1 X105.137 Y115.469 E4.1559
G1 X105.255 Y114.834 E4.18813
G1 X105.344 Y114.458 E4.2074
G1 X105.454 Y114.052 E4.22839
G1 X105.557 Y113.712 E4.24611
G1 X105.701 Y113.283 E4.26869
G1 X105.848 Y112.89 E4.28962
G1 X106.025 Y112.464 E4.31264
G1 X106.279 Y111.917 E4.34273
G1 X106.459 Y111.574 E4.36205
G1 X106.737 Y111.084 E4.39016
G1 X107.037 Y110.603 E4.41844
G1 X107.284 Y110.251 E4.43989
G1 X107.766 Y109.614 E4.47975
G1 X108.239 Y109.062 E4.51601
G1 X108.717 Y108.568 E4.55031
G1 X109.179 Y108.13 E4.58207
G1 X109.462 Y107.886 E4.60071
G1 X109.738 Y107.663 E4.61841
G1 X110.044 Y107.432 E4.63754
G1 X110.485 Y107.12 E4.66449
G1 X110.795 Y106.914 E4.68306
G1 X111.07 Y106.744 E4.69919
G1 X111.397 Y106.556 E4.71801
G1 X111.803 Y106.339 E4.74098
G1 X112.164 Y106.162 E4.76104
G1 X112.512 Y106.005 E4.78008
G1 X112.826 Y105.874 E4.79706
G1 X113.172 Y105.741 E4.81555
G1 X113.546 Y105.611 E4.8353
G1 X113.997 Y105.471 E4.85886
G1 X114.359 Y105.371 E4.8776
G1 X114.787 Y105.267 E4.89958
G1 X115.174 Y105.186 E4.9193
G1 X115.832 Y105.082 E4.95254
G1 X116.304 Y105.028 E4.97624
G1 X116.695 Y104.996 E4.99581
G1 X117.128 Y104.975 E5.01744
G1 X117.49 Y104.968 E5.0355
G1 X117.829 Y104.972 E5.05242
G1 X118.212 Y104.989 E5.07154
G1 X118.607 Y105.019 E5.09131
G1 X118.991 Y105.061 E5.11058
G1 X119.53 Y105.137 E5.13773
G1 X120.166 Y105.255 E5.17001
G1 X120.542 Y105.344 E5.18928
G1 X120.948 Y105.454 E5.21027
G1 X121.292 Y105.558 E5.2282
G1 X121.723 Y105.703 E5.25089
G1 X122.114 Y105.85 E5.27173
G1 X122.542 Y106.028 E5.29485
G1 X123.081 Y106.279 E5.32452
G1 X123.426 Y106.459 E5.34393
G1 X123.916 Y106.737 E5.37204
G1 X124.405 Y107.043 E5.40082
G1 X124.721 Y107.264 E5.42005
G1 X125.346 Y107.731 E5.45898
G1 X125.909 Y108.207 E5.49576
G1 X126.328 Y108.609 E5.52473
G1 X126.615 Y108.904 E5.54526
G1 X127.032 Y109.363 E5.5762
G1 X127.484 Y109.926 E5.61222
G1 X127.875 Y110.477 E5.64593
G1 X128.092 Y110.804 E5.66551
G1 X128.26 Y111.077 E5.6815
G1 X128.439 Y111.39 E5.69949
G1 X128.658 Y111.799 E5.72264
G1 X128.838 Y112.164 E5.74294
G1 X129.121 Y112.811 E5.77817
G1 X129.252 Y113.149 E5.79626
G1 X129.388 Y113.54 E5.81691
G1 X129.53 Y113.998 E5.84083
G1 X129.63 Y114.361 E5.85962
G1 X129.734 Y114.79 E5.88164
G1 X129.813 Y115.171 E5.90105
G1 X129.918 Y115.827 E5.9342
G1 X129.972 Y116.296 E5.95775
G1 X130.004 Y116.693 E5.97762
G1 X130.024 Y117.108 E5.99835
G1 X130.03 Y117.478 E6.01681
G1 X130.025 Y117.847 E6.03522
G1 X130.009 Y118.211 E6.0534
G1 X129.98 Y118.601 E6.07291
G1 X129.939 Y118.987 E6.09228
G1 X129.864 Y119.523 E6.11928
G1 X129.802 Y119.885 E6.1376
G1 X129.66 Y120.53 E6.17055
G1 X129.552 Y120.932 E6.19132
G1 X129.443 Y121.292 E6.21008
G1 X129.297 Y121.725 E6.23288
G1 X129.152 Y122.109 E6.25336
G1 X128.978 Y122.528 E6.27599
G1 X128.724 Y123.075 E6.30608
G1 X128.543 Y123.422 E6.32561
G1 X128.27 Y123.904 E6.35325
G1 X127.965 Y124.393 E6.382
G1 X127.716 Y124.749 E6.40367
G1 X127.234 Y125.386 E6.44352
G1 X126.761 Y125.938 E6.47979
G1 X126.283 Y126.432 E6.51409
G1 X125.821 Y126.87 E6.54585
G1 X125.538 Y127.114 E6.56449
G1 X125.262 Y127.337 E6.58219
G1 X124.956 Y127.568 E6.60132
G1 X124.515 Y127.88 E6.62827
G1 X124.205 Y128.086 E6.64684
G1 X123.93 Y128.256 E6.66297
G1 X123.603 Y128.444 E6.68179
G1 X123.197 Y128.661 E6.70476
G1 X122.836 Y128.838 E6.72481
G1 X122.488 Y128.995 E6.74386
G1 X122.174 Y129.126 E6.76084
G1 X121.828 Y129.259 E6.77933
G1 X121.454 Y129.389 E6.79908
G1 X121.003 Y129.529 E6.82264
G1 X120.641 Y129.629 E6.84138
G1 X120.213 Y129.733 E6.86335
G1 X119.826 Y129.814 E6.88308
G1 X119.172 Y129.918 E6.91612
G1 X118.703 Y129.972 E6.93967
G1 X118.306 Y130.004 E6.95954
G1 X117.891 Y130.024 E6.98027
G1 X117.52 Y130.03 E6.99878
G1 X117.152 Y130.025 E7.01714
G1 X116.795 Y130.01 E7.03497
G1 X116.4 Y129.981 E7.05473
G1 X116 Y129.938 E7.0748
G1 X115.469 Y129.863 E7.10155
G1 X114.834 Y129.745 E7.13378
G1 X114.458 Y129.656 E7.15305
G1 X114.052 Y129.546 E7.17404
G1 X113.704 Y129.441 E7.19217
G1 X113.271 Y129.295 E7.21497
G1 X112.89 Y129.151 E7.23529
G1 X112.468 Y128.976 E7.25808
G1 X111.917 Y128.721 E7.28838
G1 X111.574 Y128.541 E7.3077
G1 X111.084 Y128.263 E7.33581
G1 X110.595 Y127.957 E7.36459
G1 X110.277 Y127.736 E7.38391
G1 X109.651 Y127.268 E7.4229
G1 X109.09 Y126.792 E7.45961
G1 X108.671 Y126.39 E7.48858
G1 X108.384 Y126.094 E7.50915
G1 X107.968 Y125.636 E7.54001
G1 X107.514 Y125.072 E7.57614
G1 X107.122 Y124.519 E7.60995
G1 X106.908 Y124.196 E7.62928
G1 X106.738 Y123.92 E7.64546
G1 X106.556 Y123.602 E7.66374
G1 X106.34 Y123.198 E7.68659
G1 X106.162 Y122.836 E7.70672
G1 X105.873 Y122.173 E7.7428
G1 X105.737 Y121.819 E7.76172
G1 X105.606 Y121.44 E7.78173
G1 X105.469 Y120.997 E7.80486
G1 X105.371 Y120.641 E7.82328
G1 X105.267 Y120.213 E7.84526
G1 X105.186 Y119.826 E7.86498
G1 X105.082 Y119.172 E7.89802
G1 X105.028 Y118.703 E7.92157
G1 X104.996 Y118.307 E7.94139
G1 X104.976 Y117.893 E7.96207
G1 X104.97 Y117.524 E7.98048
G0 F6000 X105.369 Y117.529
G1 F1200 X105.374 Y117.149 E7.99944
G1 X105.39 Y116.801 E8.01682
G1 X105.419 Y116.417 E8.03604
G1 X105.458 Y116.056 E8.05415
G1 X105.533 Y115.525 E8.08091
G1 X105.647 Y114.914 E8.11192
G1 X105.73 Y114.563 E8.12991
G1 X105.84 Y114.157 E8.1509
G1 X105.936 Y113.839 E8.16747
G1 X106.08 Y113.41 E8.19004
G1 X106.218 Y113.043 E8.20961
G1 X106.395 Y112.617 E8.23262
G1 X106.639 Y112.092 E8.2615
G1 X106.807 Y111.772 E8.27953
G1 X107.085 Y111.282 E8.30764
G1 X107.372 Y110.821 E8.33473
G1 X107.603 Y110.492 E8.35479
G1 X108.085 Y109.855 E8.39464
G1 X108.527 Y109.34 E8.4285
G1 X109.005 Y108.846 E8.46279
G1 X109.449 Y108.425 E8.49332
G1 X109.714 Y108.197 E8.51076
G1 X109.99 Y107.974 E8.52846
G1 X110.275 Y107.758 E8.54631
G1 X110.716 Y107.446 E8.57326
G1 X111.005 Y107.255 E8.59054
G1 X111.28 Y107.085 E8.60667
G1 X111.585 Y106.909 E8.62424
G1 X111.991 Y106.692 E8.6472
G1 X112.328 Y106.526 E8.66595
G1 X112.676 Y106.369 E8.68499
G1 X113.316 Y106.114 E8.71936
G1 X113.665 Y105.993 E8.73779
G1 X114.116 Y105.853 E8.76135
G1 X114.454 Y105.759 E8.77885
G1 X114.882 Y105.655 E8.80083
G1 X115.243 Y105.58 E8.81922
G1 X115.877 Y105.479 E8.85125
G1 X116.349 Y105.425 E8.87496
G1 X116.715 Y105.396 E8.89327
G1 X117.148 Y105.375 E8.9149
G1 X117.485 Y105.368 E8.93172
G1 X117.824 Y105.372 E8.94863
G1 X118.182 Y105.388 E8.96651
G1 X118.577 Y105.418 E8.98627
G1 X118.935 Y105.457 E9.00424
G1 X119.474 Y105.533 E9.0314
G1 X120.086 Y105.647 E9.06245
G1 X120.437 Y105.73 E9.08045
G1 X120.843 Y105.84 E9.10143
G1 X121.165 Y105.937 E9.11821
G1 X121.596 Y106.082 E9.1409
G1 X121.96 Y106.219 E9.1603
G1 X122.388 Y106.397 E9.18343
G1 X122.907 Y106.639 E9.212
G1 X123.228 Y106.807 E9.23007
G1 X123.718 Y107.085 E9.25818
G1 X124.187 Y107.378 E9.28577
G1 X124.482 Y107.584 E9.30372
G1 X125.107 Y108.051 E9.34264
G1 X125.632 Y108.496 E9.37698
G1 X126.051 Y108.898 E9.40595
G1 X126.319 Y109.173 E9.42511
G1 X126.736 Y109.632 E9.45605
G1 X127.158 Y110.157 E9.48965
G1 X127.549 Y110.708 E9.52336
G1 X127.751 Y111.014 E9.54165
G1 X128.087 Y111.579 E9.57445
G1 X128.306 Y111.988 E9.59759
G1 X128.474 Y112.328 E9.61651
G1 X128.748 Y112.955 E9.65065
G1 X128.879 Y113.293 E9.66874
G1 X129.006 Y113.659 E9.68806
G1 X129.148 Y114.117 E9.71199
G1 X129.241 Y114.456 E9.72952
G1 X129.345 Y114.885 E9.75155
G1 X129.419 Y115.24 E9.76964
G1 X129.52 Y115.872 E9.80157
G1 X129.574 Y116.341 E9.82512
G1 X129.605 Y116.712 E9.8437
G1 X129.625 Y117.127 E9.86442
G1 X129.625 Y117.842 E9.9001
G1 X129.611 Y118.181 E9.91702
G1 X129.582 Y118.571 E9.93653
G1 X129.543 Y118.932 E9.95465
G1 X129.468 Y119.468 E9.98165
G1 X129.353 Y120.086 E10.01301
G1 X129.273 Y120.426 E10.03044
G1 X129.165 Y120.828 E10.05121
G1 X129.063 Y121.164 E10.06872
G1 X128.917 Y121.597 E10.09152
G1 X128.783 Y121.956 E10.11064
G1 X128.609 Y122.375 E10.13327
G1 X128.364 Y122.901 E10.16222
G1 X128.195 Y123.225 E10.18045
G1 X127.922 Y123.707 E10.20809
G1 X127.63 Y124.175 E10.23561
G1 X127.397 Y124.508 E10.25589
G1 X126.915 Y125.145 E10.29574
G1 X126.473 Y125.66 E10.3296
G1 X125.995 Y126.154 E10.36389
G1 X125.551 Y126.575 E10.39442
G1 X125.286 Y126.803 E10.41186
G1 X125.01 Y127.026 E10.42956
G1 X124.725 Y127.242 E10.4474
G1 X124.284 Y127.554 E10.47435
G1 X123.995 Y127.745 E10.49164
G1 X123.72 Y127.915 E10.50777
G1 X123.415 Y128.091 E10.52534
G1 X123.009 Y128.308 E10.5483
G1 X122.672 Y128.474 E10.56704
G1 X122.324 Y128.631 E10.58609
G1 X121.684 Y128.886 E10.62046
G1 X121.335 Y129.007 E10.63889
G1 X120.884 Y129.147 E10.66245
G1 X120.546 Y129.241 E10.67995
G1 X120.118 Y129.345 E10.70193
G1 X119.757 Y129.42 E10.72032
G1 X119.127 Y129.52 E10.75215
G1 X118.658 Y129.574 E10.7757
G1 X118.287 Y129.605 E10.79427
G1 X117.872 Y129.625 E10.815
G1 X117.158 Y129.625 E10.85062
G1 X116.824 Y129.611 E10.8673
G1 X116.429 Y129.582 E10.88706
G1 X116.056 Y129.542 E10.90578
G1 X115.525 Y129.467 E10.93253
G1 X114.914 Y129.353 E10.96354
G1 X114.563 Y129.27 E10.98154
G1 X114.157 Y129.16 E11.00252
G1 X113.832 Y129.061 E11.01947
G1 X113.399 Y128.915 E11.04227
G1 X113.043 Y128.782 E11.06123
G1 X112.621 Y128.607 E11.08402
G1 X112.092 Y128.361 E11.11313
G1 X111.772 Y128.193 E11.13116
G1 X111.282 Y127.915 E11.15926
G1 X110.813 Y127.622 E11.18685
G1 X110.517 Y127.415 E11.20487
G1 X109.891 Y126.947 E11.24387
G1 X109.367 Y126.503 E11.27813
G1 X108.948 Y126.101 E11.3071
G1 X108.68 Y125.825 E11.3263
G1 X108.264 Y125.367 E11.35716
G1 X107.84 Y124.841 E11.39087
G1 X107.448 Y124.288 E11.42469
G1 X107.249 Y123.986 E11.44273
G1 X107.079 Y123.71 E11.4589
