;FLAVOR:Marlin
;TIME:3094
;Filament used: 5.72316m
;Layer height: 0.2
;MINX:98.419
;MINY:98.419
;MINZ:0.3
;MAXX:138.635
;MAXY:139.403
;MAXZ:38.1
;Generated with Cura_SteamEngine main
M140 S60
M105
M190 S60
M104 S200
M105
M109 S200
M82 ;absolute extrusion mode
; SC-10 Custom Start G-code
G28 ; Home all axes
G92 E0 ; Reset Extruder
G1 Z2.0 F3000 ; Move Z Axis up little to prevent scratching of Heat Bed
G1 X0.1 Y20 Z0.3 F5000.0 ; Move to start position
G1 X0.1 Y200.0 Z0.3 F1500.0 E15 ; Draw the first line
G1 X0.4 Y200.0 Z0.3 F5000.0 ; Move to side a little
G1 X0.4 Y20 Z0.3 F1500.0 E30 ; Draw the second line
G92 E0 ; Reset Extruder
G1 Z2.0 F3000 ; Move Z Axis up little to prevent scratching of Heat Bed
; End of custom start GCode
G92 E0
G92 E0
G1 F1500 E-6.5
;LAYER_COUNT:190
;LAYER:0
M107
G0 F6000 X102.018 Y101.379 Z0.3
G0 X98.421 Y110.152
;TYPE:SKIRT
G1 F1500 E0
G1 F1200 X98.431 Y109.448 E0.05796
G1 X98.453 Y108.984 E0.0962
G1 X98.499 Y108.46 E0.1395
G1 X98.559 Y107.948 E0.18193
G1 X98.687 Y107.205 E0.244
G1 X98.829 Y106.673 E0.28932
G1 X99.079 Y105.866 E0.35887
G1 X99.34 Y105.159 E0.42091
G1 X99.668 Y104.494 E0.48195
G1 X100.083 Y103.754 E0.55179
G1 X100.486 Y103.117 E0.61384
G1 X100.947 Y102.536 E0.67489
G1 X101.491 Y101.918 E0.74267
G1 X102.018 Y101.379 E0.80472
G1 X102.55 Y100.936 E0.86171
G1 X103.027 Y100.577 E0.91086
G1 X103.443 Y100.28 E0.95293
G1 X104.082 Y99.88 E1.01499
G1 X104.598 Y99.62 E1.06255
G1 X105.417 Y99.252 E1.13647
G1 X106.047 Y98.989 E1.19266
G1 X106.756 Y98.736 E1.25463
G1 X107.489 Y98.56 E1.31669
G1 X108.236 Y98.462 E1.37871
G1 X108.632 Y98.443 E1.41134
G1 X109.825 Y98.419 E1.50957
G1 X125.585 Y98.419 E2.80691
G1 X126.402 Y98.431 E2.87418
G1 X127.153 Y98.483 E2.93614
G1 X127.895 Y98.614 E2.99817
G1 X128.619 Y98.823 E3.0602
G1 X129.091 Y99.005 E3.10185
G1 X129.676 Y99.256 E3.15425
G1 X130.441 Y99.608 E3.22357
G1 X131.107 Y99.961 E3.28562
G1 X131.571 Y100.266 E3.33133
G1 X132.232 Y100.737 E3.39814
G1 X132.822 Y101.206 E3.46018
G1 X133.321 Y101.695 E3.5177
G1 X133.91 Y102.331 E3.58905
G1 X134.392 Y102.91 E3.65107
G1 X134.778 Y103.484 E3.70801
G1 X135.077 Y103.979 E3.75562
G1 X135.343 Y104.446 E3.79986
G1 X135.676 Y105.122 E3.86189
G1 X135.851 Y105.573 E3.90171
G1 X136.04 Y106.133 E3.95037
G1 X136.247 Y106.827 E4.00998
G1 X136.5 Y107.756 E4.08924
G1 X136.776 Y108.828 E4.18037
G1 X137.506 Y111.356 E4.39697
G1 X138.063 Y113.092 E4.54705
G1 X138.319 Y113.92 E4.61839
G1 X138.503 Y114.65 E4.68037
G1 X138.609 Y115.396 E4.74239
G1 X138.635 Y116.122 E4.8022
G1 X138.622 Y117.005 E4.87489
G1 X138.568 Y118.418 E4.99129
G1 X138.524 Y119.059 E5.04418
G1 X138.425 Y119.939 E5.11708
G1 X138.322 Y120.567 E5.16947
G1 X138.091 Y121.661 E5.26151
G1 X137.783 Y122.94 E5.36981
G1 X137.671 Y123.35 E5.40479
G1 X137.268 Y124.66 E5.51762
G1 X136.354 Y127.846 E5.79046
G1 X136.031 Y128.915 E5.88239
G1 X135.9 Y129.316 E5.91712
G1 X135.624 Y130.017 E5.97914
G1 X135.39 Y130.484 E6.02214
G1 X135.054 Y131.097 E6.07968
G1 X134.783 Y131.555 E6.12349
G1 X134.136 Y132.45 E6.2144
G1 X133.763 Y132.879 E6.26119
G1 X133.426 Y133.241 E6.30191
G1 X132.884 Y133.764 E6.36391
G1 X132.461 Y134.104 E6.40858
G1 X131.731 Y134.646 E6.48343
G1 X131.104 Y135.062 E6.54537
G1 X130.505 Y135.377 E6.60108
G1 X129.684 Y135.758 E6.67559
G1 X129.12 Y136.003 E6.72621
G1 X128.414 Y136.266 E6.78823
G1 X127.353 Y136.511 E6.87787
G1 X127.014 Y136.562 E6.90609
G1 X124.385 Y137.005 E7.12555
G1 X121.814 Y137.513 E7.34129
G1 X119.25 Y138.096 E7.55774
G1 X116.726 Y138.745 E7.77227
G1 X115.29 Y139.147 E7.89502
G1 X114.554 Y139.311 E7.9571
G1 X113.806 Y139.397 E8.01908
G1 X113.053 Y139.403 E8.08107
G1 X112.303 Y139.329 E8.1431
G1 X111.565 Y139.175 E8.20516
G1 X110.634 Y138.86 E8.28607
G1 X109.941 Y138.57 E8.34791
G1 X107.069 Y137.319 E8.60579
G1 X106.42 Y137.024 E8.66447
G1 X105.752 Y136.676 E8.72647
G1 X105.124 Y136.259 E8.78853
G1 X104.747 Y135.959 E8.82819
G1 X103.448 Y134.881 E8.96715
G1 X103.353 Y134.794 E8.97775
G1 X102.334 Y133.939 E9.08725
G1 X101.736 Y133.376 E9.15486
G1 X101.326 Y132.942 E9.20401
G1 X100.969 Y132.543 E9.24808
G1 X100.501 Y131.953 E9.31008
G1 X100.251 Y131.576 E9.34731
G1 X99.953 Y131.08 E9.39495
G1 X99.688 Y130.603 E9.43986
G1 X99.358 Y129.926 E9.50186
G1 X99.174 Y129.445 E9.54426
G1 X98.913 Y128.679 E9.61087
G1 X98.709 Y127.954 E9.67287
G1 X98.583 Y127.219 E9.73426
G1 X98.478 Y126.327 E9.80819
G1 X98.43 Y125.621 E9.86644
G1 X98.419 Y124.926 E9.92366
G1 X98.421 Y110.152 E11.13984
G0 F6000 X99.021 Y110.161
G1 F1200 X99.031 Y109.457 E11.1978
G1 X99.051 Y109.032 E11.23282
G1 X99.095 Y108.529 E11.27439
G1 X99.155 Y108.017 E11.31682
G1 X99.279 Y107.307 E11.37616
G1 X99.402 Y106.851 E11.41503
G1 X99.652 Y106.044 E11.48458
G1 X99.903 Y105.368 E11.54394
G1 X100.192 Y104.788 E11.59728
G1 X100.607 Y104.048 E11.66713
G1 X100.994 Y103.439 E11.72652
G1 X101.397 Y102.932 E11.77984
G1 X101.941 Y102.314 E11.84761
G1 X102.447 Y101.8 E11.90699
G1 X102.911 Y101.416 E11.95657
G1 X103.388 Y101.057 E12.00571
G1 X103.789 Y100.771 E12.04626
G1 X104.4 Y100.389 E12.10557
G1 X104.846 Y100.166 E12.14662
G1 X105.468 Y99.884 E12.20284
G1 X106.278 Y99.543 E12.27519
G1 X106.958 Y99.302 E12.33458
G1 X107.66 Y99.139 E12.3939
G1 X108.645 Y99.042 E12.47538
G1 X109.688 Y99.02 E12.56125
G1 X125.585 Y99.019 E13.86988
G1 X126.392 Y99.031 E13.93632
G1 X127.111 Y99.082 E13.99565
G1 X127.82 Y99.212 E14.05499
G1 X128.51 Y99.421 E14.11434
G1 X128.854 Y99.557 E14.14479
G1 X129.614 Y99.886 E14.21296
G1 X130.189 Y100.153 E14.26515
G1 X130.824 Y100.492 E14.3244
G1 X131.223 Y100.754 E14.3637
G1 X131.884 Y101.225 E14.43051
G1 X132.447 Y101.676 E14.48989
G1 X132.881 Y102.102 E14.53995
G1 X133.47 Y102.738 E14.61131
G1 X133.93 Y103.294 E14.67071
G1 X134.265 Y103.794 E14.72026
G1 X134.564 Y104.289 E14.76786
G1 X134.82 Y104.739 E14.81048
G1 X135.137 Y105.387 E14.86986
G1 X135.285 Y105.771 E14.90374
G1 X135.466 Y106.306 E14.95023
G1 X135.668 Y106.985 E15.00855
G1 X135.921 Y107.914 E15.08781
G1 X136.2 Y108.999 E15.18003
G1 X136.927 Y111.516 E15.3957
G1 X137.49 Y113.269 E15.54726
G1 X137.746 Y114.097 E15.6186
G1 X137.92 Y114.796 E15.6779
G1 X138.016 Y115.511 E15.73729
G1 X138.035 Y116.113 E15.78687
G1 X138.018 Y117.157 E15.87282
G1 X137.969 Y118.394 E15.97473
G1 X137.926 Y119.013 E16.02581
G1 X137.829 Y119.868 E16.09664
G1 X137.735 Y120.443 E16.1446
G1 X137.504 Y121.537 E16.23664
G1 X137.2 Y122.799 E16.3435
G1 X137.097 Y123.174 E16.37551
G1 X136.707 Y124.441 E16.48464
G1 X135.779 Y127.672 E16.76137
G1 X135.456 Y128.741 E16.8533
G1 X135.33 Y129.126 E16.88664
G1 X135.065 Y129.797 E16.94603
G1 X134.864 Y130.195 E16.98273
G1 X134.528 Y130.808 E17.04028
G1 X134.271 Y131.243 E17.08187
G1 X133.679 Y132.062 E17.16506
G1 X133.324 Y132.47 E17.20958
G1 X132.987 Y132.832 E17.25029
G1 X132.467 Y133.332 E17.30967
G1 X132.104 Y133.622 E17.34792
G1 X131.374 Y134.164 E17.42277
G1 X130.772 Y134.561 E17.48213
G1 X130.251 Y134.834 E17.53055
G1 X129.445 Y135.208 E17.60369
G1 X128.881 Y135.453 E17.65431
G1 X128.205 Y135.703 E17.71364
G1 X127.263 Y135.918 E17.79318
G1 X126.943 Y135.966 E17.81982
G1 X124.273 Y136.416 E18.04271
G1 X121.676 Y136.929 E18.26062
G1 X119.104 Y137.514 E18.47775
G1 X116.561 Y138.168 E18.6939
G1 X115.128 Y138.569 E18.8164
G1 X114.424 Y138.725 E18.87575
G1 X113.707 Y138.801 E18.93511
G1 X112.987 Y138.798 E18.99438
G1 X112.27 Y138.715 E19.05379
G1 X111.568 Y138.554 E19.11308
G1 X110.866 Y138.306 E19.17437
G1 X110.087 Y137.979 E19.24392
G1 X107.317 Y136.772 E19.49265
G1 X106.668 Y136.477 E19.55133
G1 X106.03 Y136.143 E19.61061
G1 X105.432 Y135.74 E19.66997
G1 X105.137 Y135.503 E19.70113
G1 X104.844 Y135.253 E19.73283
G1 X103.83 Y134.418 E19.84096
G1 X102.719 Y133.48 E19.96065
G1 X102.172 Y132.964 E20.02256
G1 X101.762 Y132.53 E20.0717
G1 X101.418 Y132.146 E20.11414
G1 X100.972 Y131.58 E20.17346
G1 X100.761 Y131.261 E20.20495
G1 X100.478 Y130.789 E20.25025
G1 X100.213 Y130.312 E20.29517
G1 X99.898 Y129.663 E20.35455
G1 X99.742 Y129.251 E20.39082
G1 X99.481 Y128.485 E20.45744
G1 X99.287 Y127.791 E20.51675
G1 X99.179 Y127.149 E20.57035
G1 X99.074 Y126.257 E20.64428
G1 X99.03 Y125.611 E20.69758
G1 X99.019 Y124.926 E20.75398
G1 X99.021 Y110.161 E21.96942
G0 F6000 X99.621 Y110.169
G1 F1200 X99.631 Y109.465 E22.02737
G1 X99.649 Y109.079 E22.05918
G1 X99.691 Y108.599 E22.09885
G1 X99.751 Y108.087 E22.14128
G1 X99.871 Y107.411 E22.1978
G1 X99.975 Y107.028 E22.23047
G1 X100.225 Y106.221 E22.30002
G1 X100.466 Y105.578 E22.35654
G1 X100.715 Y105.081 E22.4023
G1 X101.13 Y104.341 E22.47214
G1 X101.5 Y103.763 E22.52864
G1 X101.847 Y103.329 E22.57438
G1 X102.391 Y102.711 E22.64216
G1 X102.874 Y102.222 E22.69873
G1 X103.272 Y101.895 E22.74114
G1 X103.749 Y101.536 E22.79028
G1 X104.134 Y101.261 E22.82923
G1 X104.718 Y100.899 E22.88579
G1 X105.094 Y100.712 E22.92036
G1 X105.879 Y100.359 E22.99121
G1 X106.509 Y100.096 E23.04741
G1 X107.157 Y99.869 E23.10393
G1 X107.827 Y99.719 E23.16045
G1 X108.658 Y99.642 E23.22915
G1 X109.701 Y99.62 E23.31503
G1 X125.585 Y99.619 E24.62258
G1 X126.383 Y99.631 E24.68828
G1 X127.068 Y99.681 E24.74482
G1 X127.742 Y99.811 E24.80132
G1 X128.617 Y100.108 E24.87739
G1 X129.361 Y100.43 E24.94412
G1 X129.936 Y100.697 E24.99631
G1 X130.541 Y101.022 E25.05284
G1 X130.875 Y101.243 E25.08581
G1 X131.536 Y101.714 E25.15263
G1 X132.071 Y102.144 E25.20913
G1 X132.441 Y102.51 E25.25197
G1 X133.03 Y103.146 E25.32333
G1 X133.466 Y103.676 E25.37982
G1 X133.751 Y104.104 E25.42215
G1 X134.05 Y104.599 E25.46976
G1 X134.296 Y105.033 E25.51082
G1 X134.718 Y105.969 E25.59534
G1 X134.891 Y106.48 E25.63975
G1 X135.089 Y107.143 E25.69671
G1 X135.362 Y108.149 E25.78252
G1 X135.619 Y109.144 E25.86711
G1 X136.366 Y111.736 E26.08917
G1 X136.917 Y113.446 E26.23706
G1 X137.173 Y114.274 E26.3084
G1 X137.337 Y114.941 E26.36495
G1 X137.423 Y115.622 E26.42145
G1 X137.435 Y116.104 E26.46114
G1 X137.418 Y117.134 E26.54594
G1 X137.369 Y118.371 E26.64785
G1 X137.327 Y118.967 E26.69703
G1 X137.234 Y119.797 E26.76578
G1 X137.148 Y120.319 E26.80933
G1 X136.917 Y121.413 E26.90138
G1 X136.617 Y122.657 E27.00672
G1 X136.524 Y122.998 E27.03581
G1 X136.122 Y124.307 E27.14854
G1 X135.205 Y127.498 E27.42185
G1 X134.882 Y128.567 E27.51377
G1 X134.761 Y128.937 E27.54582
G1 X134.507 Y129.574 E27.60227
G1 X134.338 Y129.907 E27.63301
G1 X134.002 Y130.52 E27.69056
G1 X133.759 Y130.93 E27.72979
G1 X133.221 Y131.674 E27.80537
G1 X132.884 Y132.061 E27.84761
G1 X132.547 Y132.423 E27.88833
G1 X132.051 Y132.898 E27.94486
G1 X131.746 Y133.14 E27.97691
G1 X131.016 Y133.682 E28.05176
G1 X130.442 Y134.059 E28.10829
G1 X129.997 Y134.29 E28.14956
G1 X129.353 Y134.591 E28.20808
G1 X128.642 Y134.902 E28.27196
G1 X127.997 Y135.139 E28.32853
G1 X127.174 Y135.325 E28.39798
G1 X126.804 Y135.381 E28.42879
G1 X124.168 Y135.825 E28.64884
G1 X121.564 Y136.339 E28.86733
G1 X118.967 Y136.93 E29.08658
G1 X116.384 Y137.594 E29.30612
G1 X114.966 Y137.991 E29.42734
G1 X114.295 Y138.138 E29.48389
G1 X113.612 Y138.205 E29.54038
G1 X112.925 Y138.193 E29.59694
G1 X112.245 Y138.101 E29.65343
G1 X111.579 Y137.93 E29.71003
G1 X111.097 Y137.753 E29.7523
G1 X110.404 Y137.463 E29.81414
G1 X107.566 Y136.226 E30.06899
G1 X106.917 Y135.931 E30.12767
G1 X106.309 Y135.611 E30.18423
G1 X105.526 Y135.046 E30.26372
G1 X105.253 Y134.812 E30.29331
G1 X104.211 Y133.955 E30.40438
G1 X103.105 Y133.02 E30.52359
G1 X102.608 Y132.552 E30.57979
G1 X102.198 Y132.118 E30.62894
G1 X101.868 Y131.749 E30.66969
G1 X101.272 Y130.945 E30.75208
G1 X101.002 Y130.497 E30.79513
G1 X100.737 Y130.02 E30.84005
G1 X100.439 Y129.402 E30.89653
G1 X100.31 Y129.058 E30.92677
G1 X100.049 Y128.292 E30.99339
G1 X99.866 Y127.63 E31.04993
G1 X99.774 Y127.079 E31.09592
G1 X99.669 Y126.187 E31.16985
G1 X99.63 Y125.6 E31.21828
G1 X99.619 Y124.926 E31.27377
G1 X99.621 Y110.169 E32.48855
G0 F6000 X100.221 Y110.178
G1 F1200 X100.231 Y109.474 E32.54651
G1 X100.247 Y109.127 E32.5751
G1 X100.287 Y108.669 E32.61295
G1 X100.347 Y108.157 E32.65538
G1 X100.548 Y107.206 E32.7354
G1 X100.798 Y106.399 E32.80494
G1 X101.029 Y105.79 E32.85856
G1 X101.238 Y105.375 E32.89681
G1 X101.653 Y104.635 E32.96665
G1 X102.006 Y104.087 E33.02031
G1 X102.298 Y103.725 E33.0586
G1 X102.842 Y103.107 E33.12637
G1 X103.301 Y102.646 E33.17992
G1 X103.633 Y102.374 E33.21525
G1 X104.11 Y102.015 E33.2644
G1 X104.479 Y101.752 E33.3017
G1 X105.034 Y101.411 E33.35532
G1 X105.342 Y101.259 E33.3836
G1 X106.11 Y100.913 E33.45294
G1 X106.74 Y100.65 E33.50913
G1 X107.355 Y100.437 E33.56271
G1 X107.991 Y100.3 E33.61627
G1 X108.67 Y100.242 E33.67236
G1 X109.713 Y100.22 E33.75824
G1 X125.585 Y100.219 E35.06481
G1 X126.374 Y100.231 E35.12976
G1 X127.022 Y100.281 E35.18326
G1 X127.66 Y100.41 E35.23685
G1 X128.381 Y100.659 E35.29964
G1 X128.966 Y100.91 E35.35204
G1 X129.683 Y101.241 E35.41705
G1 X130.256 Y101.551 E35.47068
G1 X130.527 Y101.732 E35.49751
G1 X131.188 Y102.203 E35.56432
G1 X131.693 Y102.612 E35.61781
G1 X132.001 Y102.918 E35.65355
G1 X132.59 Y103.554 E35.72491
G1 X133.002 Y104.058 E35.7785
G1 X133.238 Y104.415 E35.81373
G1 X133.537 Y104.91 E35.86133
G1 X133.773 Y105.326 E35.9007
G1 X134.152 Y106.167 E35.97664
G1 X134.317 Y106.653 E36.01889
G1 X134.51 Y107.3 E36.07447
G1 X134.781 Y108.299 E36.15968
G1 X135.045 Y109.324 E36.24681
G1 X135.785 Y111.887 E36.46641
G1 X136.344 Y113.623 E36.61654
G1 X136.6 Y114.451 E36.68788
G1 X136.753 Y115.084 E36.74149
G1 X136.828 Y115.73 E36.79503
G1 X136.835 Y116.095 E36.82508
G1 X136.819 Y117.11 E36.90864
G1 X136.77 Y118.347 E37.01055
G1 X136.729 Y118.921 E37.05792
G1 X136.638 Y119.727 E37.12469
G1 X136.561 Y120.195 E37.16374
G1 X136.33 Y121.289 E37.25578
G1 X136.034 Y122.515 E37.3596
G1 X135.95 Y122.821 E37.38572
G1 X135.55 Y124.122 E37.49777
G1 X134.63 Y127.325 E37.77209
G1 X134.213 Y128.7 E37.89037
G1 X133.812 Y129.618 E37.97284
G1 X133.476 Y130.231 E38.03038
G1 X133.247 Y130.618 E38.0674
G1 X132.764 Y131.285 E38.13519
G1 X132.445 Y131.652 E38.17522
G1 X132.108 Y132.014 E38.21593
G1 X131.388 Y132.658 E38.29545
G1 X130.658 Y133.2 E38.3703
G1 X130.113 Y133.556 E38.42388
G1 X129.743 Y133.746 E38.45812
G1 X128.967 Y134.107 E38.52858
G1 X128.403 Y134.352 E38.57919
G1 X127.791 Y134.574 E38.63279
G1 X127.084 Y134.731 E38.6924
G1 X124.091 Y135.23 E38.94218
G1 X121.419 Y135.757 E39.16638
G1 X118.831 Y136.346 E39.38487
G1 X116.25 Y137.009 E39.60423
G1 X114.804 Y137.414 E39.72784
G1 X114.168 Y137.55 E39.78138
G1 X113.52 Y137.608 E39.83494
G1 X112.869 Y137.586 E39.88856
G1 X112.226 Y137.484 E39.94215
G1 X111.329 Y137.199 E40.01963
G1 X110.566 Y136.879 E40.08774
G1 X107.814 Y135.68 E40.33485
G1 X107.165 Y135.385 E40.39353
G1 X106.59 Y135.08 E40.44711
G1 X105.916 Y134.59 E40.51571
G1 X105.667 Y134.377 E40.54268
G1 X104.592 Y133.492 E40.6573
G1 X104.503 Y133.409 E40.66732
G1 X103.491 Y132.56 E40.77606
G1 X103.044 Y132.14 E40.82655
G1 X102.634 Y131.706 E40.8757
G1 X102.318 Y131.352 E40.91476
G1 X101.782 Y130.63 E40.98878
G1 X101.527 Y130.206 E41.02951
G1 X101.262 Y129.729 E41.07443
G1 X100.878 Y128.864 E41.15234
G1 X100.617 Y128.098 E41.21896
G1 X100.446 Y127.471 E41.27245
G1 X100.37 Y127.009 E41.311
G1 X100.265 Y126.117 E41.38493
G1 X100.23 Y125.59 E41.42841
G1 X100.219 Y124.926 E41.48308
G1 X100.221 Y110.178 E42.69711
G1 F1500 E36.19711
G0 F6000 X113.861 Y120.726
G0 X114.581 Y121.142
G0 X123.263 Y124.4
G1 F1500 E42.69711
G1 F1200 X123.669 Y124.035 E42.74206
G1 X124.035 Y123.669 E42.78467
G1 X124.4 Y123.263 E42.82961
G1 X124.4 Y124.4 E42.9232
G1 X123.263 Y124.4 E43.0168
G1 F1500 E36.5168
G0 F6000 X119.81 Y125.687
G1 F1500 E43.0168
G1 F1200 X120.354 Y125.484 E43.0646
G1 X120.79 Y125.29 E43.10388
