;FLAVOR:Marlin
;TIME:3069
;Filament used: 5.58583m
;Layer height: 0.2
;MINX:98.42
;MINY:98.419
;MINZ:0.3
;MAXX:138.374
;MAXY:139.409
;MAXZ:38.1
;Generated with Cura_SteamEngine main
M140 S60
M105
M190 S60
M104 S200
M105
M109 S200
M82 ;absolute extrusion mode
; SC-10 Custom Start G-code
G28 ; Home all axes
G92 E0 ; Reset Extruder
G1 Z2.0 F3000 ; Move Z Axis up little to prevent scratching of Heat Bed
G1 X0.1 Y20 Z0.3 F5000.0 ; Move to start position
G1 X0.1 Y200.0 Z0.3 F1500.0 E15 ; Draw the first line
G1 X0.4 Y200.0 Z0.3 F5000.0 ; Move to side a little
G1 X0.4 Y20 Z0.3 F1500.0 E30 ; Draw the second line
G92 E0 ; Reset Extruder
G1 Z2.0 F3000 ; Move Z Axis up little to prevent scratching of Heat Bed
; End of custom start GCode
G92 E0
G92 E0
G1 F1500 E-6.5
;LAYER_COUNT:190
;LAYER:0
M107
G0 F6000 X102.018 Y101.379 Z0.3
G0 X98.42 Y110.254
;TYPE:SKIRT
G1 F1500 E0
G1 F1200 X98.432 Y109.368 E0.07294
G1 X98.478 Y108.653 E0.13192
G1 X98.558 Y107.96 E0.18935
G1 X98.684 Y107.217 E0.25138
G1 X98.829 Y106.673 E0.29773
G1 X99.079 Y105.866 E0.36727
G1 X99.34 Y105.159 E0.42931
G1 X99.668 Y104.494 E0.49035
G1 X100.083 Y103.754 E0.56019
G1 X100.486 Y103.117 E0.62224
G1 X100.947 Y102.536 E0.6833
G1 X101.491 Y101.918 E0.75107
G1 X102.018 Y101.379 E0.81312
G1 X102.55 Y100.936 E0.87011
G1 X103.027 Y100.577 E0.91926
G1 X103.443 Y100.28 E0.96133
G1 X104.082 Y99.88 E1.02339
G1 X104.598 Y99.62 E1.07096
G1 X105.417 Y99.252 E1.14487
G1 X106.047 Y98.989 E1.20107
G1 X106.756 Y98.736 E1.26304
G1 X107.489 Y98.56 E1.32509
G1 X108.236 Y98.462 E1.38711
G1 X108.632 Y98.443 E1.41975
G1 X109.825 Y98.419 E1.51797
G1 X125.585 Y98.419 E2.81532
G1 X126.402 Y98.431 E2.88258
G1 X127.153 Y98.483 E2.94455
G1 X127.895 Y98.614 E3.00657
G1 X128.619 Y98.823 E3.06861
G1 X129.091 Y99.005 E3.11025
G1 X129.676 Y99.256 E3.16265
G1 X130.441 Y99.608 E3.23197
G1 X131.107 Y99.961 E3.29402
G1 X131.571 Y100.266 E3.33973
G1 X132.232 Y100.737 E3.40654
G1 X132.822 Y101.206 E3.46859
G1 X133.321 Y101.695 E3.5261
G1 X133.91 Y102.331 E3.59746
G1 X134.392 Y102.91 E3.65947
G1 X134.778 Y103.484 E3.71641
G1 X135.077 Y103.979 E3.76402
G1 X135.343 Y104.446 E3.80826
G1 X135.676 Y105.122 E3.87029
G1 X135.851 Y105.573 E3.91012
G1 X136.042 Y106.139 E3.95929
G1 X136.2 Y106.665 E4.0045
G1 X136.327 Y107.151 E4.04585
G1 X137.022 Y110.241 E4.30657
G1 X137.667 Y112.765 E4.52102
G1 X138.119 Y114.369 E4.6582
G1 X138.285 Y115.104 E4.72023
G1 X138.371 Y115.853 E4.78229
G1 X138.374 Y116.684 E4.8507
G1 X138.344 Y117.22 E4.89489
G1 X138.308 Y118.153 E4.97175
G1 X138.289 Y118.357 E4.98862
G1 X138.234 Y119.531 E5.08537
G1 X138.108 Y120.571 E5.1716
G1 X137.911 Y121.57 E5.25542
G1 X137.683 Y122.562 E5.33921
G1 X137.435 Y123.499 E5.419
G1 X137.18 Y124.417 E5.49743
G1 X136.595 Y126.763 E5.69647
G1 X136.34 Y127.844 E5.78789
G1 X136.226 Y128.269 E5.82412
G1 X136.03 Y128.917 E5.87985
G1 X135.889 Y129.345 E5.91694
G1 X135.61 Y130.045 E5.97897
G1 X135.369 Y130.52 E6.02282
G1 X134.941 Y131.29 E6.09534
G1 X134.54 Y131.929 E6.15744
G1 X134.147 Y132.437 E6.21031
G1 X133.762 Y132.879 E6.25856
G1 X133.423 Y133.243 E6.29951
G1 X132.881 Y133.766 E6.36151
G1 X132.462 Y134.103 E6.40578
G1 X131.734 Y134.644 E6.48044
G1 X131.106 Y135.06 E6.54245
G1 X130.505 Y135.377 E6.59838
G1 X129.677 Y135.761 E6.67352
G1 X129.116 Y136.004 E6.72384
G1 X128.41 Y136.266 E6.78583
G1 X127.677 Y136.453 E6.84811
G1 X125.251 Y136.935 E7.05171
G1 X121.741 Y137.734 E7.34804
G1 X120.62 Y137.96 E7.44218
G1 X120.047 Y138.067 E7.49016
G1 X117.457 Y138.623 E7.70823
G1 X115.06 Y139.209 E7.91136
G1 X114.32 Y139.349 E7.97335
G1 X113.569 Y139.409 E8.03537
G1 X112.816 Y139.39 E8.09738
G1 X112.069 Y139.291 E8.15941
G1 X111.337 Y139.113 E8.22142
G1 X110.633 Y138.861 E8.28297
G1 X109.818 Y138.519 E8.35573
G1 X107.108 Y137.337 E8.59911
G1 X106.447 Y137.039 E8.6588
G1 X105.778 Y136.693 E8.7208
G1 X105.148 Y136.278 E8.7829
G1 X104.739 Y135.953 E8.8259
G1 X104.378 Y135.643 E8.86508
G1 X102.33 Y133.933 E9.0847
G1 X101.714 Y133.352 E9.15441
G1 X101.371 Y132.988 E9.19558
G1 X101.023 Y132.601 E9.23842
G1 X100.553 Y132.012 E9.30045
G1 X100.279 Y131.599 E9.34125
G1 X99.835 Y130.875 E9.41117
G1 X99.476 Y130.213 E9.47316
G1 X99.212 Y129.579 E9.52969
G1 X99.008 Y128.994 E9.58069
G1 X98.844 Y128.464 E9.62636
G1 X98.66 Y127.733 E9.68842
G1 X98.579 Y127.222 E9.73101
G1 X98.507 Y126.63 E9.7801
G1 X98.458 Y126.12 E9.82227
G1 X98.433 Y125.715 E9.85568
G1 X98.422 Y125.27 E9.89232
G1 X98.42 Y110.254 E11.12842
G0 F6000 X99.02 Y110.254
G1 F1200 X99.032 Y109.376 E11.2007
G1 X99.074 Y108.722 E11.25465
G1 X99.154 Y108.029 E11.31208
G1 X99.276 Y107.318 E11.37146
G1 X99.402 Y106.851 E11.41128
G1 X99.652 Y106.044 E11.48082
G1 X99.903 Y105.368 E11.54018
G1 X100.192 Y104.788 E11.59353
G1 X100.607 Y104.048 E11.66337
G1 X100.994 Y103.439 E11.72277
G1 X101.397 Y102.932 E11.77608
G1 X101.941 Y102.314 E11.84386
G1 X102.447 Y101.8 E11.90323
G1 X102.911 Y101.416 E11.95281
G1 X103.388 Y101.057 E12.00195
G1 X103.789 Y100.771 E12.0425
G1 X104.4 Y100.389 E12.10182
G1 X104.846 Y100.166 E12.14286
G1 X105.468 Y99.884 E12.19908
G1 X106.278 Y99.543 E12.27143
G1 X106.958 Y99.302 E12.33082
G1 X107.66 Y99.139 E12.39014
G1 X108.645 Y99.042 E12.47162
G1 X109.688 Y99.02 E12.5575
G1 X125.585 Y99.019 E13.86612
G1 X126.392 Y99.031 E13.93256
G1 X127.111 Y99.082 E13.99189
G1 X127.82 Y99.212 E14.05123
G1 X128.51 Y99.421 E14.11058
G1 X128.854 Y99.557 E14.14103
G1 X129.614 Y99.886 E14.2092
G1 X130.189 Y100.153 E14.26139
G1 X130.824 Y100.492 E14.32065
G1 X131.223 Y100.754 E14.35994
G1 X131.884 Y101.225 E14.42675
G1 X132.447 Y101.676 E14.48613
G1 X132.881 Y102.102 E14.5362
G1 X133.47 Y102.738 E14.60755
G1 X133.93 Y103.294 E14.66696
G1 X134.265 Y103.794 E14.7165
G1 X134.564 Y104.289 E14.7641
G1 X134.82 Y104.739 E14.80672
G1 X135.137 Y105.387 E14.86611
G1 X135.285 Y105.771 E14.89998
G1 X135.467 Y106.312 E14.94697
G1 X135.625 Y106.838 E14.99218
G1 X135.742 Y107.282 E15.02998
G1 X136.441 Y110.392 E15.29238
G1 X137.086 Y112.911 E15.50643
G1 X137.542 Y114.532 E15.64505
G1 X137.698 Y115.235 E15.70432
G1 X137.776 Y115.952 E15.76369
G1 X137.775 Y116.651 E15.82123
G1 X137.742 Y117.251 E15.8707
G1 X137.708 Y118.13 E15.94311
G1 X137.691 Y118.307 E15.95775
G1 X137.635 Y119.502 E16.05623
G1 X137.519 Y120.455 E16.13526
G1 X137.28 Y121.651 E16.23566
G1 X137.103 Y122.409 E16.29973
G1 X136.878 Y123.261 E16.37227
G1 X136.606 Y124.24 E16.45592
G1 X136.013 Y126.617 E16.65759
G1 X135.756 Y127.707 E16.74977
G1 X135.652 Y128.095 E16.78284
G1 X135.456 Y128.743 E16.83857
G1 X135.321 Y129.153 E16.8741
G1 X135.052 Y129.822 E16.93346
G1 X134.844 Y130.229 E16.97109
G1 X134.416 Y130.999 E17.04361
G1 X134.032 Y131.609 E17.10294
G1 X133.689 Y132.049 E17.14887
G1 X133.323 Y132.47 E17.19479
G1 X132.984 Y132.834 E17.23573
G1 X132.464 Y133.333 E17.29506
G1 X132.104 Y133.621 E17.33301
G1 X131.376 Y134.162 E17.40768
G1 X130.775 Y134.559 E17.46697
G1 X130.251 Y134.834 E17.51568
G1 X129.607 Y135.135 E17.5742
G1 X128.878 Y135.453 E17.63967
G1 X128.201 Y135.703 E17.69908
G1 X127.56 Y135.865 E17.75351
G1 X125.076 Y136.358 E17.96197
G1 X122.497 Y136.943 E18.17967
G1 X121.835 Y137.1 E18.23568
G1 X120.511 Y137.37 E18.34691
G1 X119.915 Y137.481 E18.39681
G1 X117.334 Y138.036 E18.61414
G1 X114.918 Y138.626 E18.81886
G1 X114.209 Y138.758 E18.87823
G1 X113.49 Y138.811 E18.93758
G1 X112.77 Y138.784 E18.99689
G1 X112.057 Y138.677 E19.05624
G1 X111.36 Y138.492 E19.1156
G1 X110.865 Y138.308 E19.15907
G1 X110.058 Y137.969 E19.23113
G1 X107.355 Y136.79 E19.47388
G1 X106.694 Y136.492 E19.53357
G1 X106.054 Y136.159 E19.59296
G1 X105.455 Y135.758 E19.6523
G1 X105.13 Y135.497 E19.68661
G1 X102.714 Y133.472 E19.94611
G1 X102.15 Y132.941 E20.00988
G1 X101.807 Y132.577 E20.05105
G1 X101.472 Y132.203 E20.09238
G1 X101.024 Y131.638 E20.15174
G1 X100.791 Y131.285 E20.18656
G1 X100.347 Y130.561 E20.25647
G1 X100.005 Y129.927 E20.31577
G1 X99.776 Y129.375 E20.36496
G1 X99.581 Y128.816 E20.4137
G1 X99.417 Y128.286 E20.45937
G1 X99.243 Y127.587 E20.51867
G1 X99.175 Y127.15 E20.55507
G1 X99.081 Y126.355 E20.62097
G1 X99.032 Y125.696 E20.67537
G1 X99.022 Y125.27 E20.71045
G1 X99.02 Y110.254 E21.94655
G0 F6000 X99.62 Y110.254
G1 F1200 X99.632 Y109.384 E22.01817
G1 X99.67 Y108.79 E22.06717
G1 X99.75 Y108.097 E22.12459
G1 X99.868 Y107.421 E22.18108
G1 X99.975 Y107.028 E22.21461
G1 X100.225 Y106.221 E22.28416
G1 X100.466 Y105.578 E22.34068
G1 X100.715 Y105.081 E22.38644
G1 X101.13 Y104.341 E22.45629
G1 X101.5 Y103.763 E22.51278
G1 X101.847 Y103.329 E22.55852
G1 X102.391 Y102.711 E22.6263
G1 X102.874 Y102.222 E22.68288
G1 X103.272 Y101.895 E22.72528
G1 X103.749 Y101.536 E22.77442
G1 X104.134 Y101.261 E22.81337
G1 X104.718 Y100.899 E22.86993
G1 X105.094 Y100.712 E22.9045
G1 X105.879 Y100.359 E22.97535
G1 X106.509 Y100.096 E23.03155
G1 X107.157 Y99.869 E23.08807
G1 X107.827 Y99.719 E23.14459
G1 X108.658 Y99.642 E23.21329
G1 X109.701 Y99.62 E23.29917
G1 X125.585 Y99.619 E24.60672
G1 X126.383 Y99.631 E24.67242
G1 X127.068 Y99.681 E24.72896
G1 X127.742 Y99.811 E24.78546
G1 X128.617 Y100.108 E24.86153
G1 X129.361 Y100.43 E24.92826
G1 X129.936 Y100.697 E24.98045
G1 X130.541 Y101.022 E25.03699
G1 X130.875 Y101.243 E25.06995
G1 X131.536 Y101.714 E25.13677
G1 X132.071 Y102.144 E25.19327
G1 X132.441 Y102.51 E25.23611
G1 X133.03 Y103.146 E25.30747
G1 X133.466 Y103.676 E25.36396
G1 X133.751 Y104.104 E25.40629
G1 X134.05 Y104.599 E25.4539
G1 X134.296 Y105.033 E25.49496
G1 X134.718 Y105.969 E25.57948
G1 X134.893 Y106.485 E25.62434
G1 X135.051 Y107.011 E25.66955
G1 X135.156 Y107.414 E25.70383
G1 X135.849 Y110.495 E25.96379
G1 X136.514 Y113.096 E26.18479
G1 X136.964 Y114.694 E26.32145
G1 X137.112 Y115.365 E26.37801
G1 X137.18 Y116.049 E26.4346
G1 X137.176 Y116.618 E26.48144
G1 X137.145 Y117.173 E26.5272
G1 X137.109 Y118.106 E26.60406
G1 X137.09 Y118.296 E26.61978
G1 X137.035 Y119.474 E26.71685
G1 X136.931 Y120.338 E26.78849
G1 X136.734 Y121.337 E26.87231
G1 X136.568 Y122.07 E26.93418
G1 X136.278 Y123.178 E27.02846
G1 X136.028 Y124.079 E27.10543
G1 X135.431 Y126.472 E27.30846
G1 X135.172 Y127.569 E27.40124
G1 X135.077 Y127.921 E27.43126
G1 X134.881 Y128.569 E27.48699
G1 X134.752 Y128.961 E27.52096
G1 X134.495 Y129.597 E27.57742
G1 X134.32 Y129.937 E27.6089
G1 X133.892 Y130.707 E27.68142
G1 X133.524 Y131.287 E27.73797
G1 X133.232 Y131.66 E27.77696
G1 X132.884 Y132.061 E27.82067
G1 X132.545 Y132.425 E27.86161
G1 X132.048 Y132.899 E27.91815
G1 X131.746 Y133.14 E27.94996
G1 X131.018 Y133.681 E28.02462
G1 X130.444 Y134.057 E28.08111
G1 X129.997 Y134.29 E28.1226
G1 X129.2 Y134.66 E28.19493
G1 X128.639 Y134.903 E28.24526
G1 X127.994 Y135.139 E28.3018
G1 X127.443 Y135.276 E28.34854
G1 X124.981 Y135.765 E28.55517
G1 X122.358 Y136.359 E28.77656
G1 X121.696 Y136.516 E28.83256
G1 X120.401 Y136.78 E28.94136
G1 X119.79 Y136.894 E28.99252
G1 X117.203 Y137.45 E29.21035
G1 X114.775 Y138.043 E29.41609
G1 X114.1 Y138.167 E29.47258
G1 X113.415 Y138.212 E29.52909
G1 X112.729 Y138.177 E29.58564
G1 X112.052 Y138.062 E29.64217
G1 X111.097 Y137.754 E29.72477
G1 X110.297 Y137.419 E29.79617
G1 X107.601 Y136.243 E30.03829
G1 X106.94 Y135.945 E30.09798
G1 X106.332 Y135.626 E30.1545
G1 X105.521 Y135.042 E30.23677
G1 X105.16 Y134.732 E30.27594
G1 X103.099 Y133.011 E30.49697
G1 X102.587 Y132.529 E30.55485
G1 X102.244 Y132.165 E30.59603
G1 X101.92 Y131.804 E30.63596
G1 X101.495 Y131.265 E30.69246
G1 X101.302 Y130.971 E30.72141
G1 X100.858 Y130.247 E30.79132
G1 X100.534 Y129.642 E30.84782
G1 X100.34 Y129.171 E30.88975
G1 X100.155 Y128.639 E30.93612
G1 X99.991 Y128.109 E30.98179
G1 X99.826 Y127.442 E31.03835
G1 X99.77 Y127.077 E31.06875
G1 X99.698 Y126.485 E31.11784
G1 X99.653 Y126.013 E31.15687
G1 X99.632 Y125.676 E31.18466
G1 X99.622 Y125.27 E31.2181
G1 X99.62 Y110.254 E32.4542
G0 F6000 X100.22 Y110.254
G1 F1200 X100.232 Y109.393 E32.52508
G1 X100.266 Y108.859 E32.56913
G1 X100.346 Y108.166 E32.62655
G1 X100.46 Y107.525 E32.68015
G1 X100.548 Y107.206 E32.70739
G1 X100.798 Y106.399 E32.77693
G1 X101.029 Y105.79 E32.83055
G1 X101.238 Y105.375 E32.8688
G1 X101.653 Y104.635 E32.93864
G1 X102.006 Y104.087 E32.9923
G1 X102.298 Y103.725 E33.03059
G1 X102.842 Y103.107 E33.09836
G1 X103.301 Y102.646 E33.15191
G1 X103.633 Y102.374 E33.18724
G1 X104.11 Y102.015 E33.23639
G1 X104.479 Y101.752 E33.27369
G1 X105.034 Y101.411 E33.32731
G1 X105.342 Y101.259 E33.35559
G1 X106.11 Y100.913 E33.42493
G1 X106.74 Y100.65 E33.48112
G1 X107.355 Y100.437 E33.5347
G1 X107.991 Y100.3 E33.58826
G1 X108.67 Y100.242 E33.64436
G1 X109.713 Y100.22 E33.73023
G1 X125.585 Y100.219 E35.0368
G1 X126.374 Y100.231 E35.10175
G1 X127.022 Y100.281 E35.15526
G1 X127.66 Y100.41 E35.20884
G1 X128.381 Y100.659 E35.27163
G1 X128.966 Y100.91 E35.32403
G1 X129.683 Y101.241 E35.38904
G1 X130.256 Y101.551 E35.44267
G1 X130.527 Y101.732 E35.4695
G1 X131.188 Y102.203 E35.53631
G1 X131.693 Y102.612 E35.5898
G1 X132.001 Y102.918 E35.62554
G1 X132.59 Y103.554 E35.6969
G1 X133.002 Y104.058 E35.75049
G1 X133.238 Y104.415 E35.78572
G1 X133.537 Y104.91 E35.83332
G1 X133.773 Y105.326 E35.87269
G1 X134.152 Y106.167 E35.94863
G1 X134.318 Y106.657 E35.99122
G1 X134.476 Y107.183 E36.03643
G1 X134.571 Y107.546 E36.06732
G1 X135.266 Y110.638 E36.3282
G1 X135.933 Y113.243 E36.54955
G1 X136.387 Y114.857 E36.68757
G1 X136.524 Y115.493 E36.74113
G1 X136.583 Y116.141 E36.79469
G1 X136.577 Y116.585 E36.83125
G1 X136.543 Y117.201 E36.88203
G1 X136.509 Y118.083 E36.95469
G1 X136.492 Y118.25 E36.96851
G1 X136.436 Y119.446 E37.06707
G1 X136.342 Y120.222 E37.13142
G1 X136.111 Y121.382 E37.22878
G1 X135.984 Y121.935 E37.27549
G1 X135.7 Y123.018 E37.36765
G1 X135.438 Y123.964 E37.44846
G1 X134.864 Y126.262 E37.64344
G1 X134.588 Y127.431 E37.74232
G1 X134.503 Y127.747 E37.76925
G1 X134.206 Y128.719 E37.85292
G1 X133.795 Y129.646 E37.93639
G1 X133.367 Y130.416 E38.00891
G1 X133.017 Y130.964 E38.06244
G1 X132.775 Y131.272 E38.09468
G1 X132.444 Y131.652 E38.13617
G1 X132.105 Y132.016 E38.17711
G1 X131.388 Y132.658 E38.25634
G1 X130.66 Y133.199 E38.331
G1 X130.115 Y133.554 E38.38454
G1 X129.743 Y133.746 E38.419
G1 X128.962 Y134.109 E38.4899
G1 X128.401 Y134.352 E38.54023
G1 X127.789 Y134.574 E38.59382
G1 X127.326 Y134.687 E38.63305
G1 X124.877 Y135.173 E38.83858
G1 X121.384 Y135.97 E39.13351
G1 X120.291 Y136.19 E39.22529
G1 X119.692 Y136.302 E39.27545
G1 X117.087 Y136.861 E39.49478
G1 X114.633 Y137.461 E39.70274
G1 X113.992 Y137.576 E39.75635
G1 X113.343 Y137.612 E39.80985
G1 X112.693 Y137.568 E39.86348
G1 X112.054 Y137.445 E39.91705
G1 X111.328 Y137.201 E39.9801
G1 X110.537 Y136.869 E40.05072
G1 X107.848 Y135.696 E40.29222
G1 X107.187 Y135.398 E40.3519
G1 X106.611 Y135.094 E40.40552
G1 X105.912 Y134.587 E40.4766
G1 X105.551 Y134.277 E40.51577
G1 X103.484 Y132.551 E40.73744
G1 X103.024 Y132.118 E40.78945
G1 X102.681 Y131.754 E40.83062
G1 X102.369 Y131.406 E40.86909
G1 X101.814 Y130.658 E40.94577
G1 X101.37 Y129.934 E41.01568
G1 X101.064 Y129.359 E41.0693
G1 X100.904 Y128.967 E41.10415
G1 X100.728 Y128.462 E41.14818
G1 X100.564 Y127.932 E41.19385
G1 X100.366 Y127.005 E41.27188
G1 X100.276 Y126.248 E41.33463
G1 X100.232 Y125.656 E41.3835
G1 X100.222 Y125.27 E41.41528
G1 X100.22 Y110.254 E42.65138
G1 F1500 E36.15138
G0 F6000 X114.292 Y121.007
G0 X115.232 Y121.425
G0 X115.799 Y121.544
G0 X124.659 Y122.942
G0 X123.263 Y124.4
G1 F1500 E42.65138
G1 F1200 X123.669 Y124.035 E42.69632
G1 X124.035 Y123.669 E42.73893
G1 X124.394 Y123.27 E42.78312
G1 X124.659 Y122.942 E42.81783
G1 X124.515 Y123.455 E42.86169
G1 X124.419 Y124.086 E42.91423
G1 X124.406 Y124.4 E42.9401
G1 X123.263 Y124.4 E43.03419
