;FLAVOR:Marlin
;TIME:2510
;Filament used: 3.67617m
;Layer height: 0.3
;MINX:86.849
;MINY:75.418
;MINZ:0.3
;MAXX:148.151
;MAXY:159.581
;MAXZ:3.9
;Generated with Cura_SteamEngine main
M140 S60
M105
M190 S60
M104 S200
M105
M109 S200
M82 ;absolute extrusion mode
; SC-10 Custom Start G-code
G28 ; Home all axes
G92 E0 ; Reset Extruder
G1 Z2.0 F3000 ; Move Z Axis up little to prevent scratching of Heat Bed
G1 X0.1 Y20 Z0.3 F5000.0 ; Move to start position
G1 X0.1 Y200.0 Z0.3 F1500.0 E15 ; Draw the first line
G1 X0.4 Y200.0 Z0.3 F5000.0 ; Move to side a little
G1 X0.4 Y20 Z0.3 F1500.0 E30 ; Draw the second line
G92 E0 ; Reset Extruder
G1 Z2.0 F3000 ; Move Z Axis up little to prevent scratching of Heat Bed
; End of custom start GCode
G92 E0
G92 E0
G1 F1500 E-6.5
;LAYER_COUNT:13
;LAYER:0
M107
G0 F6000 X89.791 Y79.327 Z0.3
G0 X86.851 Y87.691
;TYPE:SKIRT
G1 F1500 E0
G1 F1200 X86.867 Y86.696 E0.07447
G1 X86.893 Y86.192 E0.11224
G1 X86.924 Y85.837 E0.13891
G1 X87.035 Y85.063 E0.19742
G1 X87.155 Y84.463 E0.24321
G1 X87.355 Y83.692 E0.30282
G1 X87.474 Y83.32 E0.33205
G1 X87.67 Y82.781 E0.37497
G1 X87.842 Y82.363 E0.40879
G1 X88.225 Y81.575 E0.47436
G1 X88.435 Y81.203 E0.50633
G1 X88.671 Y80.815 E0.54031
G1 X88.894 Y80.473 E0.57087
G1 X89.419 Y79.767 E0.63671
G1 X89.791 Y79.327 E0.67983
G1 X90.413 Y78.679 E0.74704
G1 X90.861 Y78.268 E0.79254
G1 X91.536 Y77.713 E0.85794
G1 X92.154 Y77.297 E0.91369
G1 X92.657 Y76.989 E0.95783
G1 X93.424 Y76.582 E1.02281
G1 X93.78 Y76.42 E1.05208
G1 X94.194 Y76.247 E1.08565
G1 X94.517 Y76.124 E1.11152
G1 X95.086 Y75.934 E1.15641
G1 X95.438 Y75.833 E1.18382
G1 X96.154 Y75.667 E1.23882
G1 X96.638 Y75.581 E1.27561
G1 X97.085 Y75.517 E1.3094
G1 X97.378 Y75.484 E1.33147
G1 X98.049 Y75.44 E1.38179
G1 X99.193 Y75.42 E1.46741
G1 X135.624 Y75.418 E4.19374
G1 X136.955 Y75.44 E4.29336
G1 X137.534 Y75.474 E4.33676
G1 X137.826 Y75.503 E4.35872
G1 X138.51 Y75.605 E4.41047
G1 X139.138 Y75.73 E4.45839
G1 X140.004 Y75.959 E4.52543
G1 X140.321 Y76.065 E4.55044
G1 X140.766 Y76.231 E4.58599
G1 X141.202 Y76.41 E4.62126
G1 X141.995 Y76.795 E4.68722
G1 X142.367 Y77.005 E4.71919
G1 X142.755 Y77.241 E4.75318
G1 X143.097 Y77.464 E4.78373
G1 X143.801 Y77.988 E4.84941
G1 X144.291 Y78.402 E4.89741
G1 X145.002 Y79.093 E4.97161
G1 X145.356 Y79.489 E5.01136
G1 X145.769 Y79.996 E5.0603
G1 X145.923 Y80.204 E5.07966
G1 X146.276 Y80.729 E5.12701
G1 X146.585 Y81.235 E5.17138
G1 X146.988 Y81.994 E5.23569
G1 X147.15 Y82.35 E5.26496
G1 X147.318 Y82.751 E5.29749
G1 X147.436 Y83.059 E5.32218
G1 X147.623 Y83.613 E5.36593
G1 X147.727 Y83.97 E5.39376
G1 X147.899 Y84.706 E5.45032
G1 X147.987 Y85.198 E5.48773
G1 X148.053 Y85.653 E5.52213
G1 X148.086 Y85.946 E5.5442
G1 X148.13 Y86.614 E5.5943
G1 X148.151 Y87.861 E5.68763
G1 X148.149 Y147.309 E10.13644
G1 X148.133 Y148.304 E10.21091
G1 X148.108 Y148.795 E10.2477
G1 X148.078 Y149.146 E10.27406
G1 X147.966 Y149.936 E10.33377
G1 X147.845 Y150.54 E10.37987
G1 X147.645 Y151.308 E10.43926
G1 X147.526 Y151.68 E10.46849
G1 X147.33 Y152.219 E10.51141
G1 X147.158 Y152.637 E10.54524
G1 X146.775 Y153.425 E10.6108
G1 X146.565 Y153.797 E10.64277
G1 X146.339 Y154.171 E10.67547
G1 X146.123 Y154.504 E10.70518
G1 X145.592 Y155.22 E10.77189
G1 X145.213 Y155.669 E10.81586
G1 X144.587 Y156.321 E10.8835
G1 X144.139 Y156.732 E10.929
G1 X143.459 Y157.291 E10.99487
G1 X142.848 Y157.701 E11.04994
G1 X142.342 Y158.011 E11.09435
G1 X141.572 Y158.42 E11.15959
G1 X141.218 Y158.581 E11.1887
G1 X140.806 Y158.753 E11.22211
G1 X140.483 Y158.876 E11.24797
G1 X139.914 Y159.066 E11.29286
G1 X139.562 Y159.167 E11.32027
G1 X138.846 Y159.333 E11.37527
G1 X138.362 Y159.419 E11.41206
G1 X137.922 Y159.483 E11.44533
G1 X137.658 Y159.513 E11.46522
G1 X137.003 Y159.556 E11.51434
G1 X135.745 Y159.581 E11.6085
G1 X99.121 Y159.579 E14.34927
G1 X98.126 Y159.563 E14.42374
G1 X97.618 Y159.537 E14.46181
G1 X97.254 Y159.505 E14.48915
G1 X96.49 Y159.395 E14.54692
G1 X95.862 Y159.27 E14.59483
G1 X94.996 Y159.041 E14.66187
G1 X94.679 Y158.935 E14.68688
G1 X94.232 Y158.768 E14.72259
G1 X93.794 Y158.588 E14.75803
G1 X93.001 Y158.203 E14.824
G1 X92.631 Y157.994 E14.8558
G1 X92.245 Y157.759 E14.88962
G1 X91.903 Y157.536 E14.92017
G1 X91.191 Y157.006 E14.9866
G1 X90.7 Y156.59 E15.03476
G1 X89.999 Y155.908 E15.10795
G1 X89.641 Y155.508 E15.14812
G1 X89.198 Y154.961 E15.2008
G1 X89.049 Y154.757 E15.2197
G1 X88.729 Y154.278 E15.26281
G1 X88.419 Y153.772 E15.30722
G1 X88.01 Y153.002 E15.37247
G1 X87.849 Y152.648 E15.40157
G1 X87.678 Y152.238 E15.43481
G1 X87.556 Y151.918 E15.46044
G1 X87.371 Y151.366 E15.50401
G1 X87.271 Y151.021 E15.53089
G1 X87.1 Y150.288 E15.58722
G1 X87.011 Y149.788 E15.62522
G1 X86.945 Y149.336 E15.65941
G1 X86.913 Y149.051 E15.68087
G1 X86.87 Y148.383 E15.73096
G1 X86.849 Y147.114 E15.82594
G1 X86.851 Y87.691 E20.27288
G0 F6000 X87.451 Y87.7
G1 F1200 X87.467 Y86.705 E20.34735
G1 X87.491 Y86.245 E20.38182
G1 X87.522 Y85.89 E20.40849
G1 X87.623 Y85.18 E20.46216
G1 X87.743 Y84.58 E20.50795
G1 X87.926 Y83.875 E20.56245
G1 X88.045 Y83.503 E20.59168
G1 X88.225 Y83.01 E20.63096
G1 X88.397 Y82.592 E20.66478
G1 X88.748 Y81.87 E20.72486
G1 X88.958 Y81.498 E20.75683
G1 X89.173 Y81.143 E20.78789
G1 X89.396 Y80.801 E20.81844
G1 X89.877 Y80.154 E20.87878
G1 X90.249 Y79.714 E20.92189
G1 X90.819 Y79.121 E20.98345
G1 X91.267 Y78.71 E21.02895
G1 X91.893 Y78.195 E21.08961
G1 X92.468 Y77.809 E21.14144
G1 X92.971 Y77.501 E21.18557
G1 X93.673 Y77.128 E21.24506
G1 X94.029 Y76.966 E21.27433
G1 X94.408 Y76.808 E21.30506
G1 X94.731 Y76.685 E21.33093
G1 X95.251 Y76.511 E21.37196
G1 X95.603 Y76.41 E21.39937
G1 X96.259 Y76.258 E21.44976
G1 X96.743 Y76.172 E21.48655
G1 X97.153 Y76.113 E21.51755
G1 X97.446 Y76.08 E21.53961
G1 X98.059 Y76.04 E21.58558
G1 X99.317 Y76.019 E21.67974
G1 X135.624 Y76.018 E24.39678
G1 X136.945 Y76.04 E24.49566
G1 X137.474 Y76.071 E24.53531
G1 X137.766 Y76.1 E24.55727
G1 X138.393 Y76.193 E24.60471
G1 X139.021 Y76.318 E24.65262
G1 X139.813 Y76.529 E24.71396
G1 X140.13 Y76.635 E24.73898
G1 X140.538 Y76.786 E24.77153
G1 X140.974 Y76.965 E24.8068
G1 X141.7 Y77.318 E24.86722
G1 X142.072 Y77.528 E24.89918
G1 X142.427 Y77.743 E24.93024
G1 X142.769 Y77.966 E24.9608
G1 X143.414 Y78.446 E25.02096
G1 X143.904 Y78.86 E25.06897
G1 X144.555 Y79.493 E25.13692
G1 X144.909 Y79.889 E25.17667
G1 X145.287 Y80.353 E25.22146
G1 X145.441 Y80.561 E25.24083
G1 X145.764 Y81.041 E25.28412
G1 X146.073 Y81.547 E25.32849
G1 X146.442 Y82.243 E25.38744
G1 X146.604 Y82.599 E25.41671
G1 X146.758 Y82.966 E25.4465
G1 X146.876 Y83.274 E25.47118
G1 X147.047 Y83.781 E25.51122
G1 X147.151 Y84.138 E25.53905
G1 X147.308 Y84.812 E25.59084
G1 X147.396 Y85.304 E25.62824
G1 X147.457 Y85.721 E25.65978
G1 X147.49 Y86.014 E25.68185
G1 X147.53 Y86.625 E25.72767
G1 X147.551 Y87.861 E25.82018
G1 X147.549 Y147.3 E30.26831
G1 X147.533 Y148.295 E30.34279
G1 X147.51 Y148.744 E30.37643
G1 X147.48 Y149.095 E30.40279
G1 X147.377 Y149.818 E30.45745
G1 X147.256 Y150.422 E30.50354
G1 X147.074 Y151.125 E30.55789
G1 X146.955 Y151.497 E30.58712
G1 X146.775 Y151.99 E30.62639
G1 X146.603 Y152.408 E30.66022
G1 X146.252 Y153.13 E30.7203
G1 X146.042 Y153.502 E30.75226
G1 X145.835 Y153.844 E30.78218
G1 X145.619 Y154.177 E30.81188
G1 X145.133 Y154.833 E30.87298
G1 X144.754 Y155.282 E30.91695
G1 X144.181 Y155.879 E30.97888
G1 X143.733 Y156.29 E31.02437
G1 X143.106 Y156.805 E31.0851
G1 X142.535 Y157.19 E31.13663
G1 X142.029 Y157.5 E31.18104
G1 X141.324 Y157.874 E31.24076
G1 X140.97 Y158.035 E31.26987
G1 X140.592 Y158.192 E31.3005
G1 X140.269 Y158.315 E31.32636
G1 X139.749 Y158.489 E31.3674
G1 X139.397 Y158.59 E31.3948
G1 X138.741 Y158.742 E31.44519
G1 X138.257 Y158.828 E31.48198
G1 X137.59 Y158.916 E31.53233
G1 X136.991 Y158.957 E31.57726
G1 X135.88 Y158.98 E31.66042
G1 X99.13 Y158.979 E34.41062
G1 X98.135 Y158.963 E34.48509
G1 X97.671 Y158.939 E34.51986
G1 X97.307 Y158.907 E34.5472
G1 X96.607 Y158.807 E34.60012
G1 X95.979 Y158.682 E34.64804
G1 X95.187 Y158.471 E34.70938
G1 X94.87 Y158.365 E34.73439
G1 X94.46 Y158.213 E34.76711
G1 X94.022 Y158.033 E34.80255
G1 X93.296 Y157.681 E34.86293
G1 X92.926 Y157.472 E34.89473
G1 X92.573 Y157.257 E34.92566
G1 X92.231 Y157.034 E34.95622
G1 X91.579 Y156.548 E35.01707
G1 X91.088 Y156.132 E35.06523
G1 X90.447 Y155.508 E35.13218
G1 X90.089 Y155.108 E35.17235
G1 X89.683 Y154.607 E35.22061
G1 X89.534 Y154.403 E35.23951
G1 X89.24 Y153.965 E35.27899
G1 X88.93 Y153.459 E35.3234
G1 X88.556 Y152.754 E35.38312
G1 X88.395 Y152.4 E35.41222
G1 X88.238 Y152.025 E35.44265
G1 X88.116 Y151.705 E35.46828
G1 X87.947 Y151.199 E35.5082
G1 X87.847 Y150.854 E35.53508
G1 X87.691 Y150.183 E35.58663
G1 X87.602 Y149.683 E35.62464
G1 X87.542 Y149.269 E35.65594
G1 X87.51 Y148.984 E35.67741
G1 X87.47 Y148.373 E35.72323
G1 X87.449 Y147.114 E35.81746
G1 X87.451 Y87.7 E40.26372
G0 F6000 X88.051 Y87.71
G1 F1200 X88.067 Y86.715 E40.3382
G1 X88.088 Y86.297 E40.36952
G1 X88.119 Y85.942 E40.39618
G1 X88.212 Y85.298 E40.44488
G1 X88.332 Y84.698 E40.49067
G1 X88.498 Y84.057 E40.54022
G1 X88.617 Y83.685 E40.56945
G1 X88.78 Y83.238 E40.60505
G1 X88.952 Y82.82 E40.63888
G1 X89.27 Y82.165 E40.69337
G1 X89.48 Y81.793 E40.72534
G1 X89.676 Y81.47 E40.75361
G1 X89.899 Y81.128 E40.78416
G1 X90.335 Y80.542 E40.83883
G1 X90.707 Y80.102 E40.88194
G1 X91.224 Y79.563 E40.93784
G1 X91.672 Y79.152 E40.98333
G1 X92.248 Y78.679 E41.03911
G1 X92.781 Y78.32 E41.0872
G1 X93.284 Y78.012 E41.13134
G1 X93.921 Y77.674 E41.1853
G1 X94.277 Y77.512 E41.21457
G1 X94.621 Y77.368 E41.24248
G1 X94.944 Y77.245 E41.26835
G1 X95.417 Y77.088 E41.30564
G1 X95.769 Y76.987 E41.33305
G1 X96.364 Y76.849 E41.37876
G1 X96.848 Y76.763 E41.41554
G1 X97.22 Y76.709 E41.44368
G1 X97.513 Y76.676 E41.46574
G1 X98.07 Y76.64 E41.50751
G1 X99.317 Y76.619 E41.60084
G1 X135.624 Y76.618 E44.31789
G1 X136.935 Y76.64 E44.41601
G1 X137.415 Y76.668 E44.45199
G1 X137.707 Y76.697 E44.47395
G1 X138.276 Y76.782 E44.51701
G1 X138.904 Y76.907 E44.56493
G1 X139.623 Y77.098 E44.6206
G1 X139.94 Y77.204 E44.64561
G1 X140.31 Y77.341 E44.67514
G1 X140.746 Y77.52 E44.71041
G1 X141.405 Y77.84 E44.76523
G1 X141.777 Y78.05 E44.7972
G1 X142.1 Y78.246 E44.82548
G1 X142.442 Y78.469 E44.85603
G1 X143.027 Y78.904 E44.91058
G1 X143.517 Y79.318 E44.95859
G1 X144.108 Y79.893 E45.0203
G1 X144.462 Y80.289 E45.06005
G1 X144.805 Y80.71 E45.10068
G1 X144.959 Y80.918 E45.12005
G1 X145.252 Y81.354 E45.15936
G1 X145.561 Y81.86 E45.20373
G1 X145.896 Y82.491 E45.2572
G1 X146.058 Y82.847 E45.28647
G1 X146.198 Y83.18 E45.3135
G1 X146.316 Y83.488 E45.33818
G1 X146.471 Y83.949 E45.37458
G1 X146.575 Y84.306 E45.40241
G1 X146.718 Y84.917 E45.44937
G1 X146.806 Y85.409 E45.48677
G1 X146.861 Y85.788 E45.51543
G1 X146.894 Y86.081 E45.53749
G1 X146.93 Y86.636 E45.57911
G1 X146.951 Y87.861 E45.6708
G1 X146.949 Y147.29 E50.11819
G1 X146.933 Y148.285 E50.19266
G1 X146.913 Y148.692 E50.22315
G1 X146.883 Y149.043 E50.24952
G1 X146.789 Y149.7 E50.29918
G1 X146.668 Y150.304 E50.34528
G1 X146.502 Y150.943 E50.39469
G1 X146.383 Y151.315 E50.42392
G1 X146.22 Y151.762 E50.45952
G1 X146.048 Y152.18 E50.49335
G1 X145.73 Y152.835 E50.54784
G1 X145.52 Y153.207 E50.57981
G1 X145.332 Y153.518 E50.607
G1 X145.116 Y153.851 E50.63671
G1 X144.675 Y154.446 E50.69213
G1 X144.296 Y154.895 E50.7361
G1 X143.776 Y155.437 E50.79231
G1 X143.328 Y155.848 E50.83781
G1 X142.748 Y156.324 E50.89396
G1 X142.221 Y156.678 E50.94147
G1 X141.715 Y156.988 E50.98588
G1 X141.076 Y157.328 E51.04004
G1 X140.722 Y157.489 E51.06915
G1 X140.379 Y157.632 E51.09696
G1 X140.056 Y157.755 E51.12282
G1 X139.583 Y157.912 E51.16012
G1 X139.231 Y158.013 E51.18752
G1 X138.636 Y158.151 E51.23323
G1 X138.152 Y158.237 E51.27002
G1 X137.522 Y158.32 E51.31757
G1 X136.978 Y158.357 E51.35838
G1 X135.867 Y158.38 E51.44154
G1 X99.14 Y158.379 E54.19001
G1 X98.145 Y158.363 E54.26448
G1 X97.723 Y158.341 E54.29611
G1 X97.359 Y158.309 E54.32345
G1 X96.724 Y158.218 E54.37146
G1 X96.096 Y158.093 E54.41938
G1 X95.377 Y157.902 E54.47505
G1 X95.06 Y157.796 E54.50006
G1 X94.688 Y157.658 E54.52976
G1 X94.25 Y157.478 E54.56519
G1 X93.591 Y157.158 E54.62002
G1 X93.221 Y156.949 E54.65182
G1 X92.9 Y156.754 E54.67993
G1 X92.558 Y156.531 E54.71048
G1 X91.967 Y156.091 E54.76562
G1 X91.476 Y155.675 E54.81378
G1 X90.894 Y155.108 E54.87458
G1 X90.536 Y154.708 E54.91476
G1 X90.168 Y154.253 E54.95855
G1 X90.019 Y154.049 E54.97745
G1 X89.752 Y153.651 E55.01332
G1 X89.442 Y153.145 E55.05773
G1 X89.102 Y152.506 E55.1119
G1 X88.941 Y152.152 E55.141
G1 X88.799 Y151.811 E55.16864
G1 X88.677 Y151.491 E55.19427
G1 X88.523 Y151.032 E55.2305
G1 X88.423 Y150.687 E55.25738
G1 X88.281 Y150.078 E55.30418
G1 X88.192 Y149.578 E55.34219
G1 X88.138 Y149.202 E55.37061
G1 X88.106 Y148.917 E55.39207
G1 X88.07 Y148.362 E55.4337
G1 X88.049 Y147.114 E55.5271
G1 X88.051 Y87.71 E59.97262
G0 F6000 X88.651 Y87.72
G1 F1200 X88.667 Y86.725 E60.04709
G1 X88.686 Y86.349 E60.07526
G1 X88.717 Y85.994 E60.10193
G1 X88.8 Y85.416 E60.14563
G1 X88.92 Y84.816 E60.19142
G1 X89.069 Y84.24 E60.23594
G1 X89.188 Y83.868 E60.26517
G1 X89.335 Y83.466 E60.2972
G1 X89.507 Y83.048 E60.33103
G1 X89.793 Y82.46 E60.37996
G1 X90.003 Y82.088 E60.41193
G1 X90.178 Y81.798 E60.43728
G1 X90.401 Y81.456 E60.46783
G1 X90.794 Y80.929 E60.51703
G1 X91.166 Y80.489 E60.56015
G1 X91.63 Y80.006 E60.61027
G1 X92.078 Y79.595 E60.65577
G1 X92.602 Y79.162 E60.70664
G1 X93.094 Y78.832 E60.75097
G1 X93.597 Y78.524 E60.79511
G1 X94.17 Y78.22 E60.84365
G1 X94.526 Y78.058 E60.87292
G1 X94.835 Y77.929 E60.89798
G1 X95.158 Y77.806 E60.92385
G1 X95.582 Y77.665 E60.95728
G1 X95.934 Y77.564 E60.98469
G1 X96.469 Y77.44 E61.02579
G1 X96.953 Y77.354 E61.06257
G1 X97.287 Y77.305 E61.08784
G1 X97.58 Y77.272 E61.1099
G1 X98.08 Y77.24 E61.1474
G1 X99.317 Y77.219 E61.23998
G1 X135.624 Y77.218 E63.95703
G1 X136.924 Y77.24 E64.05433
G1 X137.356 Y77.265 E64.08671
G1 X137.648 Y77.294 E64.10867
G1 X138.159 Y77.37 E64.14733
G1 X138.787 Y77.495 E64.19525
G1 X139.433 Y77.667 E64.24528
G1 X139.75 Y77.773 E64.27029
G1 X140.082 Y77.896 E64.29679
G1 X140.518 Y78.075 E64.33206
G1 X141.11 Y78.363 E64.38132
G1 X141.482 Y78.573 E64.41329
G1 X141.772 Y78.748 E64.43864
G1 X142.114 Y78.971 E64.46919
G1 X142.64 Y79.363 E64.51829
G1 X143.13 Y79.777 E64.56629
G1 X143.66 Y80.293 E64.62165
G1 X144.014 Y80.689 E64.6614
G1 X144.323 Y81.067 E64.69793
G1 X144.477 Y81.275 E64.7173
G1 X144.74 Y81.667 E64.75263
G1 X145.049 Y82.173 E64.797
G1 X145.35 Y82.74 E64.84504
G1 X145.512 Y83.096 E64.87431
G1 X145.755 Y83.703 E64.92324
G1 X145.894 Y84.117 E64.95592
G1 X145.998 Y84.474 E64.98374
G1 X146.127 Y85.023 E65.02595
G1 X146.215 Y85.515 E65.06335
G1 X146.265 Y85.855 E65.08907
G1 X146.298 Y86.148 E65.11113
G1 X146.33 Y86.646 E65.14848
G1 X146.351 Y87.861 E65.23942
G1 X146.349 Y147.28 E69.68606
G1 X146.333 Y148.275 E69.76053
G1 X146.315 Y148.641 E69.78795
G1 X146.285 Y148.992 E69.81431
G1 X146.201 Y149.582 E69.85891
G1 X146.08 Y150.186 E69.90501
G1 X145.931 Y150.76 E69.94939
G1 X145.812 Y151.132 E69.97862
G1 X145.665 Y151.534 E70.01065
G1 X145.493 Y151.952 E70.04447
G1 X145.207 Y152.54 E70.09341
G1 X144.997 Y152.912 E70.12538
G1 X144.828 Y153.191 E70.14979
G1 X144.612 Y153.524 E70.17949
G1 X144.216 Y154.059 E70.2293
G1 X143.837 Y154.508 E70.27327
G1 X143.37 Y154.994 E70.32371
G1 X142.922 Y155.405 E70.36921
G1 X142.394 Y155.84 E70.4204
G1 X141.908 Y156.166 E70.4642
G1 X141.402 Y156.476 E70.50861
G1 X140.827 Y156.781 E70.55732
G1 X140.473 Y156.942 E70.58642
G1 X140.165 Y157.071 E70.61141
G1 X139.842 Y157.194 E70.63727
G1 X139.418 Y157.335 E70.67071
G1 X139.066 Y157.436 E70.69812
