;FLAVOR:Marlin
;TIME:4725
;Filament used: 2.46257m
;Layer height: 0.15
;MINX:104.569
;MINY:104.569
;MINZ:0.3
;MAXX:130.431
;MAXY:130.431
;MAXZ:25.5
;Generated with Cura_SteamEngine main
M140 S60
M105
M190 S60
M104 S190
M105
M109 S190
M82 ;absolute extrusion mode
; SC-10 Custom Start G-code
G28 ; Home all axes
G92 E0 ; Reset Extruder
G1 Z2.0 F3000 ; Move Z Axis up little to prevent scratching of Heat Bed
G1 X0.1 Y20 Z0.3 F5000.0 ; Move to start position
G1 X0.1 Y200.0 Z0.3 F1500.0 E15 ; Draw the first line
G1 X0.4 Y200.0 Z0.3 F5000.0 ; Move to side a little
G1 X0.4 Y20 Z0.3 F1500.0 E30 ; Draw the second line
G92 E0 ; Reset Extruder
G1 Z2.0 F3000 ; Move Z Axis up little to prevent scratching of Heat Bed
; End of custom start GCode
G92 E0
G92 E0
G1 F1500 E-6.5
;LAYER_COUNT:169
;LAYER:0
M107
G0 F6000 X108.119 Y108.593 Z0.3
G0 X104.569 Y117.567
;TYPE:SKIRT
G1 F1500 E0
G1 F1200 X104.578 Y116.926 E0.03198
G1 X104.636 Y116.148 E0.07091
G1 X104.722 Y115.52 E0.10253
G1 X104.794 Y115.098 E0.12389
G1 X104.916 Y114.505 E0.15409
G1 X105.125 Y113.736 E0.19385
G1 X105.356 Y113.056 E0.22968
G1 X105.505 Y112.66 E0.25079
G1 X105.755 Y112.085 E0.28207
G1 X105.965 Y111.65 E0.30617
G1 X106.17 Y111.261 E0.3281
G1 X106.34 Y110.963 E0.34522
G1 X106.545 Y110.627 E0.36486
G1 X106.809 Y110.224 E0.38889
G1 X107.026 Y109.914 E0.40777
G1 X107.243 Y109.622 E0.42592
G1 X107.498 Y109.301 E0.44637
G1 X107.815 Y108.927 E0.47083
G1 X108.119 Y108.593 E0.49337
G1 X108.545 Y108.171 E0.52328
G1 X108.994 Y107.76 E0.55365
G1 X109.472 Y107.358 E0.58481
G1 X109.79 Y107.118 E0.60469
G1 X110.209 Y106.821 E0.63031
G1 X110.568 Y106.584 E0.65177
G1 X111.071 Y106.276 E0.6812
G1 X111.758 Y105.911 E0.72001
G1 X112.528 Y105.56 E0.76223
G1 X113.287 Y105.27 E0.80276
G1 X113.922 Y105.073 E0.83593
G1 X114.3 Y104.969 E0.85549
G1 X114.64 Y104.886 E0.87295
G1 X115.044 Y104.801 E0.89355
G1 X115.406 Y104.737 E0.91189
G1 X115.8 Y104.68 E0.93175
G1 X116.268 Y104.627 E0.95525
G1 X116.664 Y104.594 E0.97507
G1 X117.019 Y104.576 E0.99281
G1 X117.432 Y104.569 E1.01342
G1 X118.078 Y104.578 E1.04565
G1 X118.864 Y104.637 E1.08497
G1 X119.487 Y104.723 E1.11635
G1 X119.911 Y104.796 E1.13781
G1 X120.509 Y104.92 E1.16828
G1 X121.269 Y105.127 E1.20758
G1 X121.946 Y105.357 E1.24325
G1 X122.338 Y105.505 E1.26416
G1 X122.915 Y105.755 E1.29553
G1 X123.35 Y105.965 E1.31963
G1 X123.745 Y106.173 E1.3419
G1 X124.037 Y106.34 E1.35868
G1 X124.358 Y106.537 E1.37747
G1 X124.764 Y106.802 E1.40166
G1 X125.074 Y107.017 E1.42048
G1 X125.359 Y107.228 E1.43817
G1 X125.706 Y107.504 E1.46029
G1 X126.109 Y107.848 E1.48673
G1 X126.544 Y108.252 E1.51635
G1 X126.828 Y108.544 E1.53667
G1 X127.334 Y109.099 E1.57414
G1 X127.828 Y109.712 E1.61341
G1 X128.18 Y110.209 E1.6438
G1 X128.414 Y110.564 E1.66501
G1 X128.721 Y111.065 E1.69433
G1 X129.089 Y111.758 E1.73347
G1 X129.443 Y112.536 E1.77612
G1 X129.727 Y113.28 E1.81585
G1 X129.914 Y113.879 E1.84715
G1 X130.026 Y114.283 E1.86807
G1 X130.127 Y114.701 E1.88952
G1 X130.209 Y115.095 E1.9096
G1 X130.263 Y115.402 E1.92515
G1 X130.319 Y115.79 E1.94471
G1 X130.373 Y116.266 E1.96861
G1 X130.406 Y116.663 E1.98849
G1 X130.424 Y117.018 E2.00622
G1 X130.431 Y117.431 E2.02683
G1 X130.422 Y118.078 E2.05911
G1 X130.363 Y118.864 E2.09843
G1 X130.277 Y119.487 E2.12981
G1 X130.206 Y119.902 E2.15081
G1 X130.084 Y120.495 E2.18102
G1 X129.875 Y121.264 E2.22078
G1 X129.644 Y121.944 E2.25661
G1 X129.495 Y122.34 E2.27771
G1 X129.245 Y122.915 E2.309
G1 X129.035 Y123.35 E2.33309
G1 X128.827 Y123.745 E2.35537
G1 X128.66 Y124.037 E2.37215
G1 X128.463 Y124.359 E2.39098
G1 X128.196 Y124.768 E2.41535
G1 X127.974 Y125.086 E2.4347
G1 X127.757 Y125.378 E2.45285
G1 X127.495 Y125.708 E2.47387
G1 X127.176 Y126.083 E2.49843
G1 X126.894 Y126.393 E2.51934
G1 X126.461 Y126.823 E2.54978
G1 X126.008 Y127.238 E2.58044
G1 X125.704 Y127.5 E2.60046
G1 X125.21 Y127.882 E2.63161
G1 X124.791 Y128.179 E2.65723
G1 X124.432 Y128.416 E2.6787
G1 X123.929 Y128.724 E2.70812
G1 X123.242 Y129.089 E2.74693
G1 X122.472 Y129.44 E2.78915
G1 X121.719 Y129.728 E2.82937
G1 X121.115 Y129.916 E2.86093
G1 X120.72 Y130.025 E2.88138
G1 X120.303 Y130.126 E2.90278
G1 X119.894 Y130.211 E2.92362
G1 X119.21 Y130.319 E2.95817
G1 X118.736 Y130.373 E2.98197
G1 X118.336 Y130.406 E3.002
G1 X117.981 Y130.424 E3.01973
G1 X117.568 Y130.431 E3.04034
G1 X116.922 Y130.422 E3.07257
G1 X116.136 Y130.363 E3.11189
G1 X115.513 Y130.277 E3.14327
G1 X115.088 Y130.204 E3.16478
G1 X114.495 Y130.081 E3.195
G1 X113.742 Y129.876 E3.23393
G1 X113.06 Y129.645 E3.26986
G1 X112.662 Y129.495 E3.29108
G1 X112.085 Y129.245 E3.32245
G1 X111.65 Y129.035 E3.34655
G1 X111.255 Y128.827 E3.36882
G1 X110.963 Y128.66 E3.3856
G1 X110.638 Y128.461 E3.40461
G1 X110.228 Y128.193 E3.42905
G1 X109.91 Y127.971 E3.4484
G1 X109.625 Y127.759 E3.46612
G1 X109.294 Y127.495 E3.48724
G1 X108.895 Y127.155 E3.5134
G1 X108.6 Y126.888 E3.53325
G1 X108.169 Y126.454 E3.56376
G1 X107.666 Y125.902 E3.60102
G1 X107.175 Y125.291 E3.64013
G1 X106.82 Y124.79 E3.67076
G1 X106.588 Y124.439 E3.69175
G1 X106.281 Y123.939 E3.72102
G1 X105.909 Y123.239 E3.76057
G1 X105.558 Y122.467 E3.80288
G1 X105.273 Y121.72 E3.84277
G1 X105.075 Y121.084 E3.876
G1 X104.969 Y120.7 E3.89588
G1 X104.886 Y120.36 E3.91334
G1 X104.801 Y119.956 E3.93393
G1 X104.737 Y119.594 E3.95227
G1 X104.68 Y119.2 E3.97214
G1 X104.627 Y118.732 E3.99563
G1 X104.594 Y118.336 E4.01546
G1 X104.576 Y117.981 E4.03319
G1 X104.569 Y117.567 E4.05385
G0 F6000 X104.969 Y117.573
G1 F1200 X104.978 Y116.932 E4.08583
G1 X105.032 Y116.202 E4.12235
G1 X105.118 Y115.574 E4.15398
G1 X105.186 Y115.179 E4.17397
G1 X105.308 Y114.586 E4.20418
G1 X105.504 Y113.865 E4.24145
G1 X105.735 Y113.185 E4.27728
G1 X105.875 Y112.814 E4.29707
G1 X106.116 Y112.259 E4.32725
G1 X106.326 Y111.824 E4.35135
G1 X106.517 Y111.459 E4.3719
G1 X106.687 Y111.161 E4.38902
G1 X106.88 Y110.846 E4.40745
G1 X107.144 Y110.443 E4.43149
G1 X107.347 Y110.152 E4.44919
G1 X107.564 Y109.86 E4.46734
G1 X107.803 Y109.56 E4.48647
G1 X108.12 Y109.186 E4.51093
G1 X108.405 Y108.872 E4.53209
G1 X108.815 Y108.466 E4.56088
G1 X109.264 Y108.055 E4.59125
G1 X109.547 Y107.811 E4.60989
G1 X110.021 Y107.444 E4.6398
G1 X110.44 Y107.147 E4.66542
G1 X110.777 Y106.925 E4.68555
G1 X111.28 Y106.617 E4.71498
G1 X111.924 Y106.274 E4.75138
G1 X112.694 Y105.923 E4.7936
G1 X113.405 Y105.652 E4.83156
G1 X114.04 Y105.455 E4.86473
G1 X114.395 Y105.357 E4.8831
G1 X114.735 Y105.274 E4.90056
G1 X115.113 Y105.195 E4.91983
G1 X115.475 Y105.131 E4.93817
G1 X115.845 Y105.077 E4.95682
G1 X116.313 Y105.024 E4.98032
G1 X116.684 Y104.994 E4.99889
G1 X117.039 Y104.976 E5.01663
G1 X117.427 Y104.969 E5.03599
G1 X118.073 Y104.978 E5.06822
G1 X118.809 Y105.033 E5.10504
G1 X119.432 Y105.119 E5.13642
G1 X119.83 Y105.188 E5.15657
G1 X120.428 Y105.312 E5.18704
G1 X121.14 Y105.506 E5.22385
G1 X121.817 Y105.736 E5.25953
G1 X122.185 Y105.875 E5.27915
G1 X122.741 Y106.116 E5.30938
G1 X123.176 Y106.326 E5.33348
G1 X123.547 Y106.521 E5.35439
G1 X123.839 Y106.688 E5.37118
G1 X124.139 Y106.872 E5.38873
G1 X124.545 Y107.137 E5.41292
G1 X124.836 Y107.339 E5.43059
G1 X125.121 Y107.55 E5.44829
G1 X125.446 Y107.808 E5.46899
G1 X125.849 Y108.152 E5.49542
G1 X126.267 Y108.54 E5.52388
G1 X126.533 Y108.814 E5.54293
G1 X127.039 Y109.369 E5.5804
G1 X127.501 Y109.943 E5.61716
G1 X127.853 Y110.44 E5.64754
G1 X128.073 Y110.773 E5.66745
G1 X128.38 Y111.274 E5.69677
G1 X128.725 Y111.924 E5.73348
G1 X129.079 Y112.702 E5.77613
G1 X129.345 Y113.399 E5.81335
G1 X129.532 Y113.998 E5.84465
G1 X129.637 Y114.377 E5.86427
G1 X129.738 Y114.795 E5.88573
G1 X129.815 Y115.165 E5.90458
G1 X129.922 Y115.835 E5.93843
G1 X129.976 Y116.311 E5.96233
G1 X130.006 Y116.683 E5.98095
G1 X130.024 Y117.038 E5.99869
G1 X130.031 Y117.425 E6.018
G1 X130.022 Y118.072 E6.05028
G1 X129.967 Y118.809 E6.08715
G1 X129.881 Y119.432 E6.11853
G1 X129.814 Y119.821 E6.13822
G1 X129.692 Y120.414 E6.16842
G1 X129.496 Y121.135 E6.2057
G1 X129.265 Y121.815 E6.24153
G1 X129.125 Y122.186 E6.26131
G1 X128.884 Y122.741 E6.2915
G1 X128.674 Y123.176 E6.3156
G1 X128.479 Y123.547 E6.33651
G1 X128.312 Y123.839 E6.35329
G1 X128.128 Y124.14 E6.37089
G1 X127.861 Y124.549 E6.39526
G1 X127.653 Y124.848 E6.41343
G1 X127.436 Y125.14 E6.43158
G1 X127.19 Y125.449 E6.45129
G1 X126.871 Y125.824 E6.47585
G1 X126.607 Y126.114 E6.49541
G1 X126.191 Y126.528 E6.52469
G1 X125.738 Y126.943 E6.55534
G1 X125.453 Y127.189 E6.57413
G1 X124.979 Y127.556 E6.60404
G1 X124.56 Y127.853 E6.62966
G1 X124.223 Y128.075 E6.64979
G1 X123.72 Y128.383 E6.67922
G1 X123.076 Y128.726 E6.71562
G1 X122.306 Y129.077 E6.75784
G1 X121.6 Y129.346 E6.79553
G1 X120.996 Y129.534 E6.82709
G1 X120.625 Y129.636 E6.84629
G1 X120.208 Y129.737 E6.86769
G1 X119.826 Y129.817 E6.88716
G1 X119.516 Y129.871 E6.90286
G1 X119.165 Y129.921 E6.92055
G1 X118.691 Y129.975 E6.94435
G1 X118.316 Y130.006 E6.96312
G1 X117.961 Y130.024 E6.98086
G1 X117.573 Y130.031 E7.00022
G1 X116.927 Y130.022 E7.03245
G1 X116.191 Y129.967 E7.06927
G1 X115.568 Y129.881 E7.10065
G1 X115.169 Y129.812 E7.12085
G1 X114.576 Y129.689 E7.15106
G1 X113.87 Y129.497 E7.18757
G1 X113.188 Y129.266 E7.22349
G1 X112.815 Y129.125 E7.24338
G1 X112.259 Y128.884 E7.27362
G1 X111.824 Y128.674 E7.29772
G1 X111.453 Y128.479 E7.31863
G1 X111.161 Y128.312 E7.33541
G1 X110.857 Y128.126 E7.35319
G1 X110.447 Y127.858 E7.37763
G1 X110.149 Y127.65 E7.39576
G1 X109.864 Y127.438 E7.41348
G1 X109.553 Y127.191 E7.43329
G1 X109.154 Y126.851 E7.45945
G1 X108.732 Y126.459 E7.48818
G1 X108.465 Y126.184 E7.5073
G1 X107.962 Y125.632 E7.54456
G1 X107.501 Y125.06 E7.58121
G1 X107.146 Y124.559 E7.61185
G1 X106.929 Y124.229 E7.63155
G1 X106.622 Y123.729 E7.66082
G1 X106.273 Y123.073 E7.69789
G1 X105.922 Y122.301 E7.7402
G1 X105.655 Y121.601 E7.77758
G1 X105.457 Y120.965 E7.81081
G1 X105.357 Y120.605 E7.82945
G1 X105.274 Y120.265 E7.84691
G1 X105.195 Y119.887 E7.86618
G1 X105.131 Y119.525 E7.88452
G1 X105.077 Y119.155 E7.90318
G1 X105.024 Y118.687 E7.92667
G1 X104.994 Y118.316 E7.94524
G1 X104.976 Y117.961 E7.96298
G1 X104.969 Y117.573 E7.98234
G0 F6000 X105.369 Y117.578
G1 F1200 X105.378 Y116.937 E8.01432
G1 X105.429 Y116.256 E8.04839
G1 X105.515 Y115.628 E8.08001
G1 X105.578 Y115.26 E8.09864
G1 X105.7 Y114.667 E8.12885
G1 X105.883 Y113.994 E8.16364
G1 X106.114 Y113.314 E8.19947
G1 X106.244 Y112.967 E8.21796
G1 X106.476 Y112.432 E8.24705
G1 X106.686 Y111.997 E8.27115
G1 X106.865 Y111.657 E8.29032
G1 X107.035 Y111.359 E8.30744
G1 X107.215 Y111.065 E8.32463
G1 X107.479 Y110.662 E8.34867
G1 X107.668 Y110.391 E8.36515
G1 X107.885 Y110.099 E8.3833
G1 X108.108 Y109.818 E8.4012
G1 X108.425 Y109.444 E8.42566
G1 X108.691 Y109.152 E8.44537
G1 X109.085 Y108.761 E8.47306
G1 X109.534 Y108.35 E8.50343
G1 X109.975 Y107.981 E8.53212
G1 X110.253 Y107.77 E8.54953
G1 X110.672 Y107.473 E8.57515
G1 X110.986 Y107.266 E8.59391
G1 X111.489 Y106.958 E8.62334
G1 X112.09 Y106.638 E8.65731
G1 X112.86 Y106.287 E8.69953
G1 X113.524 Y106.034 E8.73498
G1 X114.159 Y105.837 E8.76815
G1 X114.49 Y105.746 E8.78527
G1 X114.83 Y105.663 E8.80273
G1 X115.183 Y105.589 E8.82073
G1 X115.545 Y105.525 E8.83907
G1 X115.89 Y105.475 E8.85646
G1 X116.358 Y105.422 E8.87996
G1 X116.704 Y105.393 E8.89728
G1 X117.059 Y105.375 E8.91501
G1 X117.421 Y105.369 E8.93308
G1 X118.067 Y105.378 E8.96531
G1 X118.755 Y105.43 E8.99973
G1 X119.378 Y105.516 E9.03111
G1 X119.749 Y105.58 E9.04989
G1 X120.347 Y105.704 E9.08036
G1 X121.011 Y105.885 E9.1147
G1 X121.688 Y106.115 E9.15037
G1 X122.032 Y106.244 E9.1687
G1 X122.568 Y106.476 E9.19784
G1 X123.003 Y106.686 E9.22193
G1 X123.348 Y106.868 E9.24139
G1 X123.921 Y107.207 E9.27461
G1 X124.327 Y107.472 E9.2988
G1 X124.598 Y107.66 E9.31525
G1 X124.883 Y107.871 E9.33294
G1 X125.187 Y108.113 E9.35233
G1 X125.59 Y108.457 E9.37876
G1 X125.989 Y108.827 E9.40591
G1 X126.237 Y109.083 E9.42369
G1 X126.743 Y109.638 E9.46116
G1 X127.175 Y110.174 E9.49551
G1 X127.527 Y110.671 E9.52589
G1 X127.732 Y110.982 E9.54448
G1 X128.039 Y111.483 E9.57379
G1 X128.361 Y112.09 E9.60807
G1 X128.715 Y112.868 E9.65072
G1 X128.964 Y113.518 E9.68544
G1 X129.151 Y114.117 E9.71675
G1 X129.248 Y114.471 E9.73506
G1 X129.349 Y114.889 E9.75652
G1 X129.421 Y115.234 E9.7741
G1 X129.524 Y115.88 E9.80674
G1 X129.578 Y116.356 E9.83064
G1 X129.607 Y116.703 E9.84801
G1 X129.625 Y117.058 E9.86574
G1 X129.631 Y117.42 E9.8838
G1 X129.622 Y118.067 E9.91609
G1 X129.57 Y118.755 E9.95051
G1 X129.484 Y119.378 E9.98188
G1 X129.422 Y119.74 E10.00021
G1 X129.3 Y120.333 E10.03041
G1 X129.117 Y121.006 E10.06521
G1 X128.886 Y121.686 E10.10104
G1 X128.756 Y122.033 E10.11952
G1 X128.524 Y122.568 E10.14862
G1 X128.314 Y123.003 E10.17272
G1 X128.132 Y123.348 E10.19218
G1 X127.793 Y123.921 E10.22539
G1 X127.526 Y124.33 E10.24976
G1 X127.332 Y124.609 E10.26671
G1 X127.115 Y124.901 E10.28486
G1 X126.885 Y125.189 E10.30325
G1 X126.566 Y125.564 E10.32781
G1 X126.32 Y125.836 E10.34611
G1 X125.921 Y126.233 E10.37419
G1 X125.468 Y126.648 E10.40484
G1 X125.201 Y126.877 E10.42239
G1 X124.747 Y127.23 E10.45108
G1 X124.328 Y127.527 E10.47671
G1 X124.014 Y127.734 E10.49547
G1 X123.511 Y128.042 E10.52489
G1 X122.91 Y128.362 E10.55886
G1 X122.14 Y128.713 E10.60108
G1 X121.481 Y128.964 E10.63626
G1 X120.877 Y129.152 E10.66782
G1 X120.531 Y129.248 E10.68574
G1 X120.114 Y129.349 E10.70714
G1 X119.757 Y129.423 E10.72533
G1 X119.12 Y129.524 E10.75751
G1 X118.646 Y129.578 E10.78131
G1 X118.296 Y129.607 E10.79883
G1 X117.941 Y129.625 E10.81657
G1 X117.579 Y129.631 E10.83463
G1 X116.933 Y129.622 E10.86686
G1 X116.245 Y129.57 E10.90128
G1 X115.622 Y129.484 E10.93266
G1 X115.251 Y129.42 E10.95144
G1 X114.658 Y129.297 E10.98166
G1 X113.998 Y129.118 E11.01577
G1 X113.316 Y128.887 E11.0517
G1 X112.968 Y128.756 E11.07025
G1 X112.432 Y128.524 E11.09939
G1 X111.997 Y128.314 E11.12349
G1 X111.652 Y128.132 E11.14295
G1 X111.36 Y127.965 E11.15973
G1 X111.076 Y127.791 E11.17635
G1 X110.666 Y127.523 E11.20078
G1 X110.388 Y127.329 E11.2177
G1 X110.103 Y127.117 E11.23542
G1 X109.813 Y126.886 E11.25391
G1 X109.414 Y126.546 E11.28007
G1 X109.01 Y126.171 E11.30757
G1 X108.761 Y125.915 E11.32538
G1 X108.258 Y125.363 E11.36264
G1 X107.828 Y124.829 E11.39685
G1 X107.473 Y124.328 E11.42748
G1 X107.27 Y124.02 E11.44588
G1 X106.963 Y123.52 E11.47516
G1 X106.637 Y122.908 E11.50975
G1 X106.286 Y122.136 E11.55206
G1 X106.037 Y121.483 E11.58693
G1 X105.839 Y120.847 E11.62016
G1 X105.746 Y120.51 E11.6376
G1 X105.663 Y120.17 E11.65506
G1 X105.589 Y119.817 E11.67306
G1 X105.525 Y119.455 E11.6914
G1 X105.475 Y119.11 E11.70879
G1 X105.422 Y118.642 E11.73229
G1 X105.393 Y118.296 E11.74961
G1 X105.375 Y117.941 E11.76734
G1 X105.369 Y117.578 E11.78545
G0 F6000 X105.769 Y117.584
G1 F1200 X105.778 Y116.943 E11.81744
G1 X105.825 Y116.31 E11.8491
G1 X105.911 Y115.682 E11.88073
G1 X105.97 Y115.34 E11.89804
G1 X106.092 Y114.747 E11.92825
G1 X106.261 Y114.122 E11.96055
G1 X106.492 Y113.442 E11.99638
G1 X106.614 Y113.121 E12.01351
G1 X106.836 Y112.606 E12.04149
G1 X107.046 Y112.171 E12.06559
G1 X107.212 Y111.855 E12.0834
G1 X107.382 Y111.557 E12.10051
G1 X107.549 Y111.285 E12.11644
G1 X107.813 Y110.882 E12.14047
G1 X107.989 Y110.629 E12.15585
G1 X108.206 Y110.337 E12.174
G1 X108.413 Y110.077 E12.19058
G1 X108.73 Y109.703 E12.21504
G1 X108.977 Y109.431 E12.23337
G1 X109.355 Y109.056 E12.25993
G1 X109.804 Y108.645 E12.2903
G1 X110.226 Y108.292 E12.31775
G1 X110.484 Y108.097 E12.33388
G1 X110.903 Y107.8 E12.35951
G1 X111.195 Y107.607 E12.37697
G1 X111.698 Y107.299 E12.4064
G1 X112.256 Y107.002 E12.43793
G1 X113.026 Y106.651 E12.48015
