;FLAVOR:Marlin
;TIME:4184
;Filament used: 2.19349m
;Layer height: 0.15
;MINX:104.575
;MINY:104.575
;MINZ:0.3
;MAXX:130.425
;MAXY:130.425
;MAXZ:25.05
;Generated with Cura_SteamEngine main
M140 S60
M105
M190 S60
M104 S190
M105
M109 S190
M82 ;absolute extrusion mode
; SC-10 Custom Start G-code
G28 ; Home all axes
G92 E0 ; Reset Extruder
G1 Z2.0 F3000 ; Move Z Axis up little to prevent scratching of Heat Bed
G1 X0.1 Y20 Z0.3 F5000.0 ; Move to start position
G1 X0.1 Y200.0 Z0.3 F1500.0 E15 ; Draw the first line
G1 X0.4 Y200.0 Z0.3 F5000.0 ; Move to side a little
G1 X0.4 Y20 Z0.3 F1500.0 E30 ; Draw the second line
G92 E0 ; Reset Extruder
G1 Z2.0 F3000 ; Move Z Axis up little to prevent scratching of Heat Bed
; End of custom start GCode
G92 E0
G92 E0
G1 F1500 E-6.5
;LAYER_COUNT:166
;LAYER:0
M107
G0 F6000 X108.297 Y108.421 Z0.3
G0 X104.575 Y117.732
;TYPE:SKIRT
G1 F1500 E0
G1 F1200 X104.585 Y117.003 E0.03637
G1 X104.603 Y116.604 E0.0563
G1 X104.665 Y115.951 E0.08902
G1 X104.728 Y115.503 E0.1116
G1 X104.792 Y115.128 E0.13057
G1 X104.884 Y114.672 E0.15378
G1 X104.982 Y114.261 E0.17486
G1 X105.064 Y113.959 E0.19048
G1 X105.174 Y113.597 E0.20935
G1 X105.295 Y113.237 E0.2283
G1 X105.449 Y112.826 E0.2502
G1 X105.679 Y112.271 E0.28017
G1 X105.839 Y111.915 E0.29964
G1 X106.127 Y111.352 E0.33119
G1 X106.402 Y110.868 E0.35896
G1 X106.737 Y110.334 E0.39041
G1 X106.958 Y110.018 E0.40965
G1 X107.287 Y109.576 E0.43714
G1 X107.541 Y109.256 E0.45752
G1 X107.782 Y108.972 E0.47611
G1 X108.069 Y108.656 E0.4974
G1 X108.297 Y108.421 E0.51374
G1 X108.583 Y108.144 E0.5336
G1 X109.105 Y107.669 E0.56881
G1 X109.693 Y107.194 E0.60652
G1 X110.221 Y106.817 E0.63889
G1 X110.603 Y106.565 E0.66172
G1 X110.896 Y106.386 E0.67885
G1 X111.219 Y106.201 E0.69742
G1 X111.663 Y105.964 E0.72253
G1 X112.226 Y105.693 E0.75371
G1 X112.601 Y105.536 E0.77399
G1 X113.126 Y105.335 E0.80204
G1 X113.538 Y105.193 E0.82378
G1 X114.225 Y104.993 E0.85947
G1 X114.653 Y104.888 E0.88146
G1 X115.068 Y104.801 E0.90261
G1 X115.352 Y104.751 E0.917
G1 X115.753 Y104.693 E0.93722
G1 X116.471 Y104.613 E0.97326
G1 X117.268 Y104.575 E1.01307
G1 X117.993 Y104.585 E1.04924
G1 X118.396 Y104.603 E1.06937
G1 X119.032 Y104.664 E1.10124
G1 X119.486 Y104.727 E1.12411
G1 X119.872 Y104.792 E1.14364
G1 X120.328 Y104.884 E1.16685
G1 X120.748 Y104.984 E1.18839
G1 X121.052 Y105.067 E1.20411
G1 X121.405 Y105.175 E1.22252
G1 X121.765 Y105.296 E1.24147
G1 X122.178 Y105.45 E1.26346
G1 X122.723 Y105.676 E1.2929
G1 X123.261 Y105.924 E1.32245
G1 X123.654 Y106.131 E1.34461
G1 X124.14 Y106.408 E1.37252
G1 X124.489 Y106.621 E1.39292
G1 X124.975 Y106.954 E1.42231
G1 X125.417 Y107.282 E1.44977
G1 X125.746 Y107.543 E1.47072
G1 X126.038 Y107.791 E1.48984
G1 X126.345 Y108.069 E1.5105
G1 X126.559 Y108.276 E1.52535
G1 X126.84 Y108.565 E1.54546
G1 X127.312 Y109.083 E1.58043
G1 X127.773 Y109.652 E1.61696
G1 X128.165 Y110.196 E1.65041
G1 X128.433 Y110.598 E1.67452
G1 X128.611 Y110.889 E1.69154
G1 X128.802 Y111.225 E1.71082
G1 X129.046 Y111.684 E1.73675
G1 X129.22 Y112.037 E1.75639
G1 X129.461 Y112.594 E1.78667
G1 X129.663 Y113.12 E1.81478
G1 X129.805 Y113.533 E1.83657
G1 X130.008 Y114.227 E1.87264
G1 X130.113 Y114.656 E1.89468
G1 X130.198 Y115.065 E1.91552
G1 X130.248 Y115.348 E1.92985
G1 X130.306 Y115.749 E1.95007
G1 X130.386 Y116.464 E1.98596
G1 X130.425 Y117.264 E2.02592
G1 X130.415 Y117.993 E2.0623
G1 X130.397 Y118.396 E2.08242
G1 X130.336 Y119.032 E2.1143
G1 X130.273 Y119.486 E2.13716
G1 X130.208 Y119.872 E2.15669
G1 X130.116 Y120.328 E2.1799
G1 X130.013 Y120.758 E2.20196
G1 X129.831 Y121.388 E2.23468
G1 X129.711 Y121.748 E2.25361
G1 X129.55 Y122.177 E2.27647
G1 X129.323 Y122.724 E2.30602
G1 X129.076 Y123.261 E2.33551
G1 X128.869 Y123.654 E2.35767
G1 X128.592 Y124.14 E2.38557
G1 X128.388 Y124.475 E2.40514
G1 X128.046 Y124.977 E2.43545
G1 X127.716 Y125.421 E2.46305
G1 X127.459 Y125.744 E2.48364
G1 X127.218 Y126.028 E2.50222
G1 X126.931 Y126.344 E2.52352
G1 X126.703 Y126.579 E2.53985
G1 X126.417 Y126.856 E2.55972
G1 X125.895 Y127.331 E2.59493
G1 X125.307 Y127.806 E2.63264
G1 X124.779 Y128.183 E2.66501
G1 X124.403 Y128.432 E2.68751
G1 X124.114 Y128.609 E2.70442
G1 X123.783 Y128.798 E2.72343
G1 X123.335 Y129.037 E2.74876
G1 X122.774 Y129.307 E2.77983
G1 X122.399 Y129.464 E2.80011
G1 X121.874 Y129.665 E2.82815
G1 X121.462 Y129.807 E2.8499
G1 X120.775 Y130.007 E2.88559
G1 X120.347 Y130.112 E2.90758
G1 X119.932 Y130.199 E2.92873
G1 X119.648 Y130.249 E2.94312
G1 X119.247 Y130.307 E2.96333
G1 X118.529 Y130.387 E2.99938
G1 X117.732 Y130.425 E3.03918
G1 X117.007 Y130.415 E3.07536
G1 X116.604 Y130.397 E3.09548
G1 X115.968 Y130.336 E3.12736
G1 X115.514 Y130.273 E3.15023
G1 X115.118 Y130.205 E3.17027
G1 X114.661 Y130.112 E3.19354
G1 X114.255 Y130.016 E3.21435
G1 X113.607 Y129.829 E3.248
G1 X113.245 Y129.708 E3.26704
G1 X112.822 Y129.55 E3.28957
G1 X112.277 Y129.324 E3.31901
G1 X111.739 Y129.076 E3.34856
G1 X111.346 Y128.869 E3.37072
G1 X110.86 Y128.592 E3.39863
G1 X110.511 Y128.379 E3.41903
G1 X110.023 Y128.045 E3.44853
G1 X109.58 Y127.716 E3.47606
G1 X109.253 Y127.456 E3.49691
G1 X108.961 Y127.208 E3.51602
G1 X108.654 Y126.93 E3.53668
G1 X108.44 Y126.723 E3.55154
G1 X108.143 Y126.416 E3.57285
G1 X107.633 Y125.852 E3.61078
G1 X107.16 Y125.262 E3.64851
G1 X106.806 Y124.763 E3.67903
G1 X106.572 Y124.408 E3.70024
G1 X106.394 Y124.118 E3.71722
G1 X106.199 Y123.778 E3.73678
G1 X105.961 Y123.331 E3.76204
G1 X105.693 Y122.774 E3.79288
G1 X105.537 Y122.402 E3.813
G1 X105.335 Y121.875 E3.84116
G1 X105.19 Y121.453 E3.86342
G1 X104.993 Y120.775 E3.89865
G1 X104.888 Y120.347 E3.92063
G1 X104.801 Y119.932 E3.94179
G1 X104.751 Y119.648 E3.95617
G1 X104.693 Y119.247 E3.97639
G1 X104.613 Y118.529 E4.01243
G1 X104.575 Y117.732 E4.05224
G0 F6000 X104.975 Y117.738
G1 F1200 X104.985 Y117.009 E4.08861
G1 X105.001 Y116.634 E4.10734
G1 X105.061 Y116.006 E4.13881
G1 X105.124 Y115.558 E4.16138
G1 X105.185 Y115.207 E4.17916
G1 X105.277 Y114.751 E4.20236
G1 X105.368 Y114.366 E4.2221
G1 X105.553 Y113.724 E4.25543
G1 X105.674 Y113.364 E4.27438
G1 X105.818 Y112.979 E4.29489
G1 X106.048 Y112.424 E4.32486
G1 X106.3 Y111.883 E4.35464
G1 X106.475 Y111.55 E4.37341
G1 X106.75 Y111.066 E4.40118
G1 X106.947 Y110.744 E4.42001
G1 X107.279 Y110.256 E4.44946
G1 X107.608 Y109.814 E4.47695
G1 X107.846 Y109.515 E4.49601
G1 X108.087 Y109.231 E4.5146
G1 X108.356 Y108.935 E4.53455
G1 X108.584 Y108.7 E4.55089
G1 X108.852 Y108.44 E4.56951
G1 X109.374 Y107.965 E4.60473
G1 X109.925 Y107.52 E4.64006
G1 X110.453 Y107.143 E4.67243
G1 X110.812 Y106.906 E4.69389
G1 X111.105 Y106.727 E4.71102
G1 X111.408 Y106.554 E4.72843
G1 X111.852 Y106.317 E4.75354
G1 X112.393 Y106.057 E4.78348
G1 X112.744 Y105.91 E4.80247
G1 X113.269 Y105.709 E4.83051
G1 X113.655 Y105.575 E4.8509
G1 X113.991 Y105.472 E4.86843
G1 X114.32 Y105.382 E4.88545
G1 X114.748 Y105.277 E4.90743
G1 X115.138 Y105.195 E4.92732
G1 X115.422 Y105.145 E4.9417
G1 X115.798 Y105.091 E4.96065
G1 X116.516 Y105.011 E4.9967
G1 X117.263 Y104.975 E5.03401
G1 X117.988 Y104.985 E5.07018
G1 X118.365 Y105.002 E5.08901
G1 X118.977 Y105.06 E5.11968
G1 X119.431 Y105.123 E5.14255
G1 X119.793 Y105.185 E5.16087
G1 X120.249 Y105.277 E5.18408
G1 X120.642 Y105.37 E5.20423
G1 X121.278 Y105.554 E5.23726
G1 X121.638 Y105.675 E5.25621
G1 X122.024 Y105.82 E5.27678
G1 X122.569 Y106.046 E5.30621
G1 X123.087 Y106.285 E5.33467
G1 X123.456 Y106.478 E5.35545
G1 X123.942 Y106.755 E5.38336
G1 X124.269 Y106.955 E5.40248
G1 X124.737 Y107.275 E5.43077
G1 X125.179 Y107.603 E5.45823
G1 X125.487 Y107.848 E5.47786
G1 X125.779 Y108.096 E5.49697
G1 X126.067 Y108.356 E5.51633
G1 X126.281 Y108.563 E5.53119
G1 X126.544 Y108.835 E5.55006
G1 X127.016 Y109.353 E5.58502
G1 X127.449 Y109.886 E5.61929
G1 X127.841 Y110.43 E5.65274
G1 X128.091 Y110.807 E5.67531
G1 X128.269 Y111.098 E5.69232
G1 X128.449 Y111.413 E5.71043
G1 X128.693 Y111.872 E5.73636
G1 X128.856 Y112.203 E5.75477
G1 X129.087 Y112.737 E5.78379
G1 X129.289 Y113.263 E5.8119
G1 X129.423 Y113.651 E5.83238
G1 X129.526 Y113.986 E5.84987
G1 X129.619 Y114.323 E5.86731
G1 X129.724 Y114.752 E5.88935
G1 X129.804 Y115.134 E5.90882
G1 X129.909 Y115.794 E5.94216
G1 X129.989 Y116.509 E5.97805
G1 X130.025 Y117.258 E6.01546
G1 X130.015 Y117.987 E6.05184
G1 X129.998 Y118.365 E6.07071
G1 X129.94 Y118.977 E6.10138
G1 X129.877 Y119.431 E6.12425
G1 X129.815 Y119.793 E6.14257
G1 X129.723 Y120.249 E6.16578
G1 X129.627 Y120.652 E6.18645
G1 X129.451 Y121.261 E6.21808
G1 X129.331 Y121.621 E6.23701
G1 X129.181 Y122.024 E6.25846
G1 X128.954 Y122.571 E6.28801
G1 X128.715 Y123.087 E6.31638
G1 X128.522 Y123.456 E6.33716
G1 X128.245 Y123.942 E6.36506
G1 X128.053 Y124.256 E6.38343
G1 X127.725 Y124.738 E6.41251
G1 X127.395 Y125.182 E6.44011
G1 X127.154 Y125.485 E6.45943
G1 X126.913 Y125.769 E6.47801
G1 X126.644 Y126.065 E6.49797
G1 X126.416 Y126.3 E6.5143
G1 X126.148 Y126.56 E6.53293
G1 X125.626 Y127.035 E6.56814
G1 X125.075 Y127.48 E6.60348
G1 X124.547 Y127.857 E6.63584
G1 X124.194 Y128.091 E6.65697
G1 X123.905 Y128.268 E6.67388
G1 X123.595 Y128.445 E6.69169
G1 X123.147 Y128.684 E6.71702
G1 X122.607 Y128.943 E6.7469
G1 X122.256 Y129.09 E6.76589
G1 X121.731 Y129.291 E6.79393
G1 X121.345 Y129.425 E6.81432
G1 X121.009 Y129.528 E6.83185
G1 X120.68 Y129.618 E6.84887
G1 X120.252 Y129.723 E6.87085
G1 X119.862 Y129.805 E6.89074
G1 X119.578 Y129.855 E6.90512
G1 X119.202 Y129.909 E6.92407
G1 X118.484 Y129.989 E6.96012
G1 X117.737 Y130.025 E6.99743
G1 X117.012 Y130.015 E7.0336
G1 X116.635 Y129.998 E7.05243
G1 X116.023 Y129.94 E7.0831
G1 X115.569 Y129.877 E7.10597
G1 X115.198 Y129.813 E7.12475
G1 X114.741 Y129.72 E7.14802
G1 X114.36 Y129.63 E7.16755
G1 X113.734 Y129.45 E7.20004
G1 X113.372 Y129.329 E7.21909
G1 X112.976 Y129.18 E7.2402
G1 X112.431 Y128.954 E7.26963
G1 X111.913 Y128.715 E7.29809
G1 X111.544 Y128.522 E7.31887
G1 X111.058 Y128.245 E7.34678
G1 X110.731 Y128.045 E7.3659
G1 X110.262 Y127.724 E7.39425
G1 X109.819 Y127.395 E7.42178
G1 X109.512 Y127.151 E7.44135
G1 X109.22 Y126.903 E7.46046
G1 X108.932 Y126.643 E7.47982
G1 X108.718 Y126.436 E7.49467
G1 X108.44 Y126.147 E7.51468
G1 X107.93 Y125.583 E7.55262
G1 X107.486 Y125.031 E7.58796
G1 X107.132 Y124.532 E7.61848
G1 X106.912 Y124.199 E7.63839
G1 X106.734 Y123.909 E7.65537
G1 X106.552 Y123.59 E7.67369
G1 X106.314 Y123.143 E7.69896
G1 X106.057 Y122.607 E7.72861
G1 X105.91 Y122.258 E7.74751
G1 X105.708 Y121.731 E7.77566
G1 X105.573 Y121.336 E7.79649
G1 X105.382 Y120.68 E7.83058
G1 X105.277 Y120.252 E7.85256
G1 X105.195 Y119.862 E7.87245
G1 X105.145 Y119.578 E7.88683
G1 X105.091 Y119.202 E7.90578
G1 X105.011 Y118.484 E7.94183
G1 X104.975 Y117.738 E7.97909
G0 F6000 X105.375 Y117.743
G1 F1200 X105.385 Y117.014 E8.01546
G1 X105.419 Y116.416 E8.04534
G1 X105.458 Y116.062 E8.06311
G1 X105.521 Y115.614 E8.08568
G1 X105.577 Y115.286 E8.10228
G1 X105.669 Y114.83 E8.12549
G1 X105.754 Y114.471 E8.1439
G1 X105.932 Y113.852 E8.17603
G1 X106.053 Y113.492 E8.19498
G1 X106.188 Y113.132 E8.21416
G1 X106.418 Y112.577 E8.24413
G1 X106.659 Y112.058 E8.27268
G1 X106.823 Y111.748 E8.29018
G1 X107.098 Y111.264 E8.31795
G1 X107.281 Y110.963 E8.33552
G1 X107.6 Y110.495 E8.36378
G1 X107.929 Y110.053 E8.39127
G1 X108.151 Y109.774 E8.40906
G1 X108.392 Y109.49 E8.42764
G1 X108.643 Y109.214 E8.44625
G1 X109.121 Y108.736 E8.47998
G1 X109.643 Y108.261 E8.51519
G1 X110.158 Y107.846 E8.54819
G1 X110.686 Y107.469 E8.58056
G1 X111.021 Y107.247 E8.60061
G1 X111.596 Y106.907 E8.63393
G1 X112.04 Y106.67 E8.65904
G1 X112.559 Y106.421 E8.68776
G1 X112.887 Y106.283 E8.70551
G1 X113.412 Y106.082 E8.73356
G1 X113.773 Y105.958 E8.7526
G1 X114.416 Y105.77 E8.78603
G1 X114.844 Y105.665 E8.80801
G1 X115.207 Y105.589 E8.82652
G1 X115.842 Y105.488 E8.85859
G1 X116.56 Y105.408 E8.89464
G1 X117.257 Y105.375 E8.92945
G1 X117.982 Y105.385 E8.96562
G1 X118.335 Y105.4 E8.98325
G1 X118.922 Y105.456 E9.01267
G1 X119.376 Y105.519 E9.03554
G1 X119.714 Y105.577 E9.05265
G1 X120.17 Y105.669 E9.07585
G1 X120.537 Y105.756 E9.09467
G1 X121.15 Y105.933 E9.1265
G1 X121.51 Y106.054 E9.14545
G1 X121.871 Y106.189 E9.16468
G1 X122.416 Y106.415 E9.19411
G1 X122.914 Y106.645 E9.22148
G1 X123.258 Y106.826 E9.24087
G1 X123.744 Y107.103 E9.26878
G1 X124.049 Y107.29 E9.28663
G1 X124.498 Y107.596 E9.31374
G1 X124.94 Y107.924 E9.3412
G1 X125.228 Y108.153 E9.35956
G1 X125.52 Y108.401 E9.37867
G1 X125.788 Y108.644 E9.39672
G1 X126.248 Y109.104 E9.42917
G1 X126.72 Y109.622 E9.46414
G1 X127.124 Y110.12 E9.49613
G1 X127.516 Y110.664 E9.52958
G1 X127.75 Y111.016 E9.55067
G1 X128.096 Y111.6 E9.58453
G1 X128.34 Y112.059 E9.61047
G1 X128.492 Y112.369 E9.62769
G1 X128.714 Y112.88 E9.65549
G1 X128.916 Y113.406 E9.6836
G1 X129.041 Y113.768 E9.70271
G1 X129.144 Y114.103 E9.72019
G1 X129.335 Y114.847 E9.75851
G1 X129.411 Y115.204 E9.77672
G1 X129.461 Y115.487 E9.79106
G1 X129.511 Y115.838 E9.80875
G1 X129.591 Y116.553 E9.84464
G1 X129.625 Y117.253 E9.87961
G1 X129.615 Y117.982 E9.91598
G1 X129.6 Y118.335 E9.93361
G1 X129.544 Y118.922 E9.96303
G1 X129.481 Y119.376 E9.9859
G1 X129.423 Y119.714 E10.003
G1 X129.331 Y120.17 E10.02621
G1 X129.242 Y120.546 E10.04549
G1 X129.072 Y121.135 E10.07607
G1 X128.952 Y121.495 E10.09501
G1 X128.811 Y121.87 E10.11499
G1 X128.584 Y122.417 E10.14454
G1 X128.355 Y122.914 E10.17184
G1 X128.174 Y123.258 E10.19123
G1 X127.897 Y123.744 E10.21914
G1 X127.718 Y124.037 E10.23627
G1 X127.404 Y124.5 E10.26418
G1 X127.074 Y124.944 E10.29178
G1 X126.849 Y125.226 E10.30978
G1 X126.608 Y125.51 E10.32836
G1 X126.357 Y125.786 E10.34698
G1 X125.879 Y126.264 E10.3807
G1 X125.357 Y126.739 E10.41591
G1 X124.842 Y127.154 E10.44891
G1 X124.314 Y127.531 E10.48128
G1 X123.985 Y127.75 E10.501
G1 X123.696 Y127.927 E10.5179
G1 X123.407 Y128.092 E10.53451
G1 X122.959 Y128.331 E10.55984
G1 X122.441 Y128.579 E10.58849
G1 X122.113 Y128.717 E10.60624
G1 X121.588 Y128.918 E10.63429
G1 X121.227 Y129.042 E10.65333
G1 X120.584 Y129.23 E10.68676
G1 X120.156 Y129.335 E10.70874
G1 X119.793 Y129.411 E10.72724
G1 X119.158 Y129.512 E10.75932
G1 X118.44 Y129.592 E10.79537
G1 X117.743 Y129.625 E10.83018
G1 X117.018 Y129.615 E10.86635
G1 X116.665 Y129.6 E10.88398
G1 X116.078 Y129.544 E10.9134
G1 X115.624 Y129.481 E10.93627
G1 X115.277 Y129.422 E10.95383
G1 X114.82 Y129.329 E10.97709
G1 X114.465 Y129.244 E10.9953
G1 X113.861 Y129.07 E11.02666
G1 X113.499 Y128.949 E11.04571
G1 X113.129 Y128.811 E11.06541
G1 X112.584 Y128.585 E11.09484
G1 X112.086 Y128.355 E11.12221
G1 X111.742 Y128.174 E11.1416
G1 X111.256 Y127.897 E11.16951
G1 X110.951 Y127.71 E11.18736
G1 X110.5 Y127.403 E11.21458
G1 X110.057 Y127.074 E11.24211
G1 X109.771 Y126.846 E11.26036
G1 X109.479 Y126.598 E11.27947
G1 X109.211 Y126.355 E11.29752
G1 X108.997 Y126.148 E11.31237
G1 X108.736 Y125.879 E11.33107
G1 X108.226 Y125.315 E11.36901
G1 X107.813 Y124.799 E11.40198
G1 X107.459 Y124.3 E11.4325
G1 X107.253 Y123.989 E11.45112
G1 X107.075 Y123.699 E11.46809
G1 X106.905 Y123.402 E11.48516
G1 X106.667 Y122.955 E11.51043
G1 X106.421 Y122.441 E11.53886
G1 X106.284 Y122.115 E11.5565
G1 X106.082 Y121.588 E11.58466
G1 X105.955 Y121.22 E11.60408
G1 X105.77 Y120.584 E11.63713
G1 X105.665 Y120.156 E11.65911
G1 X105.589 Y119.793 E11.67761
G1 X105.488 Y119.158 E11.70969
G1 X105.408 Y118.44 E11.74574
G1 X105.375 Y117.743 E11.78055
G0 F6000 X105.774 Y117.749
G1 F1200 X105.784 Y117.02 E11.81692
G1 X105.818 Y116.446 E11.84561
G1 X105.854 Y116.118 E11.86207
G1 X105.917 Y115.67 E11.88464
G1 X105.969 Y115.366 E11.90003
G1 X106.061 Y114.91 E11.92324
G1 X106.14 Y114.575 E11.94041
G1 X106.311 Y113.979 E11.97134
G1 X106.432 Y113.619 E11.99029
